(Projekt test)
(Erstellt mit Estlcam Version 11 Build 11,244)
(Laufzeit ca. 00:22:42 Stunden)

(Benötigte Werkzeuge:)
(HPL)

M03 S24000
G00 Z5.0000


(Nr. 1 Ausschnitt: Ausschnitt 1)
G00 X60.6464 Y30.1386
G00 Z0.5000
G01 Z0.0000 F1000 S24000
G02 X61.4073 Y33.0383 Z-4.954000 I0.4269 J1.4377
G01 X61.4584 Y33.0246 Z-5.000000
G02 X60.7397 Y30.1136 I-0.3845 J-1.4493
G01 X60.6464 Y30.1386
G02 X61.4073 Y33.0383 Z-9.954000 I0.4269 J1.4377
G01 X61.4584 Y33.0246 Z-10.000000
G02 X60.7397 Y30.1136 I-0.3845 J-1.4493
G01 X60.6464 Y30.1386
G02 X61.4073 Y33.0383 Z-14.954000 I0.4269 J1.4377
G01 X61.4584 Y33.0246 Z-15.000000
G02 X60.7397 Y30.1136 I-0.3845 J-1.4493
G01 X60.6464 Y30.1386
G02 X61.4073 Y33.0383 Z-19.954000 I0.4269 J1.4377
G01 X61.4584 Y33.0246 Z-20.000000
G02 X60.7397 Y30.1136 I-0.3845 J-1.4493
G01 X60.6464 Y30.1386
G02 X61.4073 Y33.0383 Z-24.954000 I0.4269 J1.4377
G01 X61.4584 Y33.0246 Z-25.000000
G02 X60.7397 Y30.1136 I-0.3845 J-1.4493
G01 X60.6464 Y30.1386
G02 X61.4073 Y33.0383 Z-29.954000 I0.4269 J1.4377
G01 X61.4584 Y33.0246 Z-30.000000
G02 X60.7397 Y30.1136 I-0.3845 J-1.4493
G01 X60.6464 Y30.1386
G02 X61.4073 Y33.0383 Z-34.954000 I0.4269 J1.4377
G01 X61.4584 Y33.0246 Z-35.000000
G02 X60.7397 Y30.1136 I-0.3845 J-1.4493
G01 X60.6464 Y30.1386
G02 X61.4073 Y33.0383 Z-39.954000 I0.4269 J1.4377
G01 X61.4584 Y33.0246 Z-40.000000
G02 X60.7397 Y30.1136 I-0.3845 J-1.4493
G01 X60.6464 Y30.1386
G02 X61.4073 Y33.0383 Z-44.954000 I0.4269 J1.4377
G01 X61.4584 Y33.0246 Z-45.000000
G02 X60.7397 Y30.1136 I-0.3845 J-1.4493
G01 X60.6464 Y30.1386
G02 X61.4073 Y33.0383 Z-49.954000 I0.4269 J1.4377
G01 X61.4584 Y33.0246 Z-50.000000
G02 X60.7397 Y30.1136 I-0.3845 J-1.4493
G01 X60.6464 Y30.1386
G02 X61.4073 Y33.0383 Z-54.954000 I0.4269 J1.4377
G01 X61.4584 Y33.0246 Z-55.000000
G02 X60.7397 Y30.1136 I-0.3845 J-1.4493
G01 X60.6464 Y30.1386
G02 X61.4073 Y33.0383 Z-59.954000 I0.4269 J1.4377
G01 X61.4584 Y33.0246 Z-60.000000
G02 X60.7397 Y30.1136 I-0.3845 J-1.4493
G01 X60.6464 Y30.1386
G02 X61.4073 Y33.0383 Z-64.954000 I0.4269 J1.4377
G01 X61.4584 Y33.0246 Z-65.000000
G02 X60.7397 Y30.1136 I-0.3845 J-1.4493
G01 X60.6464 Y30.1386
G02 X61.4073 Y33.0383 Z-69.954000 I0.4269 J1.4377
G01 X61.4584 Y33.0246 Z-70.000000
G02 X60.7397 Y30.1136 I-0.3845 J-1.4493
G01 X60.6464 Y30.1386
G02 X61.4073 Y33.0383 Z-74.954000 I0.4269 J1.4377
G01 X61.4584 Y33.0246 Z-75.000000
G02 X60.7397 Y30.1136 I-0.3845 J-1.4493
G01 X60.6464 Y30.1386
G02 X61.4073 Y33.0383 Z-79.954000 I0.4269 J1.4377
G01 X61.4584 Y33.0246 Z-80.000000
G02 X60.7397 Y30.1136 I-0.3845 J-1.4493
G01 X60.6464 Y30.1386
G02 X61.4073 Y33.0383 Z-84.954000 I0.4269 J1.4377
G01 X61.4584 Y33.0246 Z-85.000000
G02 X60.7397 Y30.1136 I-0.3845 J-1.4493
G01 X60.6464 Y30.1386
G02 X61.4073 Y33.0383 Z-89.954000 I0.4269 J1.4377
G01 X61.4584 Y33.0246 Z-90.000000
G02 X60.7397 Y30.1136 I-0.3845 J-1.4493
G01 X60.6464 Y30.1386
G02 X61.4073 Y33.0383 Z-94.954000 I0.4269 J1.4377
G01 X61.4584 Y33.0246 Z-95.000000
G02 X60.7397 Y30.1136 I-0.3845 J-1.4493
G01 X60.6464 Y30.1386
G02 X61.4073 Y33.0383 Z-97.4770 I0.4269 J1.4377
G01 X61.4488 Y33.0272 Z-97.5000
G01 X61.4073 Y33.0383 Z-97.5230
G03 X60.6464 Y30.1386 Z-100.0000 I-0.3340 J-1.4621
G02 X61.4073 Y33.0383 I0.4269 J1.4377
G01 X61.4584 Y33.0246
G00 Z-96.0000
G02 X60.7397 Y30.1136 I-0.3845 J-1.4493
G01 X60.6464 Y30.1386
G00 Z5.0000


(Nr. 2 Ausschnitt: Ausschnitt 2)
G00 X97.3929 Y21.9524 Z5.0000
G00 Z0.5000
G01 Z0.0000 F1000
G02 X84.1371 Y7.1493 Z-3.555800 I-30.8323 J14.2728
G02 X57.5632 Y2.1552 Z-5.000000 I-19.9365 J32.8858
G02 X37.5478 Y12.4824 I6.0775 J36.3386
G02 X28.4619 Y30.7751 I22.7972 J22.7262
G02 X34.1510 Y53.1744 I31.0338 J4.0399
G02 X51.1555 Y65.8502 I28.8237 J-20.9232
G02 X83.2027 Y63.1008 I13.0252 J-36.3255
G02 X96.9343 Y48.7078 I-16.8295 J-29.8030
G02 X99.0288 Y26.4123 I-27.6136 J-13.8401
G02 X97.3929 Y21.9524 I-29.7255 J8.3737
G02 X84.1371 Y7.1493 Z-8.555800 I-30.8323 J14.2728
G02 X57.5632 Y2.1552 Z-10.000000 I-19.9365 J32.8858
G02 X37.5478 Y12.4824 I6.0775 J36.3386
G02 X28.4619 Y30.7751 I22.7972 J22.7262
G02 X34.1510 Y53.1744 I31.0338 J4.0399
G02 X51.1555 Y65.8502 I28.8237 J-20.9232
G02 X83.2027 Y63.1008 I13.0252 J-36.3255
G02 X96.9343 Y48.7078 I-16.8295 J-29.8030
G02 X99.0288 Y26.4123 I-27.6136 J-13.8401
G02 X97.3929 Y21.9524 I-29.7255 J8.3737
G02 X84.1371 Y7.1493 Z-13.555800 I-30.8323 J14.2728
G02 X57.5632 Y2.1552 Z-15.000000 I-19.9365 J32.8858
G02 X37.5478 Y12.4824 I6.0775 J36.3386
G02 X28.4619 Y30.7751 I22.7972 J22.7262
G02 X34.1510 Y53.1744 I31.0338 J4.0399
G02 X51.1555 Y65.8502 I28.8237 J-20.9232
G02 X83.2027 Y63.1008 I13.0252 J-36.3255
G02 X96.9343 Y48.7078 I-16.8295 J-29.8030
G02 X99.0288 Y26.4123 I-27.6136 J-13.8401
G02 X97.3929 Y21.9524 I-29.7255 J8.3737
G02 X84.1371 Y7.1493 Z-18.555800 I-30.8323 J14.2728
G02 X57.5632 Y2.1552 Z-20.000000 I-19.9365 J32.8858
G02 X37.5478 Y12.4824 I6.0775 J36.3386
G02 X28.4619 Y30.7751 I22.7972 J22.7262
G02 X34.1510 Y53.1744 I31.0338 J4.0399
G02 X51.1555 Y65.8502 I28.8237 J-20.9232
G02 X83.2027 Y63.1008 I13.0252 J-36.3255
G02 X96.9343 Y48.7078 I-16.8295 J-29.8030
G02 X99.0288 Y26.4123 I-27.6136 J-13.8401
G02 X97.3929 Y21.9524 I-29.7255 J8.3737
G02 X84.1371 Y7.1493 Z-23.555800 I-30.8323 J14.2728
G02 X57.5632 Y2.1552 Z-25.000000 I-19.9365 J32.8858
G02 X37.5478 Y12.4824 I6.0775 J36.3386
G02 X28.4619 Y30.7751 I22.7972 J22.7262
G02 X34.1510 Y53.1744 I31.0338 J4.0399
G02 X51.1555 Y65.8502 I28.8237 J-20.9232
G02 X83.2027 Y63.1008 I13.0252 J-36.3255
G02 X96.9343 Y48.7078 I-16.8295 J-29.8030
G02 X99.0288 Y26.4123 I-27.6136 J-13.8401
G02 X97.3929 Y21.9524 I-29.7255 J8.3737
G02 X84.1371 Y7.1493 Z-28.555800 I-30.8323 J14.2728
G02 X57.5632 Y2.1552 Z-30.000000 I-19.9365 J32.8858
G02 X37.5478 Y12.4824 I6.0775 J36.3386
G02 X28.4619 Y30.7751 I22.7972 J22.7262
G02 X34.1510 Y53.1744 I31.0338 J4.0399
G02 X51.1555 Y65.8502 I28.8237 J-20.9232
G02 X83.2027 Y63.1008 I13.0252 J-36.3255
G02 X96.9343 Y48.7078 I-16.8295 J-29.8030
G02 X99.0288 Y26.4123 I-27.6136 J-13.8401
G02 X97.3929 Y21.9524 I-29.7255 J8.3737
G02 X84.1371 Y7.1493 Z-33.555800 I-30.8323 J14.2728
G02 X57.5632 Y2.1552 Z-35.000000 I-19.9365 J32.8858
G02 X37.5478 Y12.4824 I6.0775 J36.3386
G02 X28.4619 Y30.7751 I22.7972 J22.7262
G02 X34.1510 Y53.1744 I31.0338 J4.0399
G02 X51.1555 Y65.8502 I28.8237 J-20.9232
G02 X83.2027 Y63.1008 I13.0252 J-36.3255
G02 X96.9343 Y48.7078 I-16.8295 J-29.8030
G02 X99.0288 Y26.4123 I-27.6136 J-13.8401
G02 X97.3929 Y21.9524 I-29.7255 J8.3737
G02 X84.1371 Y7.1493 Z-38.555800 I-30.8323 J14.2728
G02 X57.5632 Y2.1552 Z-40.000000 I-19.9365 J32.8858
G02 X37.5478 Y12.4824 I6.0775 J36.3386
G02 X28.4619 Y30.7751 I22.7972 J22.7262
G02 X34.1510 Y53.1744 I31.0338 J4.0399
G02 X51.1555 Y65.8502 I28.8237 J-20.9232
G02 X83.2027 Y63.1008 I13.0252 J-36.3255
G02 X96.9343 Y48.7078 I-16.8295 J-29.8030
G02 X99.0288 Y26.4123 I-27.6136 J-13.8401
G02 X97.3929 Y21.9524 I-29.7255 J8.3737
G02 X84.1371 Y7.1493 Z-43.555800 I-30.8323 J14.2728
G02 X57.5632 Y2.1552 Z-45.000000 I-19.9365 J32.8858
G02 X37.5478 Y12.4824 I6.0775 J36.3386
G02 X28.4619 Y30.7751 I22.7972 J22.7262
G02 X34.1510 Y53.1744 I31.0338 J4.0399
G02 X51.1555 Y65.8502 I28.8237 J-20.9232
G02 X83.2027 Y63.1008 I13.0252 J-36.3255
G02 X96.9343 Y48.7078 I-16.8295 J-29.8030
G02 X99.0288 Y26.4123 I-27.6136 J-13.8401
G02 X97.3929 Y21.9524 I-29.7255 J8.3737
G02 X84.1371 Y7.1493 Z-48.555800 I-30.8323 J14.2728
G02 X57.5632 Y2.1552 Z-50.000000 I-19.9365 J32.8858
G02 X37.5478 Y12.4824 I6.0775 J36.3386
G02 X28.4619 Y30.7751 I22.7972 J22.7262
G02 X34.1510 Y53.1744 I31.0338 J4.0399
G02 X51.1555 Y65.8502 I28.8237 J-20.9232
G02 X83.2027 Y63.1008 I13.0252 J-36.3255
G02 X96.9343 Y48.7078 I-16.8295 J-29.8030
G02 X99.0288 Y26.4123 I-27.6136 J-13.8401
G02 X97.3929 Y21.9524 I-29.7255 J8.3737
G02 X84.1371 Y7.1493 Z-53.555800 I-30.8323 J14.2728
G02 X57.5632 Y2.1552 Z-55.000000 I-19.9365 J32.8858
G02 X37.5478 Y12.4824 I6.0775 J36.3386
G02 X28.4619 Y30.7751 I22.7972 J22.7262
G02 X34.1510 Y53.1744 I31.0338 J4.0399
G02 X51.1555 Y65.8502 I28.8237 J-20.9232
G02 X83.2027 Y63.1008 I13.0252 J-36.3255
G02 X96.9343 Y48.7078 I-16.8295 J-29.8030
G02 X99.0288 Y26.4123 I-27.6136 J-13.8401
G02 X97.3929 Y21.9524 I-29.7255 J8.3737
G02 X84.1371 Y7.1493 Z-58.555800 I-30.8323 J14.2728
G02 X57.5632 Y2.1552 Z-60.000000 I-19.9365 J32.8858
G02 X37.5478 Y12.4824 I6.0775 J36.3386
G02 X28.4619 Y30.7751 I22.7972 J22.7262
G02 X34.1510 Y53.1744 I31.0338 J4.0399
G02 X51.1555 Y65.8502 I28.8237 J-20.9232
G02 X83.2027 Y63.1008 I13.0252 J-36.3255
G02 X96.9343 Y48.7078 I-16.8295 J-29.8030
G02 X99.0288 Y26.4123 I-27.6136 J-13.8401
G02 X97.3929 Y21.9524 I-29.7255 J8.3737
G02 X84.1371 Y7.1493 Z-63.555800 I-30.8323 J14.2728
G02 X57.5632 Y2.1552 Z-65.000000 I-19.9365 J32.8858
G02 X37.5478 Y12.4824 I6.0775 J36.3386
G02 X28.4619 Y30.7751 I22.7972 J22.7262
G02 X34.1510 Y53.1744 I31.0338 J4.0399
G02 X51.1555 Y65.8502 I28.8237 J-20.9232
G02 X83.2027 Y63.1008 I13.0252 J-36.3255
G02 X96.9343 Y48.7078 I-16.8295 J-29.8030
G02 X99.0288 Y26.4123 I-27.6136 J-13.8401
G02 X97.3929 Y21.9524 I-29.7255 J8.3737
G02 X84.1371 Y7.1493 Z-68.555800 I-30.8323 J14.2728
G02 X57.5632 Y2.1552 Z-70.000000 I-19.9365 J32.8858
G02 X37.5478 Y12.4824 I6.0775 J36.3386
G02 X28.4619 Y30.7751 I22.7972 J22.7262
G02 X34.1510 Y53.1744 I31.0338 J4.0399
G02 X51.1555 Y65.8502 I28.8237 J-20.9232
G02 X83.2027 Y63.1008 I13.0252 J-36.3255
G02 X96.9343 Y48.7078 I-16.8295 J-29.8030
G02 X99.0288 Y26.4123 I-27.6136 J-13.8401
G02 X97.3929 Y21.9524 I-29.7255 J8.3737
G02 X84.1371 Y7.1493 Z-73.555800 I-30.8323 J14.2728
G02 X57.5632 Y2.1552 Z-75.000000 I-19.9365 J32.8858
G02 X37.5478 Y12.4824 I6.0775 J36.3386
G02 X28.4619 Y30.7751 I22.7972 J22.7262
G02 X34.1510 Y53.1744 I31.0338 J4.0399
G02 X51.1555 Y65.8502 I28.8237 J-20.9232
G02 X83.2027 Y63.1008 I13.0252 J-36.3255
G02 X96.9343 Y48.7078 I-16.8295 J-29.8030
G02 X99.0288 Y26.4123 I-27.6136 J-13.8401
G02 X97.3929 Y21.9524 I-29.7255 J8.3737
G02 X84.1371 Y7.1493 Z-78.555800 I-30.8323 J14.2728
G02 X57.5632 Y2.1552 Z-80.000000 I-19.9365 J32.8858
G02 X37.5478 Y12.4824 I6.0775 J36.3386
G02 X28.4619 Y30.7751 I22.7972 J22.7262
G02 X34.1510 Y53.1744 I31.0338 J4.0399
G02 X51.1555 Y65.8502 I28.8237 J-20.9232
G02 X83.2027 Y63.1008 I13.0252 J-36.3255
G02 X96.9343 Y48.7078 I-16.8295 J-29.8030
G02 X99.0288 Y26.4123 I-27.6136 J-13.8401
G02 X97.3929 Y21.9524 I-29.7255 J8.3737
G02 X84.1371 Y7.1493 Z-83.555800 I-30.8323 J14.2728
G02 X57.5632 Y2.1552 Z-85.000000 I-19.9365 J32.8858
G02 X37.5478 Y12.4824 I6.0775 J36.3386
G02 X28.4619 Y30.7751 I22.7972 J22.7262
G02 X34.1510 Y53.1744 I31.0338 J4.0399
G02 X51.1555 Y65.8502 I28.8237 J-20.9232
G02 X83.2027 Y63.1008 I13.0252 J-36.3255
G02 X96.9343 Y48.7078 I-16.8295 J-29.8030
G02 X99.0288 Y26.4123 I-27.6136 J-13.8401
G02 X97.3929 Y21.9524 I-29.7255 J8.3737
G02 X84.1371 Y7.1493 Z-88.555800 I-30.8323 J14.2728
G02 X57.5632 Y2.1552 Z-90.000000 I-19.9365 J32.8858
G02 X37.5478 Y12.4824 I6.0775 J36.3386
G02 X28.4619 Y30.7751 I22.7972 J22.7262
G02 X34.1510 Y53.1744 I31.0338 J4.0399
G02 X51.1555 Y65.8502 I28.8237 J-20.9232
G02 X83.2027 Y63.1008 I13.0252 J-36.3255
G02 X96.9343 Y48.7078 I-16.8295 J-29.8030
G02 X99.0288 Y26.4123 I-27.6136 J-13.8401
G02 X97.3929 Y21.9524 I-29.7255 J8.3737
G02 X84.1371 Y7.1493 Z-93.555800 I-30.8323 J14.2728
G02 X57.5632 Y2.1552 Z-95.000000 I-19.9365 J32.8858
G02 X37.5478 Y12.4824 I6.0775 J36.3386
G02 X28.4619 Y30.7751 I22.7972 J22.7262
G02 X34.1510 Y53.1744 I31.0338 J4.0399
G02 X51.1555 Y65.8502 I28.8237 J-20.9232
G02 X83.2027 Y63.1008 I13.0252 J-36.3255
G02 X96.9343 Y48.7078 I-16.8295 J-29.8030
G02 X99.0288 Y26.4123 I-27.6136 J-13.8401
G02 X97.3929 Y21.9524 I-29.7255 J8.3737
G02 X84.1371 Y7.1493 Z-96.7779 I-30.8323 J14.2728
G02 X76.7351 Y3.6782 Z-97.5000 I-19.9365 J32.8858
G03 X84.1371 Y7.1493 Z-98.2221 I-12.5345 J36.3570
G03 X97.3929 Y21.9524 Z-100.0000 I-17.5765 J29.0760
G02 X84.1371 Y7.1493 I-30.8323 J14.2728
G02 X57.5632 Y2.1552 I-19.9365 J32.8858
G02 X37.5478 Y12.4824 I6.0775 J36.3386
G02 X28.4619 Y30.7751 I22.7972 J22.7262
G02 X34.1510 Y53.1744 I31.0338 J4.0399
G02 X51.1555 Y65.8502 I28.8237 J-20.9232
G02 X83.2027 Y63.1008 I13.0252 J-36.3255
G02 X96.9343 Y48.7078 I-16.8295 J-29.8030
G02 X99.0288 Y26.4123 I-27.6136 J-13.8401
G00 Z-96.0000
G02 X97.3929 Y21.9524 I-29.7255 J8.3737
G00 Z5.0000


(Nr. 3 Gravur: Gravur 3)
G00 X21.9786 Y150.9581 Z5.0000
G00 Z0.5000
G01 Z0.0000 F1000
G01 X28.8777 Y143.5912 Z-2.5000
G01 X21.9786 Y150.9581 Z-5.0000
G01 X28.8846 Y143.5839
G01 X32.1349 Y140.1133
G01 X39.0409 Y132.7390
G00 Z5.0000
G00 X21.9786 Y150.9581
G00 Z-4.5000
G01 Z-5.0000
G01 X28.8777 Y143.5912 Z-7.5000
G01 X21.9786 Y150.9581 Z-10.0000
G01 X28.8846 Y143.5839
G01 X32.1349 Y140.1133
G01 X39.0409 Y132.7390
G00 Z5.0000
G00 X21.9786 Y150.9581
G00 Z-9.5000
G01 Z-10.0000
G01 X28.8777 Y143.5912 Z-12.5000
G01 X21.9786 Y150.9581 Z-15.0000
G01 X28.8846 Y143.5839
G01 X32.1349 Y140.1133
G01 X39.0409 Y132.7390
G00 Z5.0000
G00 X21.9786 Y150.9581
G00 Z-14.5000
G01 Z-15.0000
G01 X28.8777 Y143.5912 Z-17.5000
G01 X21.9786 Y150.9581 Z-20.0000
G01 X28.8846 Y143.5839
G01 X32.1349 Y140.1133
G01 X39.0409 Y132.7390
G00 Z5.0000
G00 X21.9786 Y150.9581
G00 Z-19.5000
G01 Z-20.0000
G01 X28.8777 Y143.5912 Z-22.5000
G01 X21.9786 Y150.9581 Z-25.0000
G01 X28.8846 Y143.5839
G01 X32.1349 Y140.1133
G01 X39.0409 Y132.7390
G00 Z5.0000
G00 X21.9786 Y150.9581
G00 Z-24.5000
G01 Z-25.0000
G01 X28.8777 Y143.5912 Z-27.5000
G01 X21.9786 Y150.9581 Z-30.0000
G01 X28.8846 Y143.5839
G01 X32.1349 Y140.1133
G01 X39.0409 Y132.7390
G00 Z5.0000
G00 X21.9786 Y150.9581
G00 Z-29.5000
G01 Z-30.0000
G01 X28.8777 Y143.5912 Z-32.5000
G01 X21.9786 Y150.9581 Z-35.0000
G01 X28.8846 Y143.5839
G01 X32.1349 Y140.1133
G01 X39.0409 Y132.7390
G00 Z5.0000
G00 X21.9786 Y150.9581
G00 Z-34.5000
G01 Z-35.0000
G01 X28.8777 Y143.5912 Z-37.5000
G01 X21.9786 Y150.9581 Z-40.0000
G01 X28.8846 Y143.5839
G01 X32.1349 Y140.1133
G01 X39.0409 Y132.7390
G00 Z5.0000
G00 X21.9786 Y150.9581
G00 Z-39.5000
G01 Z-40.0000
G01 X28.8777 Y143.5912 Z-42.5000
G01 X21.9786 Y150.9581 Z-45.0000
G01 X28.8846 Y143.5839
G01 X32.1349 Y140.1133
G01 X39.0409 Y132.7390
G00 Z5.0000
G00 X21.9786 Y150.9581
G00 Z-44.5000
G01 Z-45.0000
G01 X28.8777 Y143.5912 Z-47.5000
G01 X21.9786 Y150.9581 Z-50.0000
G01 X28.8846 Y143.5839
G01 X32.1349 Y140.1133
G01 X39.0409 Y132.7390
G00 Z5.0000
G00 X21.9786 Y150.9581
G00 Z-49.5000
G01 Z-50.0000
G01 X28.8777 Y143.5912 Z-52.5000
G01 X21.9786 Y150.9581 Z-55.0000
G01 X28.8846 Y143.5839
G01 X32.1349 Y140.1133
G01 X39.0409 Y132.7390
G00 Z5.0000
G00 X21.9786 Y150.9581
G00 Z-54.5000
G01 Z-55.0000
G01 X28.8777 Y143.5912 Z-57.5000
G01 X21.9786 Y150.9581 Z-60.0000
G01 X28.8846 Y143.5839
G01 X32.1349 Y140.1133
G01 X39.0409 Y132.7390
G00 Z5.0000
G00 X21.9786 Y150.9581
G00 Z-59.5000
G01 Z-60.0000
G01 X28.8777 Y143.5912 Z-62.5000
G01 X21.9786 Y150.9581 Z-65.0000
G01 X28.8846 Y143.5839
G01 X32.1349 Y140.1133
G01 X39.0409 Y132.7390
G00 Z5.0000
G00 X21.9786 Y150.9581
G00 Z-64.5000
G01 Z-65.0000
G01 X28.8777 Y143.5912 Z-67.5000
G01 X21.9786 Y150.9581 Z-70.0000
G01 X28.8846 Y143.5839
G01 X32.1349 Y140.1133
G01 X39.0409 Y132.7390
G00 Z5.0000
G00 X21.9786 Y150.9581
G00 Z-69.5000
G01 Z-70.0000
G01 X28.8777 Y143.5912 Z-72.5000
G01 X21.9786 Y150.9581 Z-75.0000
G01 X28.8846 Y143.5839
G01 X32.1349 Y140.1133
G01 X39.0409 Y132.7390
G00 Z5.0000
G00 X21.9786 Y150.9581
G00 Z-74.5000
G01 Z-75.0000
G01 X28.8777 Y143.5912 Z-77.5000
G01 X21.9786 Y150.9581 Z-80.0000
G01 X28.8846 Y143.5839
G01 X32.1349 Y140.1133
G01 X39.0409 Y132.7390
G00 Z5.0000
G00 X21.9786 Y150.9581
G00 Z-79.5000
G01 Z-80.0000
G01 X28.8777 Y143.5912 Z-82.5000
G01 X21.9786 Y150.9581 Z-85.0000
G01 X28.8846 Y143.5839
G01 X32.1349 Y140.1133
G01 X39.0409 Y132.7390
G00 Z5.0000
G00 X21.9786 Y150.9581
G00 Z-84.5000
G01 Z-85.0000
G01 X28.8777 Y143.5912 Z-87.5000
G01 X21.9786 Y150.9581 Z-90.0000
G01 X28.8846 Y143.5839
G01 X32.1349 Y140.1133
G01 X39.0409 Y132.7390
G00 Z5.0000
G00 X21.9786 Y150.9581
G00 Z-89.5000
G01 Z-90.0000
G01 X28.8777 Y143.5912 Z-92.5000
G01 X21.9786 Y150.9581 Z-95.0000
G01 X28.8846 Y143.5839
G01 X32.1349 Y140.1133
G01 X39.0409 Y132.7390
G00 Z5.0000
G00 X21.9786 Y150.9581
G00 Z-94.5000
G01 Z-95.0000
G01 X28.8777 Y143.5912 Z-97.5000
G01 X21.9786 Y150.9581 Z-100.0000
G01 X28.8846 Y143.5839
G00 Z-95.0000
G01 X32.1349 Y140.1133
G01 X39.0341 Y132.7463 Z-97.5000
G01 X32.1349 Y140.1133 Z-100.0000
G01 X39.0409 Y132.7390
G00 Z5.0000


(Nr. 4 Gravur: Gravur 2)
G00 X12.7244 Y162.8150 Z5.0000
G00 Z0.5000
G01 Z0.0000 F1000
G01 X41.0808 Z-2.5000
G01 X12.7244 Z-5.0000
G01 X47.0743
G01 X51.8293
G01 X86.1792
G00 Z5.0000
G00 X12.7244
G00 Z-4.5000
G01 Z-5.0000
G01 X41.0808 Z-7.5000
G01 X12.7244 Z-10.0000
G01 X47.0743
G01 X51.8293
G01 X86.1792
G00 Z5.0000
G00 X12.7244
G00 Z-9.5000
G01 Z-10.0000
G01 X41.0808 Z-12.5000
G01 X12.7244 Z-15.0000
G01 X47.0743
G01 X51.8293
G01 X86.1792
G00 Z5.0000
G00 X12.7244
G00 Z-14.5000
G01 Z-15.0000
G01 X41.0808 Z-17.5000
G01 X12.7244 Z-20.0000
G01 X47.0743
G01 X51.8293
G01 X86.1792
G00 Z5.0000
G00 X12.7244
G00 Z-19.5000
G01 Z-20.0000
G01 X41.0808 Z-22.5000
G01 X12.7244 Z-25.0000
G01 X47.0743
G01 X51.8293
G01 X86.1792
G00 Z5.0000
G00 X12.7244
G00 Z-24.5000
G01 Z-25.0000
G01 X41.0808 Z-27.5000
G01 X12.7244 Z-30.0000
G01 X47.0743
G01 X51.8293
G01 X86.1792
G00 Z5.0000
G00 X12.7244
G00 Z-29.5000
G01 Z-30.0000
G01 X41.0808 Z-32.5000
G01 X12.7244 Z-35.0000
G01 X47.0743
G01 X51.8293
G01 X86.1792
G00 Z5.0000
G00 X12.7244
G00 Z-34.5000
G01 Z-35.0000
G01 X41.0808 Z-37.5000
G01 X12.7244 Z-40.0000
G01 X47.0743
G01 X51.8293
G01 X86.1792
G00 Z5.0000
G00 X12.7244
G00 Z-39.5000
G01 Z-40.0000
G01 X41.0808 Z-42.5000
G01 X12.7244 Z-45.0000
G01 X47.0743
G01 X51.8293
G01 X86.1792
G00 Z5.0000
G00 X12.7244
G00 Z-44.5000
G01 Z-45.0000
G01 X41.0808 Z-47.5000
G01 X12.7244 Z-50.0000
G01 X47.0743
G01 X51.8293
G01 X86.1792
G00 Z5.0000
G00 X12.7244
G00 Z-49.5000
G01 Z-50.0000
G01 X41.0808 Z-52.5000
G01 X12.7244 Z-55.0000
G01 X47.0743
G01 X51.8293
G01 X86.1792
G00 Z5.0000
G00 X12.7244
G00 Z-54.5000
G01 Z-55.0000
G01 X41.0808 Z-57.5000
G01 X12.7244 Z-60.0000
G01 X47.0743
G01 X51.8293
G01 X86.1792
G00 Z5.0000
G00 X12.7244
G00 Z-59.5000
G01 Z-60.0000
G01 X41.0808 Z-62.5000
G01 X12.7244 Z-65.0000
G01 X47.0743
G01 X51.8293
G01 X86.1792
G00 Z5.0000
G00 X12.7244
G00 Z-64.5000
G01 Z-65.0000
G01 X41.0808 Z-67.5000
G01 X12.7244 Z-70.0000
G01 X47.0743
G01 X51.8293
G01 X86.1792
G00 Z5.0000
G00 X12.7244
G00 Z-69.5000
G01 Z-70.0000
G01 X41.0808 Z-72.5000
G01 X12.7244 Z-75.0000
G01 X47.0743
G01 X51.8293
G01 X86.1792
G00 Z5.0000
G00 X12.7244
G00 Z-74.5000
G01 Z-75.0000
G01 X41.0808 Z-77.5000
G01 X12.7244 Z-80.0000
G01 X47.0743
G01 X51.8293
G01 X86.1792
G00 Z5.0000
G00 X12.7244
G00 Z-79.5000
G01 Z-80.0000
G01 X41.0808 Z-82.5000
G01 X12.7244 Z-85.0000
G01 X47.0743
G01 X51.8293
G01 X86.1792
G00 Z5.0000
G00 X12.7244
G00 Z-84.5000
G01 Z-85.0000
G01 X41.0808 Z-87.5000
G01 X12.7244 Z-90.0000
G01 X47.0743
G01 X51.8293
G01 X86.1792
G00 Z5.0000
G00 X12.7244
G00 Z-89.5000
G01 Z-90.0000
G01 X41.0808 Z-92.5000
G01 X12.7244 Z-95.0000
G01 X47.0743
G01 X51.8293
G01 X86.1792
G00 Z5.0000
G00 X12.7244
G00 Z-94.5000
G01 Z-95.0000
G01 X41.0808 Z-97.5000
G01 X12.7244 Z-100.0000
G01 X47.0743
G00 Z-95.0000
G01 X51.8293
G01 X80.1857 Z-97.5000
G01 X51.8293 Z-100.0000
G01 X86.1792
G00 Z5.0000


(Nr. 5 Gravur: Gravur 1)
G00 X13.3028 Y168.3096 Z5.0000
G00 Z0.5000
G01 Z0.0000 F1000
G01 X16.3028 Z-5.000000
G01 X13.3028 Z-10.000000
G01 X16.3028 Z-15.000000
G01 X13.3028 Z-20.000000
G01 X16.3028 Z-25.000000
G01 X13.3028 Z-30.000000
G01 X16.3028 Z-35.000000
G01 X13.3028 Z-40.000000
G01 X16.3028 Z-45.000000
G01 X13.3028 Z-50.000000
G01 X16.3028 Z-55.000000
G01 X13.3028 Z-60.000000
G01 X16.3028 Z-65.000000
G01 X13.3028 Z-70.000000
G01 X16.3028 Z-75.000000
G01 X13.3028 Z-80.000000
G01 X16.3028 Z-85.000000
G01 X13.3028 Z-90.000000
G01 X16.3028 Z-95.000000
G01 X13.3128 Z-97.5000
G01 X16.3028 Z-100.0000
G01 X13.3028
G00 Z5.0000


(Nr. 6 Gravur: Gravur 4)
G00 X6.9406 Y158.7663 Z5.0000
G00 Z0.5000
G01 Z0.0000 F1000
G01 Y132.5238 Z-2.5000
G01 Y158.7663 Z-5.0000
G01 Y132.5138
G01 Y127.7588
G01 Y101.5063
G00 Z5.0000
G00 Y158.7663
G00 Z-4.5000
G01 Z-5.0000
G01 Y132.5238 Z-7.5000
G01 Y158.7663 Z-10.0000
G01 Y132.5138
G01 Y127.7588
G01 Y101.5063
G00 Z5.0000
G00 Y158.7663
G00 Z-9.5000
G01 Z-10.0000
G01 Y132.5238 Z-12.5000
G01 Y158.7663 Z-15.0000
G01 Y132.5138
G01 Y127.7588
G01 Y101.5063
G00 Z5.0000
G00 Y158.7663
G00 Z-14.5000
G01 Z-15.0000
G01 Y132.5238 Z-17.5000
G01 Y158.7663 Z-20.0000
G01 Y132.5138
G01 Y127.7588
G01 Y101.5063
G00 Z5.0000
G00 Y158.7663
G00 Z-19.5000
G01 Z-20.0000
G01 Y132.5238 Z-22.5000
G01 Y158.7663 Z-25.0000
G01 Y132.5138
G01 Y127.7588
G01 Y101.5063
G00 Z5.0000
G00 Y158.7663
G00 Z-24.5000
G01 Z-25.0000
G01 Y132.5238 Z-27.5000
G01 Y158.7663 Z-30.0000
G01 Y132.5138
G01 Y127.7588
G01 Y101.5063
G00 Z5.0000
G00 Y158.7663
G00 Z-29.5000
G01 Z-30.0000
G01 Y132.5238 Z-32.5000
G01 Y158.7663 Z-35.0000
G01 Y132.5138
G01 Y127.7588
G01 Y101.5063
G00 Z5.0000
G00 Y158.7663
G00 Z-34.5000
G01 Z-35.0000
G01 Y132.5238 Z-37.5000
G01 Y158.7663 Z-40.0000
G01 Y132.5138
G01 Y127.7588
G01 Y101.5063
G00 Z5.0000
G00 Y158.7663
G00 Z-39.5000
G01 Z-40.0000
G01 Y132.5238 Z-42.5000
G01 Y158.7663 Z-45.0000
G01 Y132.5138
G01 Y127.7588
G01 Y101.5063
G00 Z5.0000
G00 Y158.7663
G00 Z-44.5000
G01 Z-45.0000
G01 Y132.5238 Z-47.5000
G01 Y158.7663 Z-50.0000
G01 Y132.5138
G01 Y127.7588
G01 Y101.5063
G00 Z5.0000
G00 Y158.7663
G00 Z-49.5000
G01 Z-50.0000
G01 Y132.5238 Z-52.5000
G01 Y158.7663 Z-55.0000
G01 Y132.5138
G01 Y127.7588
G01 Y101.5063
G00 Z5.0000
G00 Y158.7663
G00 Z-54.5000
G01 Z-55.0000
G01 Y132.5238 Z-57.5000
G01 Y158.7663 Z-60.0000
G01 Y132.5138
G01 Y127.7588
G01 Y101.5063
G00 Z5.0000
G00 Y158.7663
G00 Z-59.5000
G01 Z-60.0000
G01 Y132.5238 Z-62.5000
G01 Y158.7663 Z-65.0000
G01 Y132.5138
G01 Y127.7588
G01 Y101.5063
G00 Z5.0000
G00 Y158.7663
G00 Z-64.5000
G01 Z-65.0000
G01 Y132.5238 Z-67.5000
G01 Y158.7663 Z-70.0000
G01 Y132.5138
G01 Y127.7588
G01 Y101.5063
G00 Z5.0000
G00 Y158.7663
G00 Z-69.5000
G01 Z-70.0000
G01 Y132.5238 Z-72.5000
G01 Y158.7663 Z-75.0000
G01 Y132.5138
G01 Y127.7588
G01 Y101.5063
G00 Z5.0000
G00 Y158.7663
G00 Z-74.5000
G01 Z-75.0000
G01 Y132.5238 Z-77.5000
G01 Y158.7663 Z-80.0000
G01 Y132.5138
G01 Y127.7588
G01 Y101.5063
G00 Z5.0000
G00 Y158.7663
G00 Z-79.5000
G01 Z-80.0000
G01 Y132.5238 Z-82.5000
G01 Y158.7663 Z-85.0000
G01 Y132.5138
G01 Y127.7588
G01 Y101.5063
G00 Z5.0000
G00 Y158.7663
G00 Z-84.5000
G01 Z-85.0000
G01 Y132.5238 Z-87.5000
G01 Y158.7663 Z-90.0000
G01 Y132.5138
G01 Y127.7588
G01 Y101.5063
G00 Z5.0000
G00 Y158.7663
G00 Z-89.5000
G01 Z-90.0000
G01 Y132.5238 Z-92.5000
G01 Y158.7663 Z-95.0000
G01 Y132.5138
G01 Y127.7588
G01 Y101.5063
G00 Z5.0000
G00 Y158.7663
G00 Z-94.5000
G01 Z-95.0000
G01 Y132.5238 Z-97.5000
G01 Y158.7663 Z-100.0000
G01 Y132.5138
G00 Z-95.0000
G01 Y127.7588
G01 Y101.5163 Z-97.5000
G01 Y127.7588 Z-100.0000
G01 Y101.5063
G00 Z5.0000


(Nr. 7 Gravur: Gravur 5)
G00 X0.0000 Y155.1149 Z5.0000
G00 Z0.5000
G01 Z0.0000 F1000
G01 Y152.1149 Z-5.000000
G01 Y155.1149 Z-10.000000
G01 Y152.1149 Z-15.000000
G01 Y155.1149 Z-20.000000
G01 Y152.1149 Z-25.000000
G01 Y155.1149 Z-30.000000
G01 Y152.1149 Z-35.000000
G01 Y155.1149 Z-40.000000
G01 Y152.1149 Z-45.000000
G01 Y155.1149 Z-50.000000
G01 Y152.1149 Z-55.000000
G01 Y155.1149 Z-60.000000
G01 Y152.1149 Z-65.000000
G01 Y155.1149 Z-70.000000
G01 Y152.1149 Z-75.000000
G01 Y155.1149 Z-80.000000
G01 Y152.1149 Z-85.000000
G01 Y155.1149 Z-90.000000
G01 Y152.1149 Z-95.000000
G01 Y155.1049 Z-97.5000
G01 Y152.1149 Z-100.0000
G01 Y155.1149
G00 Z5.0000
G00 Y0.0000

M05


