(Projekt Tisch-Verschraubungen)
(Erstellt mit Estlcam Version 11 Build 11,245)
(Laufzeit ca. 00:00:36 Stunden)

(Benötigte Werkzeuge:)
(Alu 2 Schneider)

M03 S27000
G00 Z5.0000

(Nr. 1 Ausschnitt: Ausschnitt 1)
G00 X7.2412 Y6.0728
G00 Z0.5000
G01 Z0.0000 F1000 S27000
G02 X6.242595 Y11.014595 Z-0.500000 I1.7588 J2.9272
G02 X7.3444 Y11.9868 I2.757405 J-2.014595
G02 X12.4144 Y8.9404 I1.6556 J-2.9868
G02 X7.2412 Y6.0728 I-3.4144 J0.0596
G02 X6.242595 Y11.014595 Z-1.000000 I1.7588 J2.9272
G02 X7.3444 Y11.9868 I2.757405 J-2.014595
G02 X12.4144 Y8.9404 I1.6556 J-2.9868
G02 X7.2412 Y6.0728 I-3.4144 J0.0596
G02 X6.242595 Y11.014595 Z-1.500000 I1.7588 J2.9272
G02 X7.3444 Y11.9868 I2.757405 J-2.014595
G02 X12.4144 Y8.9404 I1.6556 J-2.9868
G02 X7.2412 Y6.0728 I-3.4144 J0.0596
G02 X6.242595 Y11.014595 Z-2.000000 I1.7588 J2.9272
G02 X7.3444 Y11.9868 I2.757405 J-2.014595
G02 X12.4144 Y8.9404 I1.6556 J-2.9868
G02 X7.2412 Y6.0728 I-3.4144 J0.0596
G02 X6.242595 Y11.014595 Z-2.500000 I1.7588 J2.9272
G02 X7.3444 Y11.9868 I2.757405 J-2.014595
G02 X12.4144 Y8.9404 I1.6556 J-2.9868
G02 X7.2412 Y6.0728 I-3.4144 J0.0596
G02 X6.242595 Y11.014595 Z-3.000000 I1.7588 J2.9272
G02 X7.3444 Y11.9868 I2.757405 J-2.014595
G02 X12.4144 Y8.9404 I1.6556 J-2.9868
G02 X7.2412 Y6.0728 I-3.4144 J0.0596
G02 X6.242595 Y11.014595 Z-3.500000 I1.7588 J2.9272
G02 X7.3444 Y11.9868 I2.757405 J-2.014595
G02 X12.4144 Y8.9404 I1.6556 J-2.9868
G02 X7.2412 Y6.0728 I-3.4144 J0.0596
G02 X6.242595 Y11.014595 Z-4.000000 I1.7588 J2.9272
G02 X7.3444 Y11.9868 I2.757405 J-2.014595
G02 X12.4144 Y8.9404 I1.6556 J-2.9868
G02 X7.2412 Y6.0728 I-3.4144 J0.0596
G02 X6.242595 Y11.014595 Z-4.500000 I1.7588 J2.9272
G02 X7.3444 Y11.9868 I2.757405 J-2.014595
G02 X12.4144 Y8.9404 I1.6556 J-2.9868
G02 X7.2412 Y6.0728 I-3.4144 J0.0596
G02 X6.242595 Y11.014595 Z-5.000000 I1.7588 J2.9272
G02 X7.3444 Y11.9868 I2.757405 J-2.014595
G02 X12.4144 Y8.9404 I1.6556 J-2.9868
G02 X7.2412 Y6.0728 I-3.4144 J0.0596
G02 X6.242595 Y11.014595 Z-5.500000 I1.7588 J2.9272
G02 X7.3444 Y11.9868 I2.757405 J-2.014595
G02 X12.4144 Y8.9404 I1.6556 J-2.9868
G02 X7.2412 Y6.0728 I-3.4144 J0.0596
G02 X6.242595 Y11.014595 Z-6.000000 I1.7588 J2.9272
G02 X7.3444 Y11.9868 I2.757405 J-2.014595
G02 X12.4144 Y8.9404 I1.6556 J-2.9868
G02 X7.2412 Y6.0728 I-3.4144 J0.0596
G02 X6.242595 Y11.014595 I1.7588 J2.9272
G03 X7.241200 Y6.072800 I2.757405 J-2.014595
G00 Z5.0000

(Nr. 2 Ausschnitt: Ausschnitt 32)
G00 X8.5178 Y8.1649 Z5.0000
G00 Z0.5000
G01 Z0.0000 F1000
G02 Y9.8352 Z-0.178100 I0.4822 J0.8351
G02 X9.9643 Y9.0000 Z-0.356217 I0.4822 J-0.8351
G02 X8.884526 Y8.042639 Z-0.500000 I-0.9643 J0.0000
G02 X8.5178 Y8.1649 I0.115474 J0.957361
G02 Y9.8352 Z-0.678100 I0.4822 J0.8351
G02 X9.9643 Y9.0000 Z-0.856217 I0.4822 J-0.8351
G02 X8.884526 Y8.042639 Z-1.000000 I-0.9643 J0.0000
G02 X8.5178 Y8.1649 I0.115474 J0.957361
G02 Y9.8352 Z-1.178100 I0.4822 J0.8351
G02 X9.9643 Y9.0000 Z-1.356217 I0.4822 J-0.8351
G02 X8.884526 Y8.042639 Z-1.500000 I-0.9643 J0.0000
G02 X8.5178 Y8.1649 I0.115474 J0.957361
G02 Y9.8352 Z-1.678100 I0.4822 J0.8351
G02 X9.9643 Y9.0000 Z-1.856217 I0.4822 J-0.8351
G02 X8.884526 Y8.042639 Z-2.000000 I-0.9643 J0.0000
G02 X8.5178 Y8.1649 I0.115474 J0.957361
G02 Y9.8352 Z-2.178100 I0.4822 J0.8351
G02 X9.9643 Y9.0000 Z-2.356217 I0.4822 J-0.8351
G02 X8.884526 Y8.042639 Z-2.500000 I-0.9643 J0.0000
G02 X8.5178 Y8.1649 I0.115474 J0.957361
G02 Y9.8352 Z-2.678100 I0.4822 J0.8351
G02 X9.9643 Y9.0000 Z-2.856217 I0.4822 J-0.8351
G02 X8.884526 Y8.042639 Z-3.000000 I-0.9643 J0.0000
G02 X8.5178 Y8.1649 I0.115474 J0.957361
G02 Y9.8352 Z-3.178100 I0.4822 J0.8351
G02 X9.9643 Y9.0000 Z-3.356217 I0.4822 J-0.8351
G02 X8.884526 Y8.042639 Z-3.500000 I-0.9643 J0.0000
G02 X8.5178 Y8.1649 I0.115474 J0.957361
G02 Y9.8352 Z-3.678100 I0.4822 J0.8351
G02 X9.9643 Y9.0000 Z-3.856217 I0.4822 J-0.8351
G02 X8.884526 Y8.042639 Z-4.000000 I-0.9643 J0.0000
G02 X8.5178 Y8.1649 I0.115474 J0.957361
G02 Y9.8352 Z-4.178100 I0.4822 J0.8351
G02 X9.9643 Y9.0000 Z-4.356217 I0.4822 J-0.8351
G02 X8.884526 Y8.042639 Z-4.500000 I-0.9643 J0.0000
G02 X8.5178 Y8.1649 I0.115474 J0.957361
G02 Y9.8352 Z-4.678100 I0.4822 J0.8351
G02 X9.9643 Y9.0000 Z-4.856217 I0.4822 J-0.8351
G02 X8.884526 Y8.042639 Z-5.000000 I-0.9643 J0.0000
G02 X8.5178 Y8.1649 I0.115474 J0.957361
G02 Y9.8352 Z-5.178100 I0.4822 J0.8351
G02 X9.9643 Y9.0000 Z-5.356217 I0.4822 J-0.8351
G02 X8.884526 Y8.042639 Z-5.500000 I-0.9643 J0.0000
G02 X8.5178 Y8.1649 I0.115474 J0.957361
G02 Y9.8352 Z-5.678100 I0.4822 J0.8351
G02 X9.9643 Y9.0000 Z-5.856217 I0.4822 J-0.8351
G02 X8.884526 Y8.042639 Z-6.000000 I-0.9643 J0.0000
G02 X8.5178 Y8.1649 I0.115474 J0.957361
G02 Y9.8352 Z-6.178100 I0.4822 J0.8351
G02 X9.9643 Y9.0000 Z-6.356217 I0.4822 J-0.8351
G02 X8.884526 Y8.042639 Z-6.500000 I-0.9643 J0.0000
G02 X8.5178 Y8.1649 I0.115474 J0.957361
G02 Y9.8352 Z-6.678100 I0.4822 J0.8351
G02 X9.9643 Y9.0000 Z-6.856217 I0.4822 J-0.8351
G02 X8.884526 Y8.042639 Z-7.000000 I-0.9643 J0.0000
G02 X8.5178 Y8.1649 I0.115474 J0.957361
G02 Y9.8352 Z-7.178100 I0.4822 J0.8351
G02 X9.9643 Y9.0000 Z-7.356217 I0.4822 J-0.8351
G02 X8.884526 Y8.042639 Z-7.500000 I-0.9643 J0.0000
G02 X8.5178 Y8.1649 I0.115474 J0.957361
G02 Y9.8352 Z-7.678100 I0.4822 J0.8351
G02 X9.9643 Y9.0000 Z-7.856217 I0.4822 J-0.8351
G02 X8.884526 Y8.042639 Z-8.000000 I-0.9643 J0.0000
G02 X8.5178 Y8.1649 I0.115474 J0.957361
G02 Y9.8352 Z-8.178100 I0.4822 J0.8351
G02 X9.9643 Y9.0000 Z-8.356217 I0.4822 J-0.8351
G02 X8.884526 Y8.042639 Z-8.500000 I-0.9643 J0.0000
G02 X8.5178 Y8.1649 I0.115474 J0.957361
G02 Y9.8352 Z-8.678100 I0.4822 J0.8351
G02 X9.9643 Y9.0000 Z-8.856217 I0.4822 J-0.8351
G02 X8.884526 Y8.042639 Z-9.000000 I-0.9643 J0.0000
G02 X8.5178 Y8.1649 I0.115474 J0.957361
G02 Y9.8352 Z-9.178100 I0.4822 J0.8351
G02 X9.9643 Y9.0000 Z-9.356217 I0.4822 J-0.8351
G02 X8.884526 Y8.042639 Z-9.500000 I-0.9643 J0.0000
G02 X8.5178 Y8.1649 I0.115474 J0.957361
G02 Y9.8352 Z-9.678100 I0.4822 J0.8351
G02 X9.9643 Y9.0000 Z-9.856217 I0.4822 J-0.8351
G02 X8.884526 Y8.042639 Z-10.000000 I-0.9643 J0.0000
G02 X8.5178 Y8.1649 I0.115474 J0.957361
G02 Y9.8352 I0.4822 J0.8351
G02 X9.9643 Y9.0000 I0.4822 J-0.8351
G02 X8.884526 Y8.042639 I-0.9643 J0.0000
G03 X9.964300 Y9.000000 I0.115474 J0.957361
G03 X8.517800 Y9.835200 I-0.964300 J0.000100
G03 Y8.164900 I0.482200 J-0.835200
G00 Z5.0000
G00 X0.0000 Y0.0000

M05


