(Projekt Zeichnung)
(Erstellt mit Estlcam Version 11 Build 11,245)
(Laufzeit ca. 00:00:12 Stunden)

(Benötigte Werkzeuge:)
(Alu 1 Schneider)

M03 S27000
G00 Z5.0000

(Nr. 1 Ausschnitt: Ausschnitt 1)
G00 X2.0000 Y49.3025
G00 Z0.5000
G01 Z0.0000 F1000 S27000
G02 X1.6413 Y49.9237 Z-0.167300 I0.0000 J0.4142 F1000
G02 X2.3587 Z-0.334612 I0.3587 J-0.2071
G02 X2.0000 Y49.3025 Z-0.501926 I-0.3587 J-0.2071
G02 X1.6413 Y49.9237 Z-0.669226 I0.0000 J0.4142 F1000
G02 X2.3587 Z-0.836538 I0.3587 J-0.2071
G02 X2.0000 Y49.3025 Z-1.003852 I-0.3587 J-0.2071
G02 X1.6413 Y49.9237 Z-1.171152 I0.0000 J0.4142 F1000
G02 X2.3587 Z-1.338464 I0.3587 J-0.2071
G02 X2.0000 Y49.3025 Z-1.505778 I-0.3587 J-0.2071
G02 X1.6413 Y49.9237 Z-1.673078 I0.0000 J0.4142 F1000
G02 X2.3587 Z-1.840390 I0.3587 J-0.2071
G02 X2.0000 Y49.3025 Z-2.007704 I-0.3587 J-0.2071
G02 X1.6413 Y49.9237 Z-2.175004 I0.0000 J0.4142 F1000
G02 X2.3587 Z-2.342316 I0.3587 J-0.2071
G02 X2.0000 Y49.3025 Z-2.509630 I-0.3587 J-0.2071
G02 X1.6413 Y49.9237 Z-2.676930 I0.0000 J0.4142 F1000
G02 X2.3587 Z-2.844242 I0.3587 J-0.2071
G02 X2.0000 Y49.3025 Z-3.011556 I-0.3587 J-0.2071
G02 X1.6413 Y49.9237 Z-3.178856 I0.0000 J0.4142 F1000
G02 X2.3587 Z-3.346168 I0.3587 J-0.2071
G02 X2.0000 Y49.3025 Z-3.513482 I-0.3587 J-0.2071
G02 X1.6413 Y49.9237 Z-3.680782 I0.0000 J0.4142 F1000
G02 X2.3587 Z-3.848094 I0.3587 J-0.2071
G02 X2.0000 Y49.3025 Z-4.015408 I-0.3587 J-0.2071
G02 X1.6413 Y49.9237 Z-4.182708 I0.0000 J0.4142 F1000
G02 X2.3587 Z-4.350020 I0.3587 J-0.2071
G02 X2.0000 Y49.3025 Z-4.517334 I-0.3587 J-0.2071
G02 X1.6413 Y49.9237 Z-4.684634 I0.0000 J0.4142 F1000
G02 X2.3587 Z-4.851946 I0.3587 J-0.2071
G02 X2.0000 Y49.3025 Z-5.019260 I-0.3587 J-0.2071
G02 X1.6413 Y49.9237 Z-5.186560 I0.0000 J0.4142 F1000
G02 X2.3587 Z-5.353872 I0.3587 J-0.2071
G02 X2.0000 Y49.3025 Z-5.521186 I-0.3587 J-0.2071
G02 X1.6413 Y49.9237 Z-5.688486 I0.0000 J0.4142 F1000
G02 X2.3587 Z-5.855798 I0.3587 J-0.2071
G02 X2.0000 Y49.3025 Z-6.023112 I-0.3587 J-0.2071
G02 X1.6413 Y49.9237 Z-6.190412 I0.0000 J0.4142 F1000
G02 X2.3587 Z-6.357724 I0.3587 J-0.2071
G02 X2.0000 Y49.3025 Z-6.525038 I-0.3587 J-0.2071
G02 X1.6413 Y49.9237 Z-6.692338 I0.0000 J0.4142 F1000
G02 X2.3587 Z-6.859650 I0.3587 J-0.2071
G02 X2.0000 Y49.3025 Z-7.026964 I-0.3587 J-0.2071
G02 X1.6413 Y49.9237 Z-7.194264 I0.0000 J0.4142 F1000
G02 X2.3587 Z-7.361576 I0.3587 J-0.2071
G02 X2.0000 Y49.3025 Z-7.528890 I-0.3587 J-0.2071
G02 X1.6413 Y49.9237 Z-7.696190 I0.0000 J0.4142 F1000
G02 X2.3587 Z-7.863502 I0.3587 J-0.2071
G02 X2.0000 Y49.3025 Z-8.030816 I-0.3587 J-0.2071
G02 X1.6413 Y49.9237 Z-8.198116 I0.0000 J0.4142 F1000
G02 X2.3587 Z-8.365428 I0.3587 J-0.2071
G02 X2.0000 Y49.3025 Z-8.532742 I-0.3587 J-0.2071
G02 X1.6413 Y49.9237 Z-8.700042 I0.0000 J0.4142 F1000
G02 X2.3587 Z-8.867354 I0.3587 J-0.2071
G02 X2.0000 Y49.3025 Z-9.034668 I-0.3587 J-0.2071
G02 X1.6413 Y49.9237 Z-9.201968 I0.0000 J0.4142 F1000
G02 X2.3587 Z-9.369280 I0.3587 J-0.2071
G02 X2.0000 Y49.3025 Z-9.536594 I-0.3587 J-0.2071
G02 X1.6413 Y49.9237 Z-9.703894 I0.0000 J0.4142 F1000
G02 X2.3587 Z-9.871206 I0.3587 J-0.2071
G02 X2.0000 Y49.3025 Z-10.038520 I-0.3587 J-0.2071
G02 X1.6413 Y49.9237 Z-10.205820 I0.0000 J0.4142 F1000
G02 X2.3587 Z-10.373132 I0.3587 J-0.2071
G02 X2.0000 Y49.3025 Z-10.540446 I-0.3587 J-0.2071
G02 X1.6413 Y49.9237 Z-10.707746 I0.0000 J0.4142 F1000
G02 X2.3587 Z-10.875058 I0.3587 J-0.2071
G02 X2.0000 Y49.3025 Z-11.042372 I-0.3587 J-0.2071
G02 X1.6413 Y49.9237 Z-11.209672 I0.0000 J0.4142 F1000
G02 X2.3587 Z-11.376984 I0.3587 J-0.2071
G02 X2.0000 Y49.3025 Z-11.544298 I-0.3587 J-0.2071
G02 X1.6413 Y49.9237 Z-11.711598 I0.0000 J0.4142 F1000
G02 X2.3587 Z-11.878910 I0.3587 J-0.2071
G02 X2.0000 Y49.3025 Z-12.046224 I-0.3587 J-0.2071
G02 X1.6413 Y49.9237 Z-12.213524 I0.0000 J0.4142 F1000
G02 X2.3587 Z-12.380836 I0.3587 J-0.2071
G02 X2.0000 Y49.3025 Z-12.548150 I-0.3587 J-0.2071
G02 X1.6413 Y49.9237 Z-12.715450 I0.0000 J0.4142 F1000
G02 X2.3587 Z-12.882762 I0.3587 J-0.2071
G02 X2.0000 Y49.3025 Z-13.050076 I-0.3587 J-0.2071
G02 X1.6413 Y49.9237 Z-13.217376 I0.0000 J0.4142 F1000
G02 X2.3587 Z-13.384688 I0.3587 J-0.2071
G02 X2.0000 Y49.3025 Z-13.552002 I-0.3587 J-0.2071
G02 X1.6413 Y49.9237 Z-13.719302 I0.0000 J0.4142 F1000
G02 X2.3587 Z-13.886614 I0.3587 J-0.2071
G02 X2.0000 Y49.3025 Z-14.053928 I-0.3587 J-0.2071
G02 X1.6413 Y49.9237 Z-14.221228 I0.0000 J0.4142 F1000
G02 X2.3587 Z-14.388540 I0.3587 J-0.2071
G02 X2.0000 Y49.3025 Z-14.555854 I-0.3587 J-0.2071
G02 X1.6413 Y49.9237 Z-14.723154 I0.0000 J0.4142 F1000
G02 X2.3587 Z-14.890466 I0.3587 J-0.2071
G02 X2.0000 Y49.3025 Z-15.057780 I-0.3587 J-0.2071
G02 X1.6413 Y49.9237 Z-15.225080 I0.0000 J0.4142 F1000
G02 X2.3587 Z-15.392392 I0.3587 J-0.2071
G02 X2.0000 Y49.3025 Z-15.559706 I-0.3587 J-0.2071
G02 X1.6413 Y49.9237 Z-15.727006 I0.0000 J0.4142 F1000
G02 X2.3587 Z-15.894318 I0.3587 J-0.2071
G02 X2.0000 Y49.3025 Z-16.061632 I-0.3587 J-0.2071
G02 X1.6413 Y49.9237 Z-16.228932 I0.0000 J0.4142 F1000
G02 X2.3587 Z-16.396244 I0.3587 J-0.2071
G02 X2.0000 Y49.3025 Z-16.563558 I-0.3587 J-0.2071
G02 X1.6413 Y49.9237 Z-16.730858 I0.0000 J0.4142 F1000
G02 X2.3587 Z-16.898170 I0.3587 J-0.2071
G02 X2.0000 Y49.3025 Z-17.065484 I-0.3587 J-0.2071
G02 X1.6413 Y49.9237 Z-17.232784 I0.0000 J0.4142 F1000
G02 X2.3587 Z-17.400096 I0.3587 J-0.2071
G02 X2.0000 Y49.3025 Z-17.567410 I-0.3587 J-0.2071
G02 X1.6413 Y49.9237 Z-17.734710 I0.0000 J0.4142 F1000
G02 X2.3587 Z-17.902022 I0.3587 J-0.2071
G02 X2.0000 Y49.3025 Z-18.069336 I-0.3587 J-0.2071
G02 X1.6413 Y49.9237 Z-18.236636 I0.0000 J0.4142 F1000
G02 X2.3587 Z-18.403948 I0.3587 J-0.2071
G02 X2.0000 Y49.3025 Z-18.571262 I-0.3587 J-0.2071
G02 X1.6413 Y49.9237 Z-18.738562 I0.0000 J0.4142 F1000
G02 X2.3587 Z-18.905874 I0.3587 J-0.2071
G02 X2.0000 Y49.3025 Z-19.073188 I-0.3587 J-0.2071
G02 X1.6413 Y49.9237 Z-19.240488 I0.0000 J0.4142 F1000
G02 X2.3587 Z-19.407800 I0.3587 J-0.2071
G02 X2.0000 Y49.3025 Z-19.575114 I-0.3587 J-0.2071
G02 X1.6413 Y49.9237 Z-19.742414 I0.0000 J0.4142 F1000
G02 X2.3587 Z-19.909726 I0.3587 J-0.2071
G02 X2.0000 Y49.3025 Z-20.000000 I-0.3587 J-0.2071
G02 X1.6413 Y49.9237 I0.0000 J0.4142
G02 X2.3587 I0.3587 J-0.2071
G02 X2.0000 Y49.3025 I-0.3587 J-0.2071
G03 X2.358700 Y49.923700 I-0.000000 J0.414100
G03 X1.641300 I-0.358700 J-0.207100
G03 X2.000000 Y49.302500 I0.358700 J-0.207000
G00 Z5.0000
G00 X0.0000 Y0.0000

M05


