(Projekt Zeichnung)
(Erstellt mit Estlcam Version 11 Build 11,245)
(Laufzeit ca. 00:03:52 Stunden)

(Benötigte Werkzeuge:)
(Alu 1 Schneider)

M03 S27000
G00 Z5.0000

(Nr. 1 Teil: Teil 1)
G00 X143.1198 Y-1.5850
G00 Z0.5000
G01 Z0.0000 F1000 S27000
G03 X144.7048 Y0.0000 Z-0.219500 I0.0000 J1.5850 F1000
G01 Y8.852940 Z-1.000000
G01 Y50.0000 F1200
G03 X143.1198 Y51.5850 I-1.5850 J0.0000
G01 X93.1198
G03 X91.5348 Y50.0000 I0.0000 J-1.5850
G01 Y0.0000
G03 X93.1198 Y-1.5850 I1.5850 J0.0000
G01 X143.1198
G03 X144.7048 Y0.0000 Z-1.219500 I0.0000 J1.5850 F1000
G01 Y8.852940 Z-2.000000
G01 Y50.0000 F1200
G03 X143.1198 Y51.5850 I-1.5850 J0.0000
G01 X93.1198
G03 X91.5348 Y50.0000 I0.0000 J-1.5850
G01 Y0.0000
G03 X93.1198 Y-1.5850 I1.5850 J0.0000
G01 X143.1198
G03 X144.7048 Y0.0000 Z-2.219500 I0.0000 J1.5850 F1000
G01 Y8.852940 Z-3.000000
G01 Y50.0000 F1200
G03 X143.1198 Y51.5850 I-1.5850 J0.0000
G01 X93.1198
G03 X91.5348 Y50.0000 I0.0000 J-1.5850
G01 Y0.0000
G03 X93.1198 Y-1.5850 I1.5850 J0.0000
G01 X143.1198
G03 X144.7048 Y0.0000 Z-3.219500 I0.0000 J1.5850 F1000
G01 Y8.852940 Z-4.000000
G01 Y50.0000 F1200
G03 X143.1198 Y51.5850 I-1.5850 J0.0000
G01 X93.1198
G03 X91.5348 Y50.0000 I0.0000 J-1.5850
G01 Y0.0000
G03 X93.1198 Y-1.5850 I1.5850 J0.0000
G01 X143.1198
G03 X144.7048 Y0.0000 Z-4.219500 I0.0000 J1.5850 F1000
G01 Y8.852940 Z-5.000000
G01 Y50.0000 F1200
G03 X143.1198 Y51.5850 I-1.5850 J0.0000
G01 X93.1198
G03 X91.5348 Y50.0000 I0.0000 J-1.5850
G01 Y0.0000
G03 X93.1198 Y-1.5850 I1.5850 J0.0000
G01 X143.1198
G03 X144.7048 Y0.0000 Z-5.219500 I0.0000 J1.5850 F1000
G01 Y8.852940 Z-6.000000
G01 Y50.0000 F1200
G03 X143.1198 Y51.5850 I-1.5850 J0.0000
G01 X93.1198
G03 X91.5348 Y50.0000 I0.0000 J-1.5850
G01 Y0.0000
G03 X93.1198 Y-1.5850 I1.5850 J0.0000
G01 X143.1198
G03 X144.7048 Y0.0000 Z-6.219500 I0.0000 J1.5850 F1000
G01 Y8.852940 Z-7.000000
G01 Y50.0000 F1200
G03 X143.1198 Y51.5850 I-1.5850 J0.0000
G01 X93.1198
G03 X91.5348 Y50.0000 I0.0000 J-1.5850
G01 Y0.0000
G03 X93.1198 Y-1.5850 I1.5850 J0.0000
G01 X143.1198
G03 X144.7048 Y0.0000 Z-7.219500 I0.0000 J1.5850 F1000
G01 Y8.852940 Z-8.000000
G01 Y50.0000 F1200
G03 X143.1198 Y51.5850 I-1.5850 J0.0000
G01 X93.1198
G03 X91.5348 Y50.0000 I0.0000 J-1.5850
G01 Y0.0000
G03 X93.1198 Y-1.5850 I1.5850 J0.0000
G01 X143.1198
G03 X144.7048 Y0.0000 Z-8.219500 I0.0000 J1.5850 F1000
G01 Y8.852940 Z-9.000000
G01 Y50.0000 F1200
G03 X143.1198 Y51.5850 I-1.5850 J0.0000
G01 X93.1198
G03 X91.5348 Y50.0000 I0.0000 J-1.5850
G01 Y0.0000
G03 X93.1198 Y-1.5850 I1.5850 J0.0000
G01 X143.1198
G03 X144.7048 Y0.0000 Z-9.219500 I0.0000 J1.5850 F1000
G01 Y8.852940 Z-10.000000
G01 Y50.0000 F1200
G03 X143.1198 Y51.5850 I-1.5850 J0.0000
G01 X93.1198
G03 X91.5348 Y50.0000 I0.0000 J-1.5850
G01 Y0.0000
G03 X93.1198 Y-1.5850 I1.5850 J0.0000
G01 X143.1198
G03 X144.7048 Y0.0000 Z-10.219500 I0.0000 J1.5850 F1000
G01 Y8.852940 Z-11.000000
G01 Y50.0000 F1200
G03 X143.1198 Y51.5850 I-1.5850 J0.0000
G01 X93.1198
G03 X91.5348 Y50.0000 I0.0000 J-1.5850
G01 Y0.0000
G03 X93.1198 Y-1.5850 I1.5850 J0.0000
G01 X143.1198
G03 X144.7048 Y0.0000 Z-11.219500 I0.0000 J1.5850 F1000
G01 Y8.852940 Z-12.000000
G01 Y50.0000 F1200
G03 X143.1198 Y51.5850 I-1.5850 J0.0000
G01 X93.1198
G03 X91.5348 Y50.0000 I0.0000 J-1.5850
G01 Y0.0000
G03 X93.1198 Y-1.5850 I1.5850 J0.0000
G01 X143.1198
G03 X144.7048 Y0.0000 Z-12.219500 I0.0000 J1.5850 F1000
G01 Y8.852940 Z-13.000000
G01 Y50.0000 F1200
G03 X143.1198 Y51.5850 I-1.5850 J0.0000
G01 X93.1198
G03 X91.5348 Y50.0000 I0.0000 J-1.5850
G01 Y0.0000
G03 X93.1198 Y-1.5850 I1.5850 J0.0000
G01 X143.1198
G03 X144.7048 Y0.0000 Z-13.219500 I0.0000 J1.5850 F1000
G01 Y8.852940 Z-14.000000
G01 Y50.0000 F1200
G03 X143.1198 Y51.5850 I-1.5850 J0.0000
G01 X93.1198
G03 X91.5348 Y50.0000 I0.0000 J-1.5850
G01 Y0.0000
G03 X93.1198 Y-1.5850 I1.5850 J0.0000
G01 X143.1198
G03 X144.7048 Y0.0000 Z-14.219500 I0.0000 J1.5850 F1000
G01 Y8.852940 Z-15.000000
G01 Y50.0000 F1200
G03 X143.1198 Y51.5850 I-1.5850 J0.0000
G01 X93.1198
G03 X91.5348 Y50.0000 I0.0000 J-1.5850
G01 Y0.0000
G03 X93.1198 Y-1.5850 I1.5850 J0.0000
G01 X143.1198
G03 X144.7048 Y0.0000 Z-15.219500 I0.0000 J1.5850 F1000
G01 Y8.852940 Z-16.000000
G01 Y50.0000 F1200
G03 X143.1198 Y51.5850 I-1.5850 J0.0000
G01 X93.1198
G03 X91.5348 Y50.0000 I0.0000 J-1.5850
G01 Y0.0000
G03 X93.1198 Y-1.5850 I1.5850 J0.0000
G01 X143.1198
G03 X144.7048 Y0.0000 Z-16.219500 I0.0000 J1.5850 F1000
G01 Y8.852940 Z-17.000000
G01 Y50.0000 F1200
G03 X143.1198 Y51.5850 I-1.5850 J0.0000
G01 X93.1198
G03 X91.5348 Y50.0000 I0.0000 J-1.5850
G01 Y0.0000
G03 X93.1198 Y-1.5850 I1.5850 J0.0000
G01 X143.1198
G03 X144.7048 Y0.0000 Z-17.219500 I0.0000 J1.5850 F1000
G01 Y8.852940 Z-18.000000
G01 Y50.0000 F1200
G03 X143.1198 Y51.5850 I-1.5850 J0.0000
G01 X93.1198
G03 X91.5348 Y50.0000 I0.0000 J-1.5850
G01 Y0.0000
G03 X93.1198 Y-1.5850 I1.5850 J0.0000
G01 X143.1198
G03 X144.7048 Y0.0000 Z-18.219500 I0.0000 J1.5850 F1000
G01 Y8.852940 Z-19.000000
G01 Y50.0000 F1200
G03 X143.1198 Y51.5850 I-1.5850 J0.0000
G01 X93.1198
G03 X91.5348 Y50.0000 I0.0000 J-1.5850
G01 Y0.0000
G03 X93.1198 Y-1.5850 I1.5850 J0.0000
G01 X143.1198
G03 X144.7048 Y0.0000 Z-19.219500 I0.0000 J1.5850 F1000
G01 Y8.852940 Z-20.000000
G01 Y50.0000 F1200
G03 X143.1198 Y51.5850 I-1.5850 J0.0000
G01 X93.1198
G03 X91.5348 Y50.0000 I0.0000 J-1.5850
G01 Y0.0000
G03 X93.1198 Y-1.5850 I1.5850 J0.0000
G01 X143.1198
G03 X144.7048 Y0.0000 I0.0000 J1.5850
G01 Y8.852940
G01 Y0.000000
G02 X143.119800 Y-1.585000 I-1.585000 J0.000000
G00 Z5.0000
G00 X0.0000 Y0.0000

M05


