(Projekt Zeichnung)
(Erstellt mit Estlcam Version 11 Build 11,245)
(Laufzeit ca. 00:02:43 Stunden)

(Benötigte Werkzeuge:)
(Alu 1 Schneider)

M03 S27000
G00 Z5.0000

(Nr. 1 Ausschnitt: Ausschnitt 2)
G00 X30.0331 Y15.3482
G00 Z0.5000
G01 Z0.0000 F1000 S27000
G02 X26.776533 Y26.097729 Z-1.000000 I20.1266 J11.9654 F1200
G02 X49.8607 Y50.7263 I23.383167 J1.215871 F1200
G02 X70.5853 Y15.8661 I0.2990 J-23.4128
G02 X30.0331 Y15.3482 I-20.4256 J11.4474
G02 X26.776533 Y26.097729 Z-2.000000 I20.1266 J11.9654 F1200
G02 X49.8607 Y50.7263 I23.383167 J1.215871 F1200
G02 X70.5853 Y15.8661 I0.2990 J-23.4128
G02 X30.0331 Y15.3482 I-20.4256 J11.4474
G02 X26.776533 Y26.097729 Z-3.000000 I20.1266 J11.9654 F1200
G02 X49.8607 Y50.7263 I23.383167 J1.215871 F1200
G02 X70.5853 Y15.8661 I0.2990 J-23.4128
G02 X30.0331 Y15.3482 I-20.4256 J11.4474
G02 X26.776533 Y26.097729 Z-4.000000 I20.1266 J11.9654 F1200
G02 X49.8607 Y50.7263 I23.383167 J1.215871 F1200
G02 X70.5853 Y15.8661 I0.2990 J-23.4128
G02 X30.0331 Y15.3482 I-20.4256 J11.4474
G02 X26.776533 Y26.097729 Z-5.000000 I20.1266 J11.9654 F1200
G02 X49.8607 Y50.7263 I23.383167 J1.215871 F1200
G02 X70.5853 Y15.8661 I0.2990 J-23.4128
G02 X30.0331 Y15.3482 I-20.4256 J11.4474
G02 X26.776533 Y26.097729 Z-6.000000 I20.1266 J11.9654 F1200
G02 X49.8607 Y50.7263 I23.383167 J1.215871 F1200
G02 X70.5853 Y15.8661 I0.2990 J-23.4128
G02 X30.0331 Y15.3482 I-20.4256 J11.4474
G02 X26.776533 Y26.097729 Z-7.000000 I20.1266 J11.9654 F1200
G02 X49.8607 Y50.7263 I23.383167 J1.215871 F1200
G02 X70.5853 Y15.8661 I0.2990 J-23.4128
G02 X30.0331 Y15.3482 I-20.4256 J11.4474
G02 X26.776533 Y26.097729 Z-8.000000 I20.1266 J11.9654 F1200
G02 X49.8607 Y50.7263 I23.383167 J1.215871 F1200
G02 X70.5853 Y15.8661 I0.2990 J-23.4128
G02 X30.0331 Y15.3482 I-20.4256 J11.4474
G02 X26.776533 Y26.097729 Z-9.000000 I20.1266 J11.9654 F1200
G02 X49.8607 Y50.7263 I23.383167 J1.215871 F1200
G02 X70.5853 Y15.8661 I0.2990 J-23.4128
G02 X30.0331 Y15.3482 I-20.4256 J11.4474
G02 X26.776533 Y26.097729 Z-10.000000 I20.1266 J11.9654 F1200
G02 X49.8607 Y50.7263 I23.383167 J1.215871 F1200
G02 X70.5853 Y15.8661 I0.2990 J-23.4128
G02 X30.0331 Y15.3482 I-20.4256 J11.4474
G02 X26.776533 Y26.097729 Z-11.000000 I20.1266 J11.9654 F1200
G02 X49.8607 Y50.7263 I23.383167 J1.215871 F1200
G02 X70.5853 Y15.8661 I0.2990 J-23.4128
G02 X30.0331 Y15.3482 I-20.4256 J11.4474
G02 X26.776533 Y26.097729 Z-12.000000 I20.1266 J11.9654 F1200
G02 X49.8607 Y50.7263 I23.383167 J1.215871 F1200
G02 X70.5853 Y15.8661 I0.2990 J-23.4128
G02 X30.0331 Y15.3482 I-20.4256 J11.4474
G02 X26.776533 Y26.097729 Z-13.000000 I20.1266 J11.9654 F1200
G02 X49.8607 Y50.7263 I23.383167 J1.215871 F1200
G02 X70.5853 Y15.8661 I0.2990 J-23.4128
G02 X30.0331 Y15.3482 I-20.4256 J11.4474
G02 X26.776533 Y26.097729 Z-14.000000 I20.1266 J11.9654 F1200
G02 X49.8607 Y50.7263 I23.383167 J1.215871 F1200
G02 X70.5853 Y15.8661 I0.2990 J-23.4128
G02 X30.0331 Y15.3482 I-20.4256 J11.4474
G02 X26.776533 Y26.097729 Z-15.000000 I20.1266 J11.9654 F1200
G02 X49.8607 Y50.7263 I23.383167 J1.215871 F1200
G02 X70.5853 Y15.8661 I0.2990 J-23.4128
G02 X30.0331 Y15.3482 I-20.4256 J11.4474
G02 X26.776533 Y26.097729 Z-16.000000 I20.1266 J11.9654 F1200
G02 X49.8607 Y50.7263 I23.383167 J1.215871 F1200
G02 X70.5853 Y15.8661 I0.2990 J-23.4128
G02 X30.0331 Y15.3482 I-20.4256 J11.4474
G02 X26.776533 Y26.097729 Z-17.000000 I20.1266 J11.9654 F1200
G02 X49.8607 Y50.7263 I23.383167 J1.215871 F1200
G02 X70.5853 Y15.8661 I0.2990 J-23.4128
G02 X30.0331 Y15.3482 I-20.4256 J11.4474
G02 X26.776533 Y26.097729 Z-18.000000 I20.1266 J11.9654 F1200
G02 X49.8607 Y50.7263 I23.383167 J1.215871 F1200
G02 X70.5853 Y15.8661 I0.2990 J-23.4128
G02 X30.0331 Y15.3482 I-20.4256 J11.4474
G02 X26.776533 Y26.097729 Z-19.000000 I20.1266 J11.9654 F1200
G02 X49.8607 Y50.7263 I23.383167 J1.215871 F1200
G02 X70.5853 Y15.8661 I0.2990 J-23.4128
G02 X30.0331 Y15.3482 I-20.4256 J11.4474
G02 X26.776533 Y26.097729 Z-20.000000 I20.1266 J11.9654 F1200
G02 X49.8607 Y50.7263 I23.383167 J1.215871 F1200
G02 X70.5853 Y15.8661 I0.2990 J-23.4128
G02 X30.0331 Y15.3482 I-20.4256 J11.4474
G02 X26.776533 Y26.097729 I20.1266 J11.9654 F1200
G03 X30.033100 Y15.348200 I23.383167 J1.215871 F1200
G00 Z5.0000
G00 X0.0000 Y0.0000

M05


