(Projekt Tisch-Verschraubungen)
(Erstellt mit Estlcam Version 11 Build 11,245)
(Laufzeit ca. 00:10:47 Stunden)

(Benötigte Werkzeuge:)
(Alu 2 Schneider)

M03 S27000
G00 Z5.0000

(Nr. 1 Ausschnitt: Ausschnitt 1)
G00 X47.2412 Y76.0728
G00 Z0.5000
G01 Z0.0000 F1000 S27000
G02 X46.242595 Y81.014595 Z-0.500000 I1.7588 J2.9272
G02 X47.3444 Y81.9868 I2.757405 J-2.014595
G02 X52.4144 Y78.9404 I1.6556 J-2.9868
G02 X47.2412 Y76.0728 I-3.4144 J0.0596
G02 X46.242595 Y81.014595 Z-1.000000 I1.7588 J2.9272
G02 X47.3444 Y81.9868 I2.757405 J-2.014595
G02 X52.4144 Y78.9404 I1.6556 J-2.9868
G02 X47.2412 Y76.0728 I-3.4144 J0.0596
G02 X46.242595 Y81.014595 Z-1.500000 I1.7588 J2.9272
G02 X47.3444 Y81.9868 I2.757405 J-2.014595
G02 X52.4144 Y78.9404 I1.6556 J-2.9868
G02 X47.2412 Y76.0728 I-3.4144 J0.0596
G02 X46.242595 Y81.014595 Z-2.000000 I1.7588 J2.9272
G02 X47.3444 Y81.9868 I2.757405 J-2.014595
G02 X52.4144 Y78.9404 I1.6556 J-2.9868
G02 X47.2412 Y76.0728 I-3.4144 J0.0596
G02 X46.242595 Y81.014595 Z-2.500000 I1.7588 J2.9272
G02 X47.3444 Y81.9868 I2.757405 J-2.014595
G02 X52.4144 Y78.9404 I1.6556 J-2.9868
G02 X47.2412 Y76.0728 I-3.4144 J0.0596
G02 X46.242595 Y81.014595 Z-3.000000 I1.7588 J2.9272
G02 X47.3444 Y81.9868 I2.757405 J-2.014595
G02 X52.4144 Y78.9404 I1.6556 J-2.9868
G02 X47.2412 Y76.0728 I-3.4144 J0.0596
G02 X46.242595 Y81.014595 Z-3.500000 I1.7588 J2.9272
G02 X47.3444 Y81.9868 I2.757405 J-2.014595
G02 X52.4144 Y78.9404 I1.6556 J-2.9868
G02 X47.2412 Y76.0728 I-3.4144 J0.0596
G02 X46.242595 Y81.014595 Z-4.000000 I1.7588 J2.9272
G02 X47.3444 Y81.9868 I2.757405 J-2.014595
G02 X52.4144 Y78.9404 I1.6556 J-2.9868
G02 X47.2412 Y76.0728 I-3.4144 J0.0596
G02 X46.242595 Y81.014595 Z-4.500000 I1.7588 J2.9272
G02 X47.3444 Y81.9868 I2.757405 J-2.014595
G02 X52.4144 Y78.9404 I1.6556 J-2.9868
G02 X47.2412 Y76.0728 I-3.4144 J0.0596
G02 X46.242595 Y81.014595 Z-5.000000 I1.7588 J2.9272
G02 X47.3444 Y81.9868 I2.757405 J-2.014595
G02 X52.4144 Y78.9404 I1.6556 J-2.9868
G02 X47.2412 Y76.0728 I-3.4144 J0.0596
G02 X46.242595 Y81.014595 Z-5.500000 I1.7588 J2.9272
G02 X47.3444 Y81.9868 I2.757405 J-2.014595
G02 X52.4144 Y78.9404 I1.6556 J-2.9868
G02 X47.2412 Y76.0728 I-3.4144 J0.0596
G02 X46.242595 Y81.014595 Z-6.000000 I1.7588 J2.9272
G02 X47.3444 Y81.9868 I2.757405 J-2.014595
G02 X52.4144 Y78.9404 I1.6556 J-2.9868
G02 X47.2412 Y76.0728 I-3.4144 J0.0596
G02 X46.242595 Y81.014595 I1.7588 J2.9272
G03 X47.241200 Y76.072800 I2.757405 J-2.014595
G00 Z5.0000

(Nr. 2 Ausschnitt: Ausschnitt 32)
G00 X48.5178 Y78.1649 Z5.0000
G00 Z0.5000
G01 Z0.0000 F1000
G02 Y79.8352 Z-0.178100 I0.4822 J0.8351
G02 X49.9643 Y79.0000 Z-0.356217 I0.4822 J-0.8351
G02 X48.884526 Y78.042639 Z-0.500000 I-0.9643 J0.0000
G02 X48.5178 Y78.1649 I0.115474 J0.957361
G02 Y79.8352 Z-0.678100 I0.4822 J0.8351
G02 X49.9643 Y79.0000 Z-0.856217 I0.4822 J-0.8351
G02 X48.884526 Y78.042639 Z-1.000000 I-0.9643 J0.0000
G02 X48.5178 Y78.1649 I0.115474 J0.957361
G02 Y79.8352 Z-1.178100 I0.4822 J0.8351
G02 X49.9643 Y79.0000 Z-1.356217 I0.4822 J-0.8351
G02 X48.884526 Y78.042639 Z-1.500000 I-0.9643 J0.0000
G02 X48.5178 Y78.1649 I0.115474 J0.957361
G02 Y79.8352 Z-1.678100 I0.4822 J0.8351
G02 X49.9643 Y79.0000 Z-1.856217 I0.4822 J-0.8351
G02 X48.884526 Y78.042639 Z-2.000000 I-0.9643 J0.0000
G02 X48.5178 Y78.1649 I0.115474 J0.957361
G02 Y79.8352 Z-2.178100 I0.4822 J0.8351
G02 X49.9643 Y79.0000 Z-2.356217 I0.4822 J-0.8351
G02 X48.884526 Y78.042639 Z-2.500000 I-0.9643 J0.0000
G02 X48.5178 Y78.1649 I0.115474 J0.957361
G02 Y79.8352 Z-2.678100 I0.4822 J0.8351
G02 X49.9643 Y79.0000 Z-2.856217 I0.4822 J-0.8351
G02 X48.884526 Y78.042639 Z-3.000000 I-0.9643 J0.0000
G02 X48.5178 Y78.1649 I0.115474 J0.957361
G02 Y79.8352 Z-3.178100 I0.4822 J0.8351
G02 X49.9643 Y79.0000 Z-3.356217 I0.4822 J-0.8351
G02 X48.884526 Y78.042639 Z-3.500000 I-0.9643 J0.0000
G02 X48.5178 Y78.1649 I0.115474 J0.957361
G02 Y79.8352 Z-3.678100 I0.4822 J0.8351
G02 X49.9643 Y79.0000 Z-3.856217 I0.4822 J-0.8351
G02 X48.884526 Y78.042639 Z-4.000000 I-0.9643 J0.0000
G02 X48.5178 Y78.1649 I0.115474 J0.957361
G02 Y79.8352 Z-4.178100 I0.4822 J0.8351
G02 X49.9643 Y79.0000 Z-4.356217 I0.4822 J-0.8351
G02 X48.884526 Y78.042639 Z-4.500000 I-0.9643 J0.0000
G02 X48.5178 Y78.1649 I0.115474 J0.957361
G02 Y79.8352 Z-4.678100 I0.4822 J0.8351
G02 X49.9643 Y79.0000 Z-4.856217 I0.4822 J-0.8351
G02 X48.884526 Y78.042639 Z-5.000000 I-0.9643 J0.0000
G02 X48.5178 Y78.1649 I0.115474 J0.957361
G02 Y79.8352 Z-5.178100 I0.4822 J0.8351
G02 X49.9643 Y79.0000 Z-5.356217 I0.4822 J-0.8351
G02 X48.884526 Y78.042639 Z-5.500000 I-0.9643 J0.0000
G02 X48.5178 Y78.1649 I0.115474 J0.957361
G02 Y79.8352 Z-5.678100 I0.4822 J0.8351
G02 X49.9643 Y79.0000 Z-5.856217 I0.4822 J-0.8351
G02 X48.884526 Y78.042639 Z-6.000000 I-0.9643 J0.0000
G02 X48.5178 Y78.1649 I0.115474 J0.957361
G02 Y79.8352 Z-6.178100 I0.4822 J0.8351
G02 X49.9643 Y79.0000 Z-6.356217 I0.4822 J-0.8351
G02 X48.884526 Y78.042639 Z-6.500000 I-0.9643 J0.0000
G02 X48.5178 Y78.1649 I0.115474 J0.957361
G02 Y79.8352 Z-6.678100 I0.4822 J0.8351
G02 X49.9643 Y79.0000 Z-6.856217 I0.4822 J-0.8351
G02 X48.884526 Y78.042639 Z-7.000000 I-0.9643 J0.0000
G02 X48.5178 Y78.1649 I0.115474 J0.957361
G02 Y79.8352 Z-7.178100 I0.4822 J0.8351
G02 X49.9643 Y79.0000 Z-7.356217 I0.4822 J-0.8351
G02 X48.884526 Y78.042639 Z-7.500000 I-0.9643 J0.0000
G02 X48.5178 Y78.1649 I0.115474 J0.957361
G02 Y79.8352 Z-7.678100 I0.4822 J0.8351
G02 X49.9643 Y79.0000 Z-7.856217 I0.4822 J-0.8351
G02 X48.884526 Y78.042639 Z-8.000000 I-0.9643 J0.0000
G02 X48.5178 Y78.1649 I0.115474 J0.957361
G02 Y79.8352 Z-8.178100 I0.4822 J0.8351
G02 X49.9643 Y79.0000 Z-8.356217 I0.4822 J-0.8351
G02 X48.884526 Y78.042639 Z-8.500000 I-0.9643 J0.0000
G02 X48.5178 Y78.1649 I0.115474 J0.957361
G02 Y79.8352 Z-8.678100 I0.4822 J0.8351
G02 X49.9643 Y79.0000 Z-8.856217 I0.4822 J-0.8351
G02 X48.884526 Y78.042639 Z-9.000000 I-0.9643 J0.0000
G02 X48.5178 Y78.1649 I0.115474 J0.957361
G02 Y79.8352 Z-9.178100 I0.4822 J0.8351
G02 X49.9643 Y79.0000 Z-9.356217 I0.4822 J-0.8351
G02 X48.884526 Y78.042639 Z-9.500000 I-0.9643 J0.0000
G02 X48.5178 Y78.1649 I0.115474 J0.957361
G02 Y79.8352 Z-9.678100 I0.4822 J0.8351
G02 X49.9643 Y79.0000 Z-9.856217 I0.4822 J-0.8351
G02 X48.884526 Y78.042639 Z-10.000000 I-0.9643 J0.0000
G02 X48.5178 Y78.1649 I0.115474 J0.957361
G02 Y79.8352 I0.4822 J0.8351
G02 X49.9643 Y79.0000 I0.4822 J-0.8351
G02 X48.884526 Y78.042639 I-0.9643 J0.0000
G03 X49.964300 Y79.000000 I0.115474 J0.957361
G03 X48.517800 Y79.835200 I-0.964300 J0.000100
G03 Y78.164900 I0.482200 J-0.835200
G00 Z5.0000

(Nr. 3 Ausschnitt: Ausschnitt 2)
G00 X256.7522 Y77.9447 Z5.0000
G00 Z0.5000
G01 Z0.0000 F1000
G02 X259.240743 Y82.329473 Z-0.500000 I3.2478 J1.0553
G02 X260.7100 Y82.3403 I0.759257 J-3.329473
G02 X262.5378 Y76.7150 I-0.7100 J-3.3403
G02 X256.7522 Y77.9447 I-2.5378 J2.2850
G02 X259.240743 Y82.329473 Z-1.000000 I3.2478 J1.0553
G02 X260.7100 Y82.3403 I0.759257 J-3.329473
G02 X262.5378 Y76.7150 I-0.7100 J-3.3403
G02 X256.7522 Y77.9447 I-2.5378 J2.2850
G02 X259.240743 Y82.329473 Z-1.500000 I3.2478 J1.0553
G02 X260.7100 Y82.3403 I0.759257 J-3.329473
G02 X262.5378 Y76.7150 I-0.7100 J-3.3403
G02 X256.7522 Y77.9447 I-2.5378 J2.2850
G02 X259.240743 Y82.329473 Z-2.000000 I3.2478 J1.0553
G02 X260.7100 Y82.3403 I0.759257 J-3.329473
G02 X262.5378 Y76.7150 I-0.7100 J-3.3403
G02 X256.7522 Y77.9447 I-2.5378 J2.2850
G02 X259.240743 Y82.329473 Z-2.500000 I3.2478 J1.0553
G02 X260.7100 Y82.3403 I0.759257 J-3.329473
G02 X262.5378 Y76.7150 I-0.7100 J-3.3403
G02 X256.7522 Y77.9447 I-2.5378 J2.2850
G02 X259.240743 Y82.329473 Z-3.000000 I3.2478 J1.0553
G02 X260.7100 Y82.3403 I0.759257 J-3.329473
G02 X262.5378 Y76.7150 I-0.7100 J-3.3403
G02 X256.7522 Y77.9447 I-2.5378 J2.2850
G02 X259.240743 Y82.329473 Z-3.500000 I3.2478 J1.0553
G02 X260.7100 Y82.3403 I0.759257 J-3.329473
G02 X262.5378 Y76.7150 I-0.7100 J-3.3403
G02 X256.7522 Y77.9447 I-2.5378 J2.2850
G02 X259.240743 Y82.329473 Z-4.000000 I3.2478 J1.0553
G02 X260.7100 Y82.3403 I0.759257 J-3.329473
G02 X262.5378 Y76.7150 I-0.7100 J-3.3403
G02 X256.7522 Y77.9447 I-2.5378 J2.2850
G02 X259.240743 Y82.329473 Z-4.500000 I3.2478 J1.0553
G02 X260.7100 Y82.3403 I0.759257 J-3.329473
G02 X262.5378 Y76.7150 I-0.7100 J-3.3403
G02 X256.7522 Y77.9447 I-2.5378 J2.2850
G02 X259.240743 Y82.329473 Z-5.000000 I3.2478 J1.0553
G02 X260.7100 Y82.3403 I0.759257 J-3.329473
G02 X262.5378 Y76.7150 I-0.7100 J-3.3403
G02 X256.7522 Y77.9447 I-2.5378 J2.2850
G02 X259.240743 Y82.329473 Z-5.500000 I3.2478 J1.0553
G02 X260.7100 Y82.3403 I0.759257 J-3.329473
G02 X262.5378 Y76.7150 I-0.7100 J-3.3403
G02 X256.7522 Y77.9447 I-2.5378 J2.2850
G02 X259.240743 Y82.329473 Z-6.000000 I3.2478 J1.0553
G02 X260.7100 Y82.3403 I0.759257 J-3.329473
G02 X262.5378 Y76.7150 I-0.7100 J-3.3403
G02 X256.7522 Y77.9447 I-2.5378 J2.2850
G02 X259.240743 Y82.329473 I3.2478 J1.0553
G03 X256.752200 Y77.944700 I0.759257 J-3.329473
G00 Z5.0000

(Nr. 4 Ausschnitt: Ausschnitt 31)
G00 X259.0938 Y78.6702 Z5.0000
G00 Z0.5000
G01 Z0.0000 F1000
G02 X260.1675 Y79.9497 Z-0.178100 I0.9062 J0.3298
G02 X260.7387 Y78.3802 Z-0.356194 I-0.1675 J-0.9497
G02 X259.295906 Y78.341157 Z-0.500000 I-0.7387 J0.6199
G02 X259.0938 Y78.6702 I0.704094 J0.658943
G02 X260.1675 Y79.9497 Z-0.678100 I0.9062 J0.3298
G02 X260.7387 Y78.3802 Z-0.856194 I-0.1675 J-0.9497
G02 X259.295906 Y78.341157 Z-1.000000 I-0.7387 J0.6199
G02 X259.0938 Y78.6702 I0.704094 J0.658943
G02 X260.1675 Y79.9497 Z-1.178100 I0.9062 J0.3298
G02 X260.7387 Y78.3802 Z-1.356194 I-0.1675 J-0.9497
G02 X259.295906 Y78.341157 Z-1.500000 I-0.7387 J0.6199
G02 X259.0938 Y78.6702 I0.704094 J0.658943
G02 X260.1675 Y79.9497 Z-1.678100 I0.9062 J0.3298
G02 X260.7387 Y78.3802 Z-1.856194 I-0.1675 J-0.9497
G02 X259.295906 Y78.341157 Z-2.000000 I-0.7387 J0.6199
G02 X259.0938 Y78.6702 I0.704094 J0.658943
G02 X260.1675 Y79.9497 Z-2.178100 I0.9062 J0.3298
G02 X260.7387 Y78.3802 Z-2.356194 I-0.1675 J-0.9497
G02 X259.295906 Y78.341157 Z-2.500000 I-0.7387 J0.6199
G02 X259.0938 Y78.6702 I0.704094 J0.658943
G02 X260.1675 Y79.9497 Z-2.678100 I0.9062 J0.3298
G02 X260.7387 Y78.3802 Z-2.856194 I-0.1675 J-0.9497
G02 X259.295906 Y78.341157 Z-3.000000 I-0.7387 J0.6199
G02 X259.0938 Y78.6702 I0.704094 J0.658943
G02 X260.1675 Y79.9497 Z-3.178100 I0.9062 J0.3298
G02 X260.7387 Y78.3802 Z-3.356194 I-0.1675 J-0.9497
G02 X259.295906 Y78.341157 Z-3.500000 I-0.7387 J0.6199
G02 X259.0938 Y78.6702 I0.704094 J0.658943
G02 X260.1675 Y79.9497 Z-3.678100 I0.9062 J0.3298
G02 X260.7387 Y78.3802 Z-3.856194 I-0.1675 J-0.9497
G02 X259.295906 Y78.341157 Z-4.000000 I-0.7387 J0.6199
G02 X259.0938 Y78.6702 I0.704094 J0.658943
G02 X260.1675 Y79.9497 Z-4.178100 I0.9062 J0.3298
G02 X260.7387 Y78.3802 Z-4.356194 I-0.1675 J-0.9497
G02 X259.295906 Y78.341157 Z-4.500000 I-0.7387 J0.6199
G02 X259.0938 Y78.6702 I0.704094 J0.658943
G02 X260.1675 Y79.9497 Z-4.678100 I0.9062 J0.3298
G02 X260.7387 Y78.3802 Z-4.856194 I-0.1675 J-0.9497
G02 X259.295906 Y78.341157 Z-5.000000 I-0.7387 J0.6199
G02 X259.0938 Y78.6702 I0.704094 J0.658943
G02 X260.1675 Y79.9497 Z-5.178100 I0.9062 J0.3298
G02 X260.7387 Y78.3802 Z-5.356194 I-0.1675 J-0.9497
G02 X259.295906 Y78.341157 Z-5.500000 I-0.7387 J0.6199
G02 X259.0938 Y78.6702 I0.704094 J0.658943
G02 X260.1675 Y79.9497 Z-5.678100 I0.9062 J0.3298
G02 X260.7387 Y78.3802 Z-5.856194 I-0.1675 J-0.9497
G02 X259.295906 Y78.341157 Z-6.000000 I-0.7387 J0.6199
G02 X259.0938 Y78.6702 I0.704094 J0.658943
G02 X260.1675 Y79.9497 Z-6.178100 I0.9062 J0.3298
G02 X260.7387 Y78.3802 Z-6.356194 I-0.1675 J-0.9497
G02 X259.295906 Y78.341157 Z-6.500000 I-0.7387 J0.6199
G02 X259.0938 Y78.6702 I0.704094 J0.658943
G02 X260.1675 Y79.9497 Z-6.678100 I0.9062 J0.3298
G02 X260.7387 Y78.3802 Z-6.856194 I-0.1675 J-0.9497
G02 X259.295906 Y78.341157 Z-7.000000 I-0.7387 J0.6199
G02 X259.0938 Y78.6702 I0.704094 J0.658943
G02 X260.1675 Y79.9497 Z-7.178100 I0.9062 J0.3298
G02 X260.7387 Y78.3802 Z-7.356194 I-0.1675 J-0.9497
G02 X259.295906 Y78.341157 Z-7.500000 I-0.7387 J0.6199
G02 X259.0938 Y78.6702 I0.704094 J0.658943
G02 X260.1675 Y79.9497 Z-7.678100 I0.9062 J0.3298
G02 X260.7387 Y78.3802 Z-7.856194 I-0.1675 J-0.9497
G02 X259.295906 Y78.341157 Z-8.000000 I-0.7387 J0.6199
G02 X259.0938 Y78.6702 I0.704094 J0.658943
G02 X260.1675 Y79.9497 Z-8.178100 I0.9062 J0.3298
G02 X260.7387 Y78.3802 Z-8.356194 I-0.1675 J-0.9497
G02 X259.295906 Y78.341157 Z-8.500000 I-0.7387 J0.6199
G02 X259.0938 Y78.6702 I0.704094 J0.658943
G02 X260.1675 Y79.9497 Z-8.678100 I0.9062 J0.3298
G02 X260.7387 Y78.3802 Z-8.856194 I-0.1675 J-0.9497
G02 X259.295906 Y78.341157 Z-9.000000 I-0.7387 J0.6199
G02 X259.0938 Y78.6702 I0.704094 J0.658943
G02 X260.1675 Y79.9497 Z-9.178100 I0.9062 J0.3298
G02 X260.7387 Y78.3802 Z-9.356194 I-0.1675 J-0.9497
G02 X259.295906 Y78.341157 Z-9.500000 I-0.7387 J0.6199
G02 X259.0938 Y78.6702 I0.704094 J0.658943
G02 X260.1675 Y79.9497 Z-9.678100 I0.9062 J0.3298
G02 X260.7387 Y78.3802 Z-9.856194 I-0.1675 J-0.9497
G02 X259.295906 Y78.341157 Z-10.000000 I-0.7387 J0.6199
G02 X259.0938 Y78.6702 I0.704094 J0.658943
G02 X260.1675 Y79.9497 I0.9062 J0.3298
G02 X260.7387 Y78.3802 I-0.1675 J-0.9497
G02 X259.295906 Y78.341157 I-0.7387 J0.6199
G03 X260.738700 Y78.380200 I0.704094 J0.658943
G03 X260.167500 Y79.949700 I-0.738700 J0.619800
G03 X259.093800 Y78.670200 I-0.167500 J-0.949700
G00 Z5.0000

(Nr. 5 Ausschnitt: Ausschnitt 3)
G00 X456.6478 Y78.3484 Z5.0000
G00 Z0.5000
G01 Z0.0000 F1000
G02 X459.652044 Y82.397169 Z-0.500000 I3.3522 J0.6516
G02 X461.1118 Y82.2289 I0.347956 J-3.397169
G02 X462.2404 Y76.4227 I-1.1118 J-3.2289
G02 X456.6478 Y78.3484 I-2.2404 J2.5773
G02 X459.652044 Y82.397169 Z-1.000000 I3.3522 J0.6516
G02 X461.1118 Y82.2289 I0.347956 J-3.397169
G02 X462.2404 Y76.4227 I-1.1118 J-3.2289
G02 X456.6478 Y78.3484 I-2.2404 J2.5773
G02 X459.652044 Y82.397169 Z-1.500000 I3.3522 J0.6516
G02 X461.1118 Y82.2289 I0.347956 J-3.397169
G02 X462.2404 Y76.4227 I-1.1118 J-3.2289
G02 X456.6478 Y78.3484 I-2.2404 J2.5773
G02 X459.652044 Y82.397169 Z-2.000000 I3.3522 J0.6516
G02 X461.1118 Y82.2289 I0.347956 J-3.397169
G02 X462.2404 Y76.4227 I-1.1118 J-3.2289
G02 X456.6478 Y78.3484 I-2.2404 J2.5773
G02 X459.652044 Y82.397169 Z-2.500000 I3.3522 J0.6516
G02 X461.1118 Y82.2289 I0.347956 J-3.397169
G02 X462.2404 Y76.4227 I-1.1118 J-3.2289
G02 X456.6478 Y78.3484 I-2.2404 J2.5773
G02 X459.652044 Y82.397169 Z-3.000000 I3.3522 J0.6516
G02 X461.1118 Y82.2289 I0.347956 J-3.397169
G02 X462.2404 Y76.4227 I-1.1118 J-3.2289
G02 X456.6478 Y78.3484 I-2.2404 J2.5773
G02 X459.652044 Y82.397169 Z-3.500000 I3.3522 J0.6516
G02 X461.1118 Y82.2289 I0.347956 J-3.397169
G02 X462.2404 Y76.4227 I-1.1118 J-3.2289
G02 X456.6478 Y78.3484 I-2.2404 J2.5773
G02 X459.652044 Y82.397169 Z-4.000000 I3.3522 J0.6516
G02 X461.1118 Y82.2289 I0.347956 J-3.397169
G02 X462.2404 Y76.4227 I-1.1118 J-3.2289
G02 X456.6478 Y78.3484 I-2.2404 J2.5773
G02 X459.652044 Y82.397169 Z-4.500000 I3.3522 J0.6516
G02 X461.1118 Y82.2289 I0.347956 J-3.397169
G02 X462.2404 Y76.4227 I-1.1118 J-3.2289
G02 X456.6478 Y78.3484 I-2.2404 J2.5773
G02 X459.652044 Y82.397169 Z-5.000000 I3.3522 J0.6516
G02 X461.1118 Y82.2289 I0.347956 J-3.397169
G02 X462.2404 Y76.4227 I-1.1118 J-3.2289
G02 X456.6478 Y78.3484 I-2.2404 J2.5773
G02 X459.652044 Y82.397169 Z-5.500000 I3.3522 J0.6516
G02 X461.1118 Y82.2289 I0.347956 J-3.397169
G02 X462.2404 Y76.4227 I-1.1118 J-3.2289
G02 X456.6478 Y78.3484 I-2.2404 J2.5773
G02 X459.652044 Y82.397169 Z-6.000000 I3.3522 J0.6516
G02 X461.1118 Y82.2289 I0.347956 J-3.397169
G02 X462.2404 Y76.4227 I-1.1118 J-3.2289
G02 X456.6478 Y78.3484 I-2.2404 J2.5773
G02 X459.652044 Y82.397169 I3.3522 J0.6516
G03 X456.647800 Y78.348400 I0.347956 J-3.397169
G00 Z5.0000

(Nr. 6 Ausschnitt: Ausschnitt 30)
G00 X459.0617 Y78.7776 Z5.0000
G00 Z0.5000
G01 Z0.0000 F1000
G02 X460.2766 Y79.9238 Z-0.178100 I0.9383 J0.2224
G02 X460.6618 Y78.2986 Z-0.356193 I-0.2766 J-0.9238
G02 X459.224248 Y78.427156 Z-0.500000 I-0.6618 J0.7014
G02 X459.0617 Y78.7776 I0.775752 J0.572844
G02 X460.2766 Y79.9238 Z-0.678100 I0.9383 J0.2224
G02 X460.6618 Y78.2986 Z-0.856193 I-0.2766 J-0.9238
G02 X459.224248 Y78.427156 Z-1.000000 I-0.6618 J0.7014
G02 X459.0617 Y78.7776 I0.775752 J0.572844
G02 X460.2766 Y79.9238 Z-1.178100 I0.9383 J0.2224
G02 X460.6618 Y78.2986 Z-1.356193 I-0.2766 J-0.9238
G02 X459.224248 Y78.427156 Z-1.500000 I-0.6618 J0.7014
G02 X459.0617 Y78.7776 I0.775752 J0.572844
G02 X460.2766 Y79.9238 Z-1.678100 I0.9383 J0.2224
G02 X460.6618 Y78.2986 Z-1.856193 I-0.2766 J-0.9238
G02 X459.224248 Y78.427156 Z-2.000000 I-0.6618 J0.7014
G02 X459.0617 Y78.7776 I0.775752 J0.572844
G02 X460.2766 Y79.9238 Z-2.178100 I0.9383 J0.2224
G02 X460.6618 Y78.2986 Z-2.356193 I-0.2766 J-0.9238
G02 X459.224248 Y78.427156 Z-2.500000 I-0.6618 J0.7014
G02 X459.0617 Y78.7776 I0.775752 J0.572844
G02 X460.2766 Y79.9238 Z-2.678100 I0.9383 J0.2224
G02 X460.6618 Y78.2986 Z-2.856193 I-0.2766 J-0.9238
G02 X459.224248 Y78.427156 Z-3.000000 I-0.6618 J0.7014
G02 X459.0617 Y78.7776 I0.775752 J0.572844
G02 X460.2766 Y79.9238 Z-3.178100 I0.9383 J0.2224
G02 X460.6618 Y78.2986 Z-3.356193 I-0.2766 J-0.9238
G02 X459.224248 Y78.427156 Z-3.500000 I-0.6618 J0.7014
G02 X459.0617 Y78.7776 I0.775752 J0.572844
G02 X460.2766 Y79.9238 Z-3.678100 I0.9383 J0.2224
G02 X460.6618 Y78.2986 Z-3.856193 I-0.2766 J-0.9238
G02 X459.224248 Y78.427156 Z-4.000000 I-0.6618 J0.7014
G02 X459.0617 Y78.7776 I0.775752 J0.572844
G02 X460.2766 Y79.9238 Z-4.178100 I0.9383 J0.2224
G02 X460.6618 Y78.2986 Z-4.356193 I-0.2766 J-0.9238
G02 X459.224248 Y78.427156 Z-4.500000 I-0.6618 J0.7014
G02 X459.0617 Y78.7776 I0.775752 J0.572844
G02 X460.2766 Y79.9238 Z-4.678100 I0.9383 J0.2224
G02 X460.6618 Y78.2986 Z-4.856193 I-0.2766 J-0.9238
G02 X459.224248 Y78.427156 Z-5.000000 I-0.6618 J0.7014
G02 X459.0617 Y78.7776 I0.775752 J0.572844
G02 X460.2766 Y79.9238 Z-5.178100 I0.9383 J0.2224
G02 X460.6618 Y78.2986 Z-5.356193 I-0.2766 J-0.9238
G02 X459.224248 Y78.427156 Z-5.500000 I-0.6618 J0.7014
G02 X459.0617 Y78.7776 I0.775752 J0.572844
G02 X460.2766 Y79.9238 Z-5.678100 I0.9383 J0.2224
G02 X460.6618 Y78.2986 Z-5.856193 I-0.2766 J-0.9238
G02 X459.224248 Y78.427156 Z-6.000000 I-0.6618 J0.7014
G02 X459.0617 Y78.7776 I0.775752 J0.572844
G02 X460.2766 Y79.9238 Z-6.178100 I0.9383 J0.2224
G02 X460.6618 Y78.2986 Z-6.356193 I-0.2766 J-0.9238
G02 X459.224248 Y78.427156 Z-6.500000 I-0.6618 J0.7014
G02 X459.0617 Y78.7776 I0.775752 J0.572844
G02 X460.2766 Y79.9238 Z-6.678100 I0.9383 J0.2224
G02 X460.6618 Y78.2986 Z-6.856193 I-0.2766 J-0.9238
G02 X459.224248 Y78.427156 Z-7.000000 I-0.6618 J0.7014
G02 X459.0617 Y78.7776 I0.775752 J0.572844
G02 X460.2766 Y79.9238 Z-7.178100 I0.9383 J0.2224
G02 X460.6618 Y78.2986 Z-7.356193 I-0.2766 J-0.9238
G02 X459.224248 Y78.427156 Z-7.500000 I-0.6618 J0.7014
G02 X459.0617 Y78.7776 I0.775752 J0.572844
G02 X460.2766 Y79.9238 Z-7.678100 I0.9383 J0.2224
G02 X460.6618 Y78.2986 Z-7.856193 I-0.2766 J-0.9238
G02 X459.224248 Y78.427156 Z-8.000000 I-0.6618 J0.7014
G02 X459.0617 Y78.7776 I0.775752 J0.572844
G02 X460.2766 Y79.9238 Z-8.178100 I0.9383 J0.2224
G02 X460.6618 Y78.2986 Z-8.356193 I-0.2766 J-0.9238
G02 X459.224248 Y78.427156 Z-8.500000 I-0.6618 J0.7014
G02 X459.0617 Y78.7776 I0.775752 J0.572844
G02 X460.2766 Y79.9238 Z-8.678100 I0.9383 J0.2224
G02 X460.6618 Y78.2986 Z-8.856193 I-0.2766 J-0.9238
G02 X459.224248 Y78.427156 Z-9.000000 I-0.6618 J0.7014
G02 X459.0617 Y78.7776 I0.775752 J0.572844
G02 X460.2766 Y79.9238 Z-9.178100 I0.9383 J0.2224
G02 X460.6618 Y78.2986 Z-9.356193 I-0.2766 J-0.9238
G02 X459.224248 Y78.427156 Z-9.500000 I-0.6618 J0.7014
G02 X459.0617 Y78.7776 I0.775752 J0.572844
G02 X460.2766 Y79.9238 Z-9.678100 I0.9383 J0.2224
G02 X460.6618 Y78.2986 Z-9.856193 I-0.2766 J-0.9238
G02 X459.224248 Y78.427156 Z-10.000000 I-0.6618 J0.7014
G02 X459.0617 Y78.7776 I0.775752 J0.572844
G02 X460.2766 Y79.9238 I0.9383 J0.2224
G02 X460.6618 Y78.2986 I-0.2766 J-0.9238
G02 X459.224248 Y78.427156 I-0.6618 J0.7014
G03 X460.661800 Y78.298600 I0.775752 J0.572844
G03 X460.276600 Y79.923800 I-0.661800 J0.701400
G03 X459.061700 Y78.777600 I-0.276600 J-0.923800
G00 Z5.0000

(Nr. 7 Ausschnitt: Ausschnitt 4)
G00 X651.6183 Y78.5247 Z5.0000
G00 Z0.5000
G01 Z0.0000 F1000
G02 X654.830374 Y82.410723 Z-0.500000 I3.3817 J0.4753
G02 X656.2793 Y82.1663 I0.169626 J-3.410723
G02 X657.1024 Y76.3090 I-1.2793 J-3.1663
G02 X651.6183 Y78.5247 I-2.1024 J2.6910
G02 X654.830374 Y82.410723 Z-1.000000 I3.3817 J0.4753
G02 X656.2793 Y82.1663 I0.169626 J-3.410723
G02 X657.1024 Y76.3090 I-1.2793 J-3.1663
G02 X651.6183 Y78.5247 I-2.1024 J2.6910
G02 X654.830374 Y82.410723 Z-1.500000 I3.3817 J0.4753
G02 X656.2793 Y82.1663 I0.169626 J-3.410723
G02 X657.1024 Y76.3090 I-1.2793 J-3.1663
G02 X651.6183 Y78.5247 I-2.1024 J2.6910
G02 X654.830374 Y82.410723 Z-2.000000 I3.3817 J0.4753
G02 X656.2793 Y82.1663 I0.169626 J-3.410723
G02 X657.1024 Y76.3090 I-1.2793 J-3.1663
G02 X651.6183 Y78.5247 I-2.1024 J2.6910
G02 X654.830374 Y82.410723 Z-2.500000 I3.3817 J0.4753
G02 X656.2793 Y82.1663 I0.169626 J-3.410723
G02 X657.1024 Y76.3090 I-1.2793 J-3.1663
G02 X651.6183 Y78.5247 I-2.1024 J2.6910
G02 X654.830374 Y82.410723 Z-3.000000 I3.3817 J0.4753
G02 X656.2793 Y82.1663 I0.169626 J-3.410723
G02 X657.1024 Y76.3090 I-1.2793 J-3.1663
G02 X651.6183 Y78.5247 I-2.1024 J2.6910
G02 X654.830374 Y82.410723 Z-3.500000 I3.3817 J0.4753
G02 X656.2793 Y82.1663 I0.169626 J-3.410723
G02 X657.1024 Y76.3090 I-1.2793 J-3.1663
G02 X651.6183 Y78.5247 I-2.1024 J2.6910
G02 X654.830374 Y82.410723 Z-4.000000 I3.3817 J0.4753
G02 X656.2793 Y82.1663 I0.169626 J-3.410723
G02 X657.1024 Y76.3090 I-1.2793 J-3.1663
G02 X651.6183 Y78.5247 I-2.1024 J2.6910
G02 X654.830374 Y82.410723 Z-4.500000 I3.3817 J0.4753
G02 X656.2793 Y82.1663 I0.169626 J-3.410723
G02 X657.1024 Y76.3090 I-1.2793 J-3.1663
G02 X651.6183 Y78.5247 I-2.1024 J2.6910
G02 X654.830374 Y82.410723 Z-5.000000 I3.3817 J0.4753
G02 X656.2793 Y82.1663 I0.169626 J-3.410723
G02 X657.1024 Y76.3090 I-1.2793 J-3.1663
G02 X651.6183 Y78.5247 I-2.1024 J2.6910
G02 X654.830374 Y82.410723 Z-5.500000 I3.3817 J0.4753
G02 X656.2793 Y82.1663 I0.169626 J-3.410723
G02 X657.1024 Y76.3090 I-1.2793 J-3.1663
G02 X651.6183 Y78.5247 I-2.1024 J2.6910
G02 X654.830374 Y82.410723 Z-6.000000 I3.3817 J0.4753
G02 X656.2793 Y82.1663 I0.169626 J-3.410723
G02 X657.1024 Y76.3090 I-1.2793 J-3.1663
G02 X651.6183 Y78.5247 I-2.1024 J2.6910
G02 X654.830374 Y82.410723 I3.3817 J0.4753
G03 X651.618300 Y78.524700 I0.169626 J-3.410723
G00 Z5.0000

(Nr. 8 Ausschnitt: Ausschnitt 29)
G00 X654.0503 Y78.8326 Z5.0000
G00 Z0.5000
G01 Z0.0000 F1000
G02 X655.3298 Y79.9062 Z-0.178100 I0.9497 J0.1675
G02 X655.6199 Y78.2613 Z-0.356192 I-0.3298 J-0.9062
G02 X654.192192 Y78.473313 Z-0.500000 I-0.6199 J0.7387
G02 X654.0503 Y78.8326 I0.807808 J0.526687
G02 X655.3298 Y79.9062 Z-0.678100 I0.9497 J0.1675
G02 X655.6199 Y78.2613 Z-0.856192 I-0.3298 J-0.9062
G02 X654.192192 Y78.473313 Z-1.000000 I-0.6199 J0.7387
G02 X654.0503 Y78.8326 I0.807808 J0.526687
G02 X655.3298 Y79.9062 Z-1.178100 I0.9497 J0.1675
G02 X655.6199 Y78.2613 Z-1.356192 I-0.3298 J-0.9062
G02 X654.192192 Y78.473313 Z-1.500000 I-0.6199 J0.7387
G02 X654.0503 Y78.8326 I0.807808 J0.526687
G02 X655.3298 Y79.9062 Z-1.678100 I0.9497 J0.1675
G02 X655.6199 Y78.2613 Z-1.856192 I-0.3298 J-0.9062
G02 X654.192192 Y78.473313 Z-2.000000 I-0.6199 J0.7387
G02 X654.0503 Y78.8326 I0.807808 J0.526687
G02 X655.3298 Y79.9062 Z-2.178100 I0.9497 J0.1675
G02 X655.6199 Y78.2613 Z-2.356192 I-0.3298 J-0.9062
G02 X654.192192 Y78.473313 Z-2.500000 I-0.6199 J0.7387
G02 X654.0503 Y78.8326 I0.807808 J0.526687
G02 X655.3298 Y79.9062 Z-2.678100 I0.9497 J0.1675
G02 X655.6199 Y78.2613 Z-2.856192 I-0.3298 J-0.9062
G02 X654.192192 Y78.473313 Z-3.000000 I-0.6199 J0.7387
G02 X654.0503 Y78.8326 I0.807808 J0.526687
G02 X655.3298 Y79.9062 Z-3.178100 I0.9497 J0.1675
G02 X655.6199 Y78.2613 Z-3.356192 I-0.3298 J-0.9062
G02 X654.192192 Y78.473313 Z-3.500000 I-0.6199 J0.7387
G02 X654.0503 Y78.8326 I0.807808 J0.526687
G02 X655.3298 Y79.9062 Z-3.678100 I0.9497 J0.1675
G02 X655.6199 Y78.2613 Z-3.856192 I-0.3298 J-0.9062
G02 X654.192192 Y78.473313 Z-4.000000 I-0.6199 J0.7387
G02 X654.0503 Y78.8326 I0.807808 J0.526687
G02 X655.3298 Y79.9062 Z-4.178100 I0.9497 J0.1675
G02 X655.6199 Y78.2613 Z-4.356192 I-0.3298 J-0.9062
G02 X654.192192 Y78.473313 Z-4.500000 I-0.6199 J0.7387
G02 X654.0503 Y78.8326 I0.807808 J0.526687
G02 X655.3298 Y79.9062 Z-4.678100 I0.9497 J0.1675
G02 X655.6199 Y78.2613 Z-4.856192 I-0.3298 J-0.9062
G02 X654.192192 Y78.473313 Z-5.000000 I-0.6199 J0.7387
G02 X654.0503 Y78.8326 I0.807808 J0.526687
G02 X655.3298 Y79.9062 Z-5.178100 I0.9497 J0.1675
G02 X655.6199 Y78.2613 Z-5.356192 I-0.3298 J-0.9062
G02 X654.192192 Y78.473313 Z-5.500000 I-0.6199 J0.7387
G02 X654.0503 Y78.8326 I0.807808 J0.526687
G02 X655.3298 Y79.9062 Z-5.678100 I0.9497 J0.1675
G02 X655.6199 Y78.2613 Z-5.856192 I-0.3298 J-0.9062
G02 X654.192192 Y78.473313 Z-6.000000 I-0.6199 J0.7387
G02 X654.0503 Y78.8326 I0.807808 J0.526687
G02 X655.3298 Y79.9062 Z-6.178100 I0.9497 J0.1675
G02 X655.6199 Y78.2613 Z-6.356192 I-0.3298 J-0.9062
G02 X654.192192 Y78.473313 Z-6.500000 I-0.6199 J0.7387
G02 X654.0503 Y78.8326 I0.807808 J0.526687
G02 X655.3298 Y79.9062 Z-6.678100 I0.9497 J0.1675
G02 X655.6199 Y78.2613 Z-6.856192 I-0.3298 J-0.9062
G02 X654.192192 Y78.473313 Z-7.000000 I-0.6199 J0.7387
G02 X654.0503 Y78.8326 I0.807808 J0.526687
G02 X655.3298 Y79.9062 Z-7.178100 I0.9497 J0.1675
G02 X655.6199 Y78.2613 Z-7.356192 I-0.3298 J-0.9062
G02 X654.192192 Y78.473313 Z-7.500000 I-0.6199 J0.7387
G02 X654.0503 Y78.8326 I0.807808 J0.526687
G02 X655.3298 Y79.9062 Z-7.678100 I0.9497 J0.1675
G02 X655.6199 Y78.2613 Z-7.856192 I-0.3298 J-0.9062
G02 X654.192192 Y78.473313 Z-8.000000 I-0.6199 J0.7387
G02 X654.0503 Y78.8326 I0.807808 J0.526687
G02 X655.3298 Y79.9062 Z-8.178100 I0.9497 J0.1675
G02 X655.6199 Y78.2613 Z-8.356192 I-0.3298 J-0.9062
G02 X654.192192 Y78.473313 Z-8.500000 I-0.6199 J0.7387
G02 X654.0503 Y78.8326 I0.807808 J0.526687
G02 X655.3298 Y79.9062 Z-8.678100 I0.9497 J0.1675
G02 X655.6199 Y78.2613 Z-8.856192 I-0.3298 J-0.9062
G02 X654.192192 Y78.473313 Z-9.000000 I-0.6199 J0.7387
G02 X654.0503 Y78.8326 I0.807808 J0.526687
G02 X655.3298 Y79.9062 Z-9.178100 I0.9497 J0.1675
G02 X655.6199 Y78.2613 Z-9.356192 I-0.3298 J-0.9062
G02 X654.192192 Y78.473313 Z-9.500000 I-0.6199 J0.7387
G02 X654.0503 Y78.8326 I0.807808 J0.526687
G02 X655.3298 Y79.9062 Z-9.678100 I0.9497 J0.1675
G02 X655.6199 Y78.2613 Z-9.856192 I-0.3298 J-0.9062
G02 X654.192192 Y78.473313 Z-10.000000 I-0.6199 J0.7387
G02 X654.0503 Y78.8326 I0.807808 J0.526687
G02 X655.3298 Y79.9062 I0.9497 J0.1675
G02 X655.6199 Y78.2613 I-0.3298 J-0.9062
G02 X654.192192 Y78.473313 I-0.6199 J0.7387
G03 X655.619900 Y78.261300 I0.807808 J0.526687
G03 X655.329800 Y79.906200 I-0.619900 J0.738700
G03 X654.050300 Y78.832600 I-0.329800 J-0.906100
G00 Z5.0000

(Nr. 9 Ausschnitt: Ausschnitt 8)
G00 X652.2373 Y452.9928 Z5.0000
G00 Z0.5000
G01 Z0.0000 F1000
G02 X653.248886 Y457.931885 Z-0.500000 I2.7627 J2.0073
G02 X654.6430 Y458.3962 I1.751114 J-2.931785
G02 X658.1197 Y453.6110 I0.3570 J-3.3962
G02 X652.2373 Y452.9928 I-3.1197 J1.3890
G02 X653.248886 Y457.931885 Z-1.000000 I2.7627 J2.0073
G02 X654.6430 Y458.3962 I1.751114 J-2.931785
G02 X658.1197 Y453.6110 I0.3570 J-3.3962
G02 X652.2373 Y452.9928 I-3.1197 J1.3890
G02 X653.248886 Y457.931885 Z-1.500000 I2.7627 J2.0073
G02 X654.6430 Y458.3962 I1.751114 J-2.931785
G02 X658.1197 Y453.6110 I0.3570 J-3.3962
G02 X652.2373 Y452.9928 I-3.1197 J1.3890
G02 X653.248886 Y457.931885 Z-2.000000 I2.7627 J2.0073
G02 X654.6430 Y458.3962 I1.751114 J-2.931785
G02 X658.1197 Y453.6110 I0.3570 J-3.3962
G02 X652.2373 Y452.9928 I-3.1197 J1.3890
G02 X653.248886 Y457.931885 Z-2.500000 I2.7627 J2.0073
G02 X654.6430 Y458.3962 I1.751114 J-2.931785
G02 X658.1197 Y453.6110 I0.3570 J-3.3962
G02 X652.2373 Y452.9928 I-3.1197 J1.3890
G02 X653.248886 Y457.931885 Z-3.000000 I2.7627 J2.0073
G02 X654.6430 Y458.3962 I1.751114 J-2.931785
G02 X658.1197 Y453.6110 I0.3570 J-3.3962
G02 X652.2373 Y452.9928 I-3.1197 J1.3890
G02 X653.248886 Y457.931885 Z-3.500000 I2.7627 J2.0073
G02 X654.6430 Y458.3962 I1.751114 J-2.931785
G02 X658.1197 Y453.6110 I0.3570 J-3.3962
G02 X652.2373 Y452.9928 I-3.1197 J1.3890
G02 X653.248886 Y457.931885 Z-4.000000 I2.7627 J2.0073
G02 X654.6430 Y458.3962 I1.751114 J-2.931785
G02 X658.1197 Y453.6110 I0.3570 J-3.3962
G02 X652.2373 Y452.9928 I-3.1197 J1.3890
G02 X653.248886 Y457.931885 Z-4.500000 I2.7627 J2.0073
G02 X654.6430 Y458.3962 I1.751114 J-2.931785
G02 X658.1197 Y453.6110 I0.3570 J-3.3962
G02 X652.2373 Y452.9928 I-3.1197 J1.3890
G02 X653.248886 Y457.931885 Z-5.000000 I2.7627 J2.0073
G02 X654.6430 Y458.3962 I1.751114 J-2.931785
G02 X658.1197 Y453.6110 I0.3570 J-3.3962
G02 X652.2373 Y452.9928 I-3.1197 J1.3890
G02 X653.248886 Y457.931885 Z-5.500000 I2.7627 J2.0073
G02 X654.6430 Y458.3962 I1.751114 J-2.931785
G02 X658.1197 Y453.6110 I0.3570 J-3.3962
G02 X652.2373 Y452.9928 I-3.1197 J1.3890
G02 X653.248886 Y457.931885 Z-6.000000 I2.7627 J2.0073
G02 X654.6430 Y458.3962 I1.751114 J-2.931785
G02 X658.1197 Y453.6110 I0.3570 J-3.3962
G02 X652.2373 Y452.9928 I-3.1197 J1.3890
G02 X653.248886 Y457.931885 I2.7627 J2.0073
G03 X652.237300 Y452.992800 I1.751114 J-2.931785
G00 Z5.0000

(Nr. 10 Ausschnitt: Ausschnitt 28)
G00 X654.2265 Y454.4242 Z5.0000
G00 Z0.5000
G01 Z0.0000 F1000
G02 X654.8880 Y455.9578 Z-0.178100 I0.7735 J0.5759
G02 X655.8855 Y454.6181 Z-0.356197 I0.1120 J-0.9578
G02 X654.514578 Y454.166794 Z-0.500000 I-0.8855 J0.3820
G02 X654.2265 Y454.4242 I0.485422 J0.833306
G02 X654.8880 Y455.9578 Z-0.678100 I0.7735 J0.5759
G02 X655.8855 Y454.6181 Z-0.856197 I0.1120 J-0.9578
G02 X654.514578 Y454.166794 Z-1.000000 I-0.8855 J0.3820
G02 X654.2265 Y454.4242 I0.485422 J0.833306
G02 X654.8880 Y455.9578 Z-1.178100 I0.7735 J0.5759
G02 X655.8855 Y454.6181 Z-1.356197 I0.1120 J-0.9578
G02 X654.514578 Y454.166794 Z-1.500000 I-0.8855 J0.3820
G02 X654.2265 Y454.4242 I0.485422 J0.833306
G02 X654.8880 Y455.9578 Z-1.678100 I0.7735 J0.5759
G02 X655.8855 Y454.6181 Z-1.856197 I0.1120 J-0.9578
G02 X654.514578 Y454.166794 Z-2.000000 I-0.8855 J0.3820
G02 X654.2265 Y454.4242 I0.485422 J0.833306
G02 X654.8880 Y455.9578 Z-2.178100 I0.7735 J0.5759
G02 X655.8855 Y454.6181 Z-2.356197 I0.1120 J-0.9578
G02 X654.514578 Y454.166794 Z-2.500000 I-0.8855 J0.3820
G02 X654.2265 Y454.4242 I0.485422 J0.833306
G02 X654.8880 Y455.9578 Z-2.678100 I0.7735 J0.5759
G02 X655.8855 Y454.6181 Z-2.856197 I0.1120 J-0.9578
G02 X654.514578 Y454.166794 Z-3.000000 I-0.8855 J0.3820
G02 X654.2265 Y454.4242 I0.485422 J0.833306
G02 X654.8880 Y455.9578 Z-3.178100 I0.7735 J0.5759
G02 X655.8855 Y454.6181 Z-3.356197 I0.1120 J-0.9578
G02 X654.514578 Y454.166794 Z-3.500000 I-0.8855 J0.3820
G02 X654.2265 Y454.4242 I0.485422 J0.833306
G02 X654.8880 Y455.9578 Z-3.678100 I0.7735 J0.5759
G02 X655.8855 Y454.6181 Z-3.856197 I0.1120 J-0.9578
G02 X654.514578 Y454.166794 Z-4.000000 I-0.8855 J0.3820
G02 X654.2265 Y454.4242 I0.485422 J0.833306
G02 X654.8880 Y455.9578 Z-4.178100 I0.7735 J0.5759
G02 X655.8855 Y454.6181 Z-4.356197 I0.1120 J-0.9578
G02 X654.514578 Y454.166794 Z-4.500000 I-0.8855 J0.3820
G02 X654.2265 Y454.4242 I0.485422 J0.833306
G02 X654.8880 Y455.9578 Z-4.678100 I0.7735 J0.5759
G02 X655.8855 Y454.6181 Z-4.856197 I0.1120 J-0.9578
G02 X654.514578 Y454.166794 Z-5.000000 I-0.8855 J0.3820
G02 X654.2265 Y454.4242 I0.485422 J0.833306
G02 X654.8880 Y455.9578 Z-5.178100 I0.7735 J0.5759
G02 X655.8855 Y454.6181 Z-5.356197 I0.1120 J-0.9578
G02 X654.514578 Y454.166794 Z-5.500000 I-0.8855 J0.3820
G02 X654.2265 Y454.4242 I0.485422 J0.833306
G02 X654.8880 Y455.9578 Z-5.678100 I0.7735 J0.5759
G02 X655.8855 Y454.6181 Z-5.856197 I0.1120 J-0.9578
G02 X654.514578 Y454.166794 Z-6.000000 I-0.8855 J0.3820
G02 X654.2265 Y454.4242 I0.485422 J0.833306
G02 X654.8880 Y455.9578 Z-6.178100 I0.7735 J0.5759
G02 X655.8855 Y454.6181 Z-6.356197 I0.1120 J-0.9578
G02 X654.514578 Y454.166794 Z-6.500000 I-0.8855 J0.3820
G02 X654.2265 Y454.4242 I0.485422 J0.833306
G02 X654.8880 Y455.9578 Z-6.678100 I0.7735 J0.5759
G02 X655.8855 Y454.6181 Z-6.856197 I0.1120 J-0.9578
G02 X654.514578 Y454.166794 Z-7.000000 I-0.8855 J0.3820
G02 X654.2265 Y454.4242 I0.485422 J0.833306
G02 X654.8880 Y455.9578 Z-7.178100 I0.7735 J0.5759
G02 X655.8855 Y454.6181 Z-7.356197 I0.1120 J-0.9578
G02 X654.514578 Y454.166794 Z-7.500000 I-0.8855 J0.3820
G02 X654.2265 Y454.4242 I0.485422 J0.833306
G02 X654.8880 Y455.9578 Z-7.678100 I0.7735 J0.5759
G02 X655.8855 Y454.6181 Z-7.856197 I0.1120 J-0.9578
G02 X654.514578 Y454.166794 Z-8.000000 I-0.8855 J0.3820
G02 X654.2265 Y454.4242 I0.485422 J0.833306
G02 X654.8880 Y455.9578 Z-8.178100 I0.7735 J0.5759
G02 X655.8855 Y454.6181 Z-8.356197 I0.1120 J-0.9578
G02 X654.514578 Y454.166794 Z-8.500000 I-0.8855 J0.3820
G02 X654.2265 Y454.4242 I0.485422 J0.833306
G02 X654.8880 Y455.9578 Z-8.678100 I0.7735 J0.5759
G02 X655.8855 Y454.6181 Z-8.856197 I0.1120 J-0.9578
G02 X654.514578 Y454.166794 Z-9.000000 I-0.8855 J0.3820
G02 X654.2265 Y454.4242 I0.485422 J0.833306
G02 X654.8880 Y455.9578 Z-9.178100 I0.7735 J0.5759
G02 X655.8855 Y454.6181 Z-9.356197 I0.1120 J-0.9578
G02 X654.514578 Y454.166794 Z-9.500000 I-0.8855 J0.3820
G02 X654.2265 Y454.4242 I0.485422 J0.833306
G02 X654.8880 Y455.9578 Z-9.678100 I0.7735 J0.5759
G02 X655.8855 Y454.6181 Z-9.856197 I0.1120 J-0.9578
G02 X654.514578 Y454.166794 Z-10.000000 I-0.8855 J0.3820
G02 X654.2265 Y454.4242 I0.485422 J0.833306
G02 X654.8880 Y455.9578 I0.7735 J0.5759
G02 X655.8855 Y454.6181 I0.1120 J-0.9578
G02 X654.514578 Y454.166794 I-0.8855 J0.3820
G03 X655.885500 Y454.618100 I0.485422 J0.833306
G03 X654.888000 Y455.957800 I-0.885500 J0.381900
G03 X654.226500 Y454.424200 I0.112000 J-0.957700
G00 Z5.0000

(Nr. 11 Ausschnitt: Ausschnitt 27)
G00 X459.3382 Y454.2986 Z5.0000
G00 Z0.5000
G01 Z0.0000 F1000
G02 X459.7234 Y455.9238 Z-0.178100 I0.6618 J0.7014
G02 X460.9383 Y454.7776 Z-0.356209 I0.2766 J-0.9238
G02 X459.666744 Y454.095119 Z-0.500000 I-0.9383 J0.2224
G02 X459.3382 Y454.2986 I0.333256 J0.904881
G02 X459.7234 Y455.9238 Z-0.678100 I0.6618 J0.7014
G02 X460.9383 Y454.7776 Z-0.856209 I0.2766 J-0.9238
G02 X459.666744 Y454.095119 Z-1.000000 I-0.9383 J0.2224
G02 X459.3382 Y454.2986 I0.333256 J0.904881
G02 X459.7234 Y455.9238 Z-1.178100 I0.6618 J0.7014
G02 X460.9383 Y454.7776 Z-1.356209 I0.2766 J-0.9238
G02 X459.666744 Y454.095119 Z-1.500000 I-0.9383 J0.2224
G02 X459.3382 Y454.2986 I0.333256 J0.904881
G02 X459.7234 Y455.9238 Z-1.678100 I0.6618 J0.7014
G02 X460.9383 Y454.7776 Z-1.856209 I0.2766 J-0.9238
G02 X459.666744 Y454.095119 Z-2.000000 I-0.9383 J0.2224
G02 X459.3382 Y454.2986 I0.333256 J0.904881
G02 X459.7234 Y455.9238 Z-2.178100 I0.6618 J0.7014
G02 X460.9383 Y454.7776 Z-2.356209 I0.2766 J-0.9238
G02 X459.666744 Y454.095119 Z-2.500000 I-0.9383 J0.2224
G02 X459.3382 Y454.2986 I0.333256 J0.904881
G02 X459.7234 Y455.9238 Z-2.678100 I0.6618 J0.7014
G02 X460.9383 Y454.7776 Z-2.856209 I0.2766 J-0.9238
G02 X459.666744 Y454.095119 Z-3.000000 I-0.9383 J0.2224
G02 X459.3382 Y454.2986 I0.333256 J0.904881
G02 X459.7234 Y455.9238 Z-3.178100 I0.6618 J0.7014
G02 X460.9383 Y454.7776 Z-3.356209 I0.2766 J-0.9238
G02 X459.666744 Y454.095119 Z-3.500000 I-0.9383 J0.2224
G02 X459.3382 Y454.2986 I0.333256 J0.904881
G02 X459.7234 Y455.9238 Z-3.678100 I0.6618 J0.7014
G02 X460.9383 Y454.7776 Z-3.856209 I0.2766 J-0.9238
G02 X459.666744 Y454.095119 Z-4.000000 I-0.9383 J0.2224
G02 X459.3382 Y454.2986 I0.333256 J0.904881
G02 X459.7234 Y455.9238 Z-4.178100 I0.6618 J0.7014
G02 X460.9383 Y454.7776 Z-4.356209 I0.2766 J-0.9238
G02 X459.666744 Y454.095119 Z-4.500000 I-0.9383 J0.2224
G02 X459.3382 Y454.2986 I0.333256 J0.904881
G02 X459.7234 Y455.9238 Z-4.678100 I0.6618 J0.7014
G02 X460.9383 Y454.7776 Z-4.856209 I0.2766 J-0.9238
G02 X459.666744 Y454.095119 Z-5.000000 I-0.9383 J0.2224
G02 X459.3382 Y454.2986 I0.333256 J0.904881
G02 X459.7234 Y455.9238 Z-5.178100 I0.6618 J0.7014
G02 X460.9383 Y454.7776 Z-5.356209 I0.2766 J-0.9238
G02 X459.666744 Y454.095119 Z-5.500000 I-0.9383 J0.2224
G02 X459.3382 Y454.2986 I0.333256 J0.904881
G02 X459.7234 Y455.9238 Z-5.678100 I0.6618 J0.7014
G02 X460.9383 Y454.7776 Z-5.856209 I0.2766 J-0.9238
G02 X459.666744 Y454.095119 Z-6.000000 I-0.9383 J0.2224
G02 X459.3382 Y454.2986 I0.333256 J0.904881
G02 X459.7234 Y455.9238 Z-6.178100 I0.6618 J0.7014
G02 X460.9383 Y454.7776 Z-6.356209 I0.2766 J-0.9238
G02 X459.666744 Y454.095119 Z-6.500000 I-0.9383 J0.2224
G02 X459.3382 Y454.2986 I0.333256 J0.904881
G02 X459.7234 Y455.9238 Z-6.678100 I0.6618 J0.7014
G02 X460.9383 Y454.7776 Z-6.856209 I0.2766 J-0.9238
G02 X459.666744 Y454.095119 Z-7.000000 I-0.9383 J0.2224
G02 X459.3382 Y454.2986 I0.333256 J0.904881
G02 X459.7234 Y455.9238 Z-7.178100 I0.6618 J0.7014
G02 X460.9383 Y454.7776 Z-7.356209 I0.2766 J-0.9238
G02 X459.666744 Y454.095119 Z-7.500000 I-0.9383 J0.2224
G02 X459.3382 Y454.2986 I0.333256 J0.904881
G02 X459.7234 Y455.9238 Z-7.678100 I0.6618 J0.7014
G02 X460.9383 Y454.7776 Z-7.856209 I0.2766 J-0.9238
G02 X459.666744 Y454.095119 Z-8.000000 I-0.9383 J0.2224
G02 X459.3382 Y454.2986 I0.333256 J0.904881
G02 X459.7234 Y455.9238 Z-8.178100 I0.6618 J0.7014
G02 X460.9383 Y454.7776 Z-8.356209 I0.2766 J-0.9238
G02 X459.666744 Y454.095119 Z-8.500000 I-0.9383 J0.2224
G02 X459.3382 Y454.2986 I0.333256 J0.904881
G02 X459.7234 Y455.9238 Z-8.678100 I0.6618 J0.7014
G02 X460.9383 Y454.7776 Z-8.856209 I0.2766 J-0.9238
G02 X459.666744 Y454.095119 Z-9.000000 I-0.9383 J0.2224
G02 X459.3382 Y454.2986 I0.333256 J0.904881
G02 X459.7234 Y455.9238 Z-9.178100 I0.6618 J0.7014
G02 X460.9383 Y454.7776 Z-9.356209 I0.2766 J-0.9238
G02 X459.666744 Y454.095119 Z-9.500000 I-0.9383 J0.2224
G02 X459.3382 Y454.2986 I0.333256 J0.904881
G02 X459.7234 Y455.9238 Z-9.678100 I0.6618 J0.7014
G02 X460.9383 Y454.7776 Z-9.856209 I0.2766 J-0.9238
G02 X459.666744 Y454.095119 Z-10.000000 I-0.9383 J0.2224
G02 X459.3382 Y454.2986 I0.333256 J0.904881
G02 X459.7234 Y455.9238 I0.6618 J0.7014
G02 X460.9383 Y454.7776 I0.2766 J-0.9238
G02 X459.666744 Y454.095119 I-0.9383 J0.2224
G03 X460.938300 Y454.777600 I0.333256 J0.904881
G03 X459.723400 Y455.923800 I-0.938300 J0.222400
G03 X459.338200 Y454.298600 I0.276600 J-0.923800
G00 Z5.0000

(Nr. 12 Ausschnitt: Ausschnitt 7)
G00 X457.6278 Y452.5435 Z5.0000
G00 Z0.5000
G01 Z0.0000 F1000
G02 X457.766430 Y457.583194 Z-0.500000 I2.3722 J2.4565
G02 X459.0587 Y458.2827 I2.233570 J-2.583194
G02 X463.3135 Y454.1739 I0.9413 J-3.2827
G02 X457.6278 Y452.5435 I-3.3135 J0.8261
G02 X457.766430 Y457.583194 Z-1.000000 I2.3722 J2.4565
G02 X459.0587 Y458.2827 I2.233570 J-2.583194
G02 X463.3135 Y454.1739 I0.9413 J-3.2827
G02 X457.6278 Y452.5435 I-3.3135 J0.8261
G02 X457.766430 Y457.583194 Z-1.500000 I2.3722 J2.4565
G02 X459.0587 Y458.2827 I2.233570 J-2.583194
G02 X463.3135 Y454.1739 I0.9413 J-3.2827
G02 X457.6278 Y452.5435 I-3.3135 J0.8261
G02 X457.766430 Y457.583194 Z-2.000000 I2.3722 J2.4565
G02 X459.0587 Y458.2827 I2.233570 J-2.583194
G02 X463.3135 Y454.1739 I0.9413 J-3.2827
G02 X457.6278 Y452.5435 I-3.3135 J0.8261
G02 X457.766430 Y457.583194 Z-2.500000 I2.3722 J2.4565
G02 X459.0587 Y458.2827 I2.233570 J-2.583194
G02 X463.3135 Y454.1739 I0.9413 J-3.2827
G02 X457.6278 Y452.5435 I-3.3135 J0.8261
G02 X457.766430 Y457.583194 Z-3.000000 I2.3722 J2.4565
G02 X459.0587 Y458.2827 I2.233570 J-2.583194
G02 X463.3135 Y454.1739 I0.9413 J-3.2827
G02 X457.6278 Y452.5435 I-3.3135 J0.8261
G02 X457.766430 Y457.583194 Z-3.500000 I2.3722 J2.4565
G02 X459.0587 Y458.2827 I2.233570 J-2.583194
G02 X463.3135 Y454.1739 I0.9413 J-3.2827
G02 X457.6278 Y452.5435 I-3.3135 J0.8261
G02 X457.766430 Y457.583194 Z-4.000000 I2.3722 J2.4565
G02 X459.0587 Y458.2827 I2.233570 J-2.583194
G02 X463.3135 Y454.1739 I0.9413 J-3.2827
G02 X457.6278 Y452.5435 I-3.3135 J0.8261
G02 X457.766430 Y457.583194 Z-4.500000 I2.3722 J2.4565
G02 X459.0587 Y458.2827 I2.233570 J-2.583194
G02 X463.3135 Y454.1739 I0.9413 J-3.2827
G02 X457.6278 Y452.5435 I-3.3135 J0.8261
G02 X457.766430 Y457.583194 Z-5.000000 I2.3722 J2.4565
G02 X459.0587 Y458.2827 I2.233570 J-2.583194
G02 X463.3135 Y454.1739 I0.9413 J-3.2827
G02 X457.6278 Y452.5435 I-3.3135 J0.8261
G02 X457.766430 Y457.583194 Z-5.500000 I2.3722 J2.4565
G02 X459.0587 Y458.2827 I2.233570 J-2.583194
G02 X463.3135 Y454.1739 I0.9413 J-3.2827
G02 X457.6278 Y452.5435 I-3.3135 J0.8261
G02 X457.766430 Y457.583194 Z-6.000000 I2.3722 J2.4565
G02 X459.0587 Y458.2827 I2.233570 J-2.583194
G02 X463.3135 Y454.1739 I0.9413 J-3.2827
G02 X457.6278 Y452.5435 I-3.3135 J0.8261
G02 X457.766430 Y457.583194 I2.3722 J2.4565
G03 X457.627800 Y452.543500 I2.233570 J-2.583194
G00 Z5.0000

(Nr. 13 Ausschnitt: Ausschnitt 26)
G00 X259.5672 Y454.1383 Z5.0000
G00 Z0.5000
G01 Z0.0000 F1000
G02 X259.4701 Y455.8057 Z-0.178100 I0.4328 J0.8618
G02 X260.9627 Y455.0561 Z-0.356192 I0.5299 J-0.8057
G02 X259.940085 Y454.037530 Z-0.500000 I-0.9627 J-0.0561
G02 X259.5672 Y454.1383 I0.059915 J0.962470
G02 X259.4701 Y455.8057 Z-0.678100 I0.4328 J0.8618
G02 X260.9627 Y455.0561 Z-0.856192 I0.5299 J-0.8057
G02 X259.940085 Y454.037530 Z-1.000000 I-0.9627 J-0.0561
G02 X259.5672 Y454.1383 I0.059915 J0.962470
G02 X259.4701 Y455.8057 Z-1.178100 I0.4328 J0.8618
G02 X260.9627 Y455.0561 Z-1.356192 I0.5299 J-0.8057
G02 X259.940085 Y454.037530 Z-1.500000 I-0.9627 J-0.0561
G02 X259.5672 Y454.1383 I0.059915 J0.962470
G02 X259.4701 Y455.8057 Z-1.678100 I0.4328 J0.8618
G02 X260.9627 Y455.0561 Z-1.856192 I0.5299 J-0.8057
G02 X259.940085 Y454.037530 Z-2.000000 I-0.9627 J-0.0561
G02 X259.5672 Y454.1383 I0.059915 J0.962470
G02 X259.4701 Y455.8057 Z-2.178100 I0.4328 J0.8618
G02 X260.9627 Y455.0561 Z-2.356192 I0.5299 J-0.8057
G02 X259.940085 Y454.037530 Z-2.500000 I-0.9627 J-0.0561
G02 X259.5672 Y454.1383 I0.059915 J0.962470
G02 X259.4701 Y455.8057 Z-2.678100 I0.4328 J0.8618
G02 X260.9627 Y455.0561 Z-2.856192 I0.5299 J-0.8057
G02 X259.940085 Y454.037530 Z-3.000000 I-0.9627 J-0.0561
G02 X259.5672 Y454.1383 I0.059915 J0.962470
G02 X259.4701 Y455.8057 Z-3.178100 I0.4328 J0.8618
G02 X260.9627 Y455.0561 Z-3.356192 I0.5299 J-0.8057
G02 X259.940085 Y454.037530 Z-3.500000 I-0.9627 J-0.0561
G02 X259.5672 Y454.1383 I0.059915 J0.962470
G02 X259.4701 Y455.8057 Z-3.678100 I0.4328 J0.8618
G02 X260.9627 Y455.0561 Z-3.856192 I0.5299 J-0.8057
G02 X259.940085 Y454.037530 Z-4.000000 I-0.9627 J-0.0561
G02 X259.5672 Y454.1383 I0.059915 J0.962470
G02 X259.4701 Y455.8057 Z-4.178100 I0.4328 J0.8618
G02 X260.9627 Y455.0561 Z-4.356192 I0.5299 J-0.8057
G02 X259.940085 Y454.037530 Z-4.500000 I-0.9627 J-0.0561
G02 X259.5672 Y454.1383 I0.059915 J0.962470
G02 X259.4701 Y455.8057 Z-4.678100 I0.4328 J0.8618
G02 X260.9627 Y455.0561 Z-4.856192 I0.5299 J-0.8057
G02 X259.940085 Y454.037530 Z-5.000000 I-0.9627 J-0.0561
G02 X259.5672 Y454.1383 I0.059915 J0.962470
G02 X259.4701 Y455.8057 Z-5.178100 I0.4328 J0.8618
G02 X260.9627 Y455.0561 Z-5.356192 I0.5299 J-0.8057
G02 X259.940085 Y454.037530 Z-5.500000 I-0.9627 J-0.0561
G02 X259.5672 Y454.1383 I0.059915 J0.962470
G02 X259.4701 Y455.8057 Z-5.678100 I0.4328 J0.8618
G02 X260.9627 Y455.0561 Z-5.856192 I0.5299 J-0.8057
G02 X259.940085 Y454.037530 Z-6.000000 I-0.9627 J-0.0561
G02 X259.5672 Y454.1383 I0.059915 J0.962470
G02 X259.4701 Y455.8057 Z-6.178100 I0.4328 J0.8618
G02 X260.9627 Y455.0561 Z-6.356192 I0.5299 J-0.8057
G02 X259.940085 Y454.037530 Z-6.500000 I-0.9627 J-0.0561
G02 X259.5672 Y454.1383 I0.059915 J0.962470
G02 X259.4701 Y455.8057 Z-6.678100 I0.4328 J0.8618
G02 X260.9627 Y455.0561 Z-6.856192 I0.5299 J-0.8057
G02 X259.940085 Y454.037530 Z-7.000000 I-0.9627 J-0.0561
G02 X259.5672 Y454.1383 I0.059915 J0.962470
G02 X259.4701 Y455.8057 Z-7.178100 I0.4328 J0.8618
G02 X260.9627 Y455.0561 Z-7.356192 I0.5299 J-0.8057
G02 X259.940085 Y454.037530 Z-7.500000 I-0.9627 J-0.0561
G02 X259.5672 Y454.1383 I0.059915 J0.962470
G02 X259.4701 Y455.8057 Z-7.678100 I0.4328 J0.8618
G02 X260.9627 Y455.0561 Z-7.856192 I0.5299 J-0.8057
G02 X259.940085 Y454.037530 Z-8.000000 I-0.9627 J-0.0561
G02 X259.5672 Y454.1383 I0.059915 J0.962470
G02 X259.4701 Y455.8057 Z-8.178100 I0.4328 J0.8618
G02 X260.9627 Y455.0561 Z-8.356192 I0.5299 J-0.8057
G02 X259.940085 Y454.037530 Z-8.500000 I-0.9627 J-0.0561
G02 X259.5672 Y454.1383 I0.059915 J0.962470
G02 X259.4701 Y455.8057 Z-8.678100 I0.4328 J0.8618
G02 X260.9627 Y455.0561 Z-8.856192 I0.5299 J-0.8057
G02 X259.940085 Y454.037530 Z-9.000000 I-0.9627 J-0.0561
G02 X259.5672 Y454.1383 I0.059915 J0.962470
G02 X259.4701 Y455.8057 Z-9.178100 I0.4328 J0.8618
G02 X260.9627 Y455.0561 Z-9.356192 I0.5299 J-0.8057
G02 X259.940085 Y454.037530 Z-9.500000 I-0.9627 J-0.0561
G02 X259.5672 Y454.1383 I0.059915 J0.962470
G02 X259.4701 Y455.8057 Z-9.678100 I0.4328 J0.8618
G02 X260.9627 Y455.0561 Z-9.856192 I0.5299 J-0.8057
G02 X259.940085 Y454.037530 Z-10.000000 I-0.9627 J-0.0561
G02 X259.5672 Y454.1383 I0.059915 J0.962470
G02 X259.4701 Y455.8057 I0.4328 J0.8618
G02 X260.9627 Y455.0561 I0.5299 J-0.8057
G02 X259.940085 Y454.037530 I-0.9627 J-0.0561
G03 X260.962700 Y455.056100 I0.059915 J0.962470
G03 X259.470100 Y455.805700 I-0.962700 J-0.056100
G03 X259.567200 Y454.138300 I0.529900 J-0.805600
G00 Z5.0000

(Nr. 14 Ausschnitt: Ausschnitt 6)
G00 X258.3444 Y452.0132 Z5.0000
G00 Z0.5000
G01 Z0.0000 F1000
G02 X257.173933 Y456.917115 Z-0.500000 I1.6556 J2.9868
G02 X258.2412 Y457.9272 I2.826067 J-1.917115
G02 X263.4144 Y455.0596 I1.7588 J-2.9272
G02 X258.3444 Y452.0132 I-3.4144 J-0.0596
G02 X257.173933 Y456.917115 Z-1.000000 I1.6556 J2.9868
G02 X258.2412 Y457.9272 I2.826067 J-1.917115
G02 X263.4144 Y455.0596 I1.7588 J-2.9272
G02 X258.3444 Y452.0132 I-3.4144 J-0.0596
G02 X257.173933 Y456.917115 Z-1.500000 I1.6556 J2.9868
G02 X258.2412 Y457.9272 I2.826067 J-1.917115
G02 X263.4144 Y455.0596 I1.7588 J-2.9272
G02 X258.3444 Y452.0132 I-3.4144 J-0.0596
G02 X257.173933 Y456.917115 Z-2.000000 I1.6556 J2.9868
G02 X258.2412 Y457.9272 I2.826067 J-1.917115
G02 X263.4144 Y455.0596 I1.7588 J-2.9272
G02 X258.3444 Y452.0132 I-3.4144 J-0.0596
G02 X257.173933 Y456.917115 Z-2.500000 I1.6556 J2.9868
G02 X258.2412 Y457.9272 I2.826067 J-1.917115
G02 X263.4144 Y455.0596 I1.7588 J-2.9272
G02 X258.3444 Y452.0132 I-3.4144 J-0.0596
G02 X257.173933 Y456.917115 Z-3.000000 I1.6556 J2.9868
G02 X258.2412 Y457.9272 I2.826067 J-1.917115
G02 X263.4144 Y455.0596 I1.7588 J-2.9272
G02 X258.3444 Y452.0132 I-3.4144 J-0.0596
G02 X257.173933 Y456.917115 Z-3.500000 I1.6556 J2.9868
G02 X258.2412 Y457.9272 I2.826067 J-1.917115
G02 X263.4144 Y455.0596 I1.7588 J-2.9272
G02 X258.3444 Y452.0132 I-3.4144 J-0.0596
G02 X257.173933 Y456.917115 Z-4.000000 I1.6556 J2.9868
G02 X258.2412 Y457.9272 I2.826067 J-1.917115
G02 X263.4144 Y455.0596 I1.7588 J-2.9272
G02 X258.3444 Y452.0132 I-3.4144 J-0.0596
G02 X257.173933 Y456.917115 Z-4.500000 I1.6556 J2.9868
G02 X258.2412 Y457.9272 I2.826067 J-1.917115
G02 X263.4144 Y455.0596 I1.7588 J-2.9272
G02 X258.3444 Y452.0132 I-3.4144 J-0.0596
G02 X257.173933 Y456.917115 Z-5.000000 I1.6556 J2.9868
G02 X258.2412 Y457.9272 I2.826067 J-1.917115
G02 X263.4144 Y455.0596 I1.7588 J-2.9272
G02 X258.3444 Y452.0132 I-3.4144 J-0.0596
G02 X257.173933 Y456.917115 Z-5.500000 I1.6556 J2.9868
G02 X258.2412 Y457.9272 I2.826067 J-1.917115
G02 X263.4144 Y455.0596 I1.7588 J-2.9272
G02 X258.3444 Y452.0132 I-3.4144 J-0.0596
G02 X257.173933 Y456.917115 Z-6.000000 I1.6556 J2.9868
G02 X258.2412 Y457.9272 I2.826067 J-1.917115
G02 X263.4144 Y455.0596 I1.7588 J-2.9272
G02 X258.3444 Y452.0132 I-3.4144 J-0.0596
G02 X257.173933 Y456.917115 I1.6556 J2.9868
G03 X258.344400 Y452.013200 I2.826067 J-1.917115
G00 Z5.0000

(Nr. 15 Ausschnitt: Ausschnitt 25)
G00 X48.9439 Y454.0373 Z5.0000
G00 Z0.5000
G01 Z0.0000 F1000
G02 X48.1943 Y455.5299 Z-0.178100 I0.0561 J0.9627
G02 X49.8618 Y455.4328 Z-0.356207 I0.8057 J-0.5299
G02 X49.326469 Y454.092568 Z-0.500000 I-0.8618 J-0.4328
G02 X48.9439 Y454.0373 I-0.326469 J0.907432
G02 X48.1943 Y455.5299 Z-0.678100 I0.0561 J0.9627
G02 X49.8618 Y455.4328 Z-0.856207 I0.8057 J-0.5299
G02 X49.326469 Y454.092568 Z-1.000000 I-0.8618 J-0.4328
G02 X48.9439 Y454.0373 I-0.326469 J0.907432
G02 X48.1943 Y455.5299 Z-1.178100 I0.0561 J0.9627
G02 X49.8618 Y455.4328 Z-1.356207 I0.8057 J-0.5299
G02 X49.326469 Y454.092568 Z-1.500000 I-0.8618 J-0.4328
G02 X48.9439 Y454.0373 I-0.326469 J0.907432
G02 X48.1943 Y455.5299 Z-1.678100 I0.0561 J0.9627
G02 X49.8618 Y455.4328 Z-1.856207 I0.8057 J-0.5299
G02 X49.326469 Y454.092568 Z-2.000000 I-0.8618 J-0.4328
G02 X48.9439 Y454.0373 I-0.326469 J0.907432
G02 X48.1943 Y455.5299 Z-2.178100 I0.0561 J0.9627
G02 X49.8618 Y455.4328 Z-2.356207 I0.8057 J-0.5299
G02 X49.326469 Y454.092568 Z-2.500000 I-0.8618 J-0.4328
G02 X48.9439 Y454.0373 I-0.326469 J0.907432
G02 X48.1943 Y455.5299 Z-2.678100 I0.0561 J0.9627
G02 X49.8618 Y455.4328 Z-2.856207 I0.8057 J-0.5299
G02 X49.326469 Y454.092568 Z-3.000000 I-0.8618 J-0.4328
G02 X48.9439 Y454.0373 I-0.326469 J0.907432
G02 X48.1943 Y455.5299 Z-3.178100 I0.0561 J0.9627
G02 X49.8618 Y455.4328 Z-3.356207 I0.8057 J-0.5299
G02 X49.326469 Y454.092568 Z-3.500000 I-0.8618 J-0.4328
G02 X48.9439 Y454.0373 I-0.326469 J0.907432
G02 X48.1943 Y455.5299 Z-3.678100 I0.0561 J0.9627
G02 X49.8618 Y455.4328 Z-3.856207 I0.8057 J-0.5299
G02 X49.326469 Y454.092568 Z-4.000000 I-0.8618 J-0.4328
G02 X48.9439 Y454.0373 I-0.326469 J0.907432
G02 X48.1943 Y455.5299 Z-4.178100 I0.0561 J0.9627
G02 X49.8618 Y455.4328 Z-4.356207 I0.8057 J-0.5299
G02 X49.326469 Y454.092568 Z-4.500000 I-0.8618 J-0.4328
G02 X48.9439 Y454.0373 I-0.326469 J0.907432
G02 X48.1943 Y455.5299 Z-4.678100 I0.0561 J0.9627
G02 X49.8618 Y455.4328 Z-4.856207 I0.8057 J-0.5299
G02 X49.326469 Y454.092568 Z-5.000000 I-0.8618 J-0.4328
G02 X48.9439 Y454.0373 I-0.326469 J0.907432
G02 X48.1943 Y455.5299 Z-5.178100 I0.0561 J0.9627
G02 X49.8618 Y455.4328 Z-5.356207 I0.8057 J-0.5299
G02 X49.326469 Y454.092568 Z-5.500000 I-0.8618 J-0.4328
G02 X48.9439 Y454.0373 I-0.326469 J0.907432
G02 X48.1943 Y455.5299 Z-5.678100 I0.0561 J0.9627
G02 X49.8618 Y455.4328 Z-5.856207 I0.8057 J-0.5299
G02 X49.326469 Y454.092568 Z-6.000000 I-0.8618 J-0.4328
G02 X48.9439 Y454.0373 I-0.326469 J0.907432
G02 X48.1943 Y455.5299 Z-6.178100 I0.0561 J0.9627
G02 X49.8618 Y455.4328 Z-6.356207 I0.8057 J-0.5299
G02 X49.326469 Y454.092568 Z-6.500000 I-0.8618 J-0.4328
G02 X48.9439 Y454.0373 I-0.326469 J0.907432
G02 X48.1943 Y455.5299 Z-6.678100 I0.0561 J0.9627
G02 X49.8618 Y455.4328 Z-6.856207 I0.8057 J-0.5299
G02 X49.326469 Y454.092568 Z-7.000000 I-0.8618 J-0.4328
G02 X48.9439 Y454.0373 I-0.326469 J0.907432
G02 X48.1943 Y455.5299 Z-7.178100 I0.0561 J0.9627
G02 X49.8618 Y455.4328 Z-7.356207 I0.8057 J-0.5299
G02 X49.326469 Y454.092568 Z-7.500000 I-0.8618 J-0.4328
G02 X48.9439 Y454.0373 I-0.326469 J0.907432
G02 X48.1943 Y455.5299 Z-7.678100 I0.0561 J0.9627
G02 X49.8618 Y455.4328 Z-7.856207 I0.8057 J-0.5299
G02 X49.326469 Y454.092568 Z-8.000000 I-0.8618 J-0.4328
G02 X48.9439 Y454.0373 I-0.326469 J0.907432
G02 X48.1943 Y455.5299 Z-8.178100 I0.0561 J0.9627
G02 X49.8618 Y455.4328 Z-8.356207 I0.8057 J-0.5299
G02 X49.326469 Y454.092568 Z-8.500000 I-0.8618 J-0.4328
G02 X48.9439 Y454.0373 I-0.326469 J0.907432
G02 X48.1943 Y455.5299 Z-8.678100 I0.0561 J0.9627
G02 X49.8618 Y455.4328 Z-8.856207 I0.8057 J-0.5299
G02 X49.326469 Y454.092568 Z-9.000000 I-0.8618 J-0.4328
G02 X48.9439 Y454.0373 I-0.326469 J0.907432
G02 X48.1943 Y455.5299 Z-9.178100 I0.0561 J0.9627
G02 X49.8618 Y455.4328 Z-9.356207 I0.8057 J-0.5299
G02 X49.326469 Y454.092568 Z-9.500000 I-0.8618 J-0.4328
G02 X48.9439 Y454.0373 I-0.326469 J0.907432
G02 X48.1943 Y455.5299 Z-9.678100 I0.0561 J0.9627
G02 X49.8618 Y455.4328 Z-9.856207 I0.8057 J-0.5299
G02 X49.326469 Y454.092568 Z-10.000000 I-0.8618 J-0.4328
G02 X48.9439 Y454.0373 I-0.326469 J0.907432
G02 X48.1943 Y455.5299 I0.0561 J0.9627
G02 X49.8618 Y455.4328 I0.8057 J-0.5299
G02 X49.326469 Y454.092568 I-0.8618 J-0.4328
G03 X49.861800 Y455.432800 I-0.326469 J0.907432
G03 X48.194300 Y455.529900 I-0.861800 J-0.432800
G03 X48.943900 Y454.037300 I0.805700 J-0.529900
G00 Z5.0000

(Nr. 16 Ausschnitt: Ausschnitt 5)
G00 X48.7024 Y451.5981 Z5.0000
G00 Z0.5000
G01 Z0.0000 F1000
G02 X45.638572 Y455.601907 Z-0.500000 I0.2976 J3.4019
G02 X46.2026 Y456.9587 I3.361428 J-0.601907
G02 X52.0950 Y456.4432 I2.7974 J-1.9587
G02 X48.7024 Y451.5981 I-3.0950 J-1.4432
G02 X45.638572 Y455.601907 Z-1.000000 I0.2976 J3.4019
G02 X46.2026 Y456.9587 I3.361428 J-0.601907
G02 X52.0950 Y456.4432 I2.7974 J-1.9587
G02 X48.7024 Y451.5981 I-3.0950 J-1.4432
G02 X45.638572 Y455.601907 Z-1.500000 I0.2976 J3.4019
G02 X46.2026 Y456.9587 I3.361428 J-0.601907
G02 X52.0950 Y456.4432 I2.7974 J-1.9587
G02 X48.7024 Y451.5981 I-3.0950 J-1.4432
G02 X45.638572 Y455.601907 Z-2.000000 I0.2976 J3.4019
G02 X46.2026 Y456.9587 I3.361428 J-0.601907
G02 X52.0950 Y456.4432 I2.7974 J-1.9587
G02 X48.7024 Y451.5981 I-3.0950 J-1.4432
G02 X45.638572 Y455.601907 Z-2.500000 I0.2976 J3.4019
G02 X46.2026 Y456.9587 I3.361428 J-0.601907
G02 X52.0950 Y456.4432 I2.7974 J-1.9587
G02 X48.7024 Y451.5981 I-3.0950 J-1.4432
G02 X45.638572 Y455.601907 Z-3.000000 I0.2976 J3.4019
G02 X46.2026 Y456.9587 I3.361428 J-0.601907
G02 X52.0950 Y456.4432 I2.7974 J-1.9587
G02 X48.7024 Y451.5981 I-3.0950 J-1.4432
G02 X45.638572 Y455.601907 Z-3.500000 I0.2976 J3.4019
G02 X46.2026 Y456.9587 I3.361428 J-0.601907
G02 X52.0950 Y456.4432 I2.7974 J-1.9587
G02 X48.7024 Y451.5981 I-3.0950 J-1.4432
G02 X45.638572 Y455.601907 Z-4.000000 I0.2976 J3.4019
G02 X46.2026 Y456.9587 I3.361428 J-0.601907
G02 X52.0950 Y456.4432 I2.7974 J-1.9587
G02 X48.7024 Y451.5981 I-3.0950 J-1.4432
G02 X45.638572 Y455.601907 Z-4.500000 I0.2976 J3.4019
G02 X46.2026 Y456.9587 I3.361428 J-0.601907
G02 X52.0950 Y456.4432 I2.7974 J-1.9587
G02 X48.7024 Y451.5981 I-3.0950 J-1.4432
G02 X45.638572 Y455.601907 Z-5.000000 I0.2976 J3.4019
G02 X46.2026 Y456.9587 I3.361428 J-0.601907
G02 X52.0950 Y456.4432 I2.7974 J-1.9587
G02 X48.7024 Y451.5981 I-3.0950 J-1.4432
G02 X45.638572 Y455.601907 Z-5.500000 I0.2976 J3.4019
G02 X46.2026 Y456.9587 I3.361428 J-0.601907
G02 X52.0950 Y456.4432 I2.7974 J-1.9587
G02 X48.7024 Y451.5981 I-3.0950 J-1.4432
G02 X45.638572 Y455.601907 Z-6.000000 I0.2976 J3.4019
G02 X46.2026 Y456.9587 I3.361428 J-0.601907
G02 X52.0950 Y456.4432 I2.7974 J-1.9587
G02 X48.7024 Y451.5981 I-3.0950 J-1.4432
G02 X45.638572 Y455.601907 I0.2976 J3.4019
G03 X48.702400 Y451.598100 I3.361428 J-0.601907
G00 Z5.0000

(Nr. 17 Ausschnitt: Ausschnitt 12)
G00 X48.8808 Y829.5872 Z5.0000
G00 Z0.5000
G01 Z0.0000 F1000
G02 X45.611568 Y833.425097 Z-0.500000 I0.1192 J3.4129
G02 X46.1040 Y834.8097 I3.388432 J-0.424997
G02 X52.0152 Y834.6032 I2.8960 J-1.8096
G02 X48.8808 Y829.5872 I-3.0152 J-1.6032
G02 X45.611568 Y833.425097 Z-1.000000 I0.1192 J3.4129
G02 X46.1040 Y834.8097 I3.388432 J-0.424997
G02 X52.0152 Y834.6032 I2.8960 J-1.8096
G02 X48.8808 Y829.5872 I-3.0152 J-1.6032
G02 X45.611568 Y833.425097 Z-1.500000 I0.1192 J3.4129
G02 X46.1040 Y834.8097 I3.388432 J-0.424997
G02 X52.0152 Y834.6032 I2.8960 J-1.8096
G02 X48.8808 Y829.5872 I-3.0152 J-1.6032
G02 X45.611568 Y833.425097 Z-2.000000 I0.1192 J3.4129
G02 X46.1040 Y834.8097 I3.388432 J-0.424997
G02 X52.0152 Y834.6032 I2.8960 J-1.8096
G02 X48.8808 Y829.5872 I-3.0152 J-1.6032
G02 X45.611568 Y833.425097 Z-2.500000 I0.1192 J3.4129
G02 X46.1040 Y834.8097 I3.388432 J-0.424997
G02 X52.0152 Y834.6032 I2.8960 J-1.8096
G02 X48.8808 Y829.5872 I-3.0152 J-1.6032
G02 X45.611568 Y833.425097 Z-3.000000 I0.1192 J3.4129
G02 X46.1040 Y834.8097 I3.388432 J-0.424997
G02 X52.0152 Y834.6032 I2.8960 J-1.8096
G02 X48.8808 Y829.5872 I-3.0152 J-1.6032
G02 X45.611568 Y833.425097 Z-3.500000 I0.1192 J3.4129
G02 X46.1040 Y834.8097 I3.388432 J-0.424997
G02 X52.0152 Y834.6032 I2.8960 J-1.8096
G02 X48.8808 Y829.5872 I-3.0152 J-1.6032
G02 X45.611568 Y833.425097 Z-4.000000 I0.1192 J3.4129
G02 X46.1040 Y834.8097 I3.388432 J-0.424997
G02 X52.0152 Y834.6032 I2.8960 J-1.8096
G02 X48.8808 Y829.5872 I-3.0152 J-1.6032
G02 X45.611568 Y833.425097 Z-4.500000 I0.1192 J3.4129
G02 X46.1040 Y834.8097 I3.388432 J-0.424997
G02 X52.0152 Y834.6032 I2.8960 J-1.8096
G02 X48.8808 Y829.5872 I-3.0152 J-1.6032
G02 X45.611568 Y833.425097 Z-5.000000 I0.1192 J3.4129
G02 X46.1040 Y834.8097 I3.388432 J-0.424997
G02 X52.0152 Y834.6032 I2.8960 J-1.8096
G02 X48.8808 Y829.5872 I-3.0152 J-1.6032
G02 X45.611568 Y833.425097 Z-5.500000 I0.1192 J3.4129
G02 X46.1040 Y834.8097 I3.388432 J-0.424997
G02 X52.0152 Y834.6032 I2.8960 J-1.8096
G02 X48.8808 Y829.5872 I-3.0152 J-1.6032
G02 X45.611568 Y833.425097 Z-6.000000 I0.1192 J3.4129
G02 X46.1040 Y834.8097 I3.388432 J-0.424997
G02 X52.0152 Y834.6032 I2.8960 J-1.8096
G02 X48.8808 Y829.5872 I-3.0152 J-1.6032
G02 X45.611568 Y833.425097 I0.1192 J3.4129
G03 X48.880800 Y829.587200 I3.388432 J-0.424997
G00 Z5.0000

(Nr. 18 Ausschnitt: Ausschnitt 24)
G00 X49.0000 Y832.0357 Z5.0000
G00 Z0.5000
G01 Z0.0000 F1000
G02 X48.1649 Y833.4822 Z-0.178100 I0.0000 J0.9643
G02 X49.8351 Z-0.356191 I0.8351 J-0.4822
G02 X49.378441 Y832.113044 Z-0.500000 I-0.8351 J-0.4822
G02 X49.0000 Y832.0357 I-0.378441 J0.886956
G02 X48.1649 Y833.4822 Z-0.678100 I0.0000 J0.9643
G02 X49.8351 Z-0.856191 I0.8351 J-0.4822
G02 X49.378441 Y832.113044 Z-1.000000 I-0.8351 J-0.4822
G02 X49.0000 Y832.0357 I-0.378441 J0.886956
G02 X48.1649 Y833.4822 Z-1.178100 I0.0000 J0.9643
G02 X49.8351 Z-1.356191 I0.8351 J-0.4822
G02 X49.378441 Y832.113044 Z-1.500000 I-0.8351 J-0.4822
G02 X49.0000 Y832.0357 I-0.378441 J0.886956
G02 X48.1649 Y833.4822 Z-1.678100 I0.0000 J0.9643
G02 X49.8351 Z-1.856191 I0.8351 J-0.4822
G02 X49.378441 Y832.113044 Z-2.000000 I-0.8351 J-0.4822
G02 X49.0000 Y832.0357 I-0.378441 J0.886956
G02 X48.1649 Y833.4822 Z-2.178100 I0.0000 J0.9643
G02 X49.8351 Z-2.356191 I0.8351 J-0.4822
G02 X49.378441 Y832.113044 Z-2.500000 I-0.8351 J-0.4822
G02 X49.0000 Y832.0357 I-0.378441 J0.886956
G02 X48.1649 Y833.4822 Z-2.678100 I0.0000 J0.9643
G02 X49.8351 Z-2.856191 I0.8351 J-0.4822
G02 X49.378441 Y832.113044 Z-3.000000 I-0.8351 J-0.4822
G02 X49.0000 Y832.0357 I-0.378441 J0.886956
G02 X48.1649 Y833.4822 Z-3.178100 I0.0000 J0.9643
G02 X49.8351 Z-3.356191 I0.8351 J-0.4822
G02 X49.378441 Y832.113044 Z-3.500000 I-0.8351 J-0.4822
G02 X49.0000 Y832.0357 I-0.378441 J0.886956
G02 X48.1649 Y833.4822 Z-3.678100 I0.0000 J0.9643
G02 X49.8351 Z-3.856191 I0.8351 J-0.4822
G02 X49.378441 Y832.113044 Z-4.000000 I-0.8351 J-0.4822
G02 X49.0000 Y832.0357 I-0.378441 J0.886956
G02 X48.1649 Y833.4822 Z-4.178100 I0.0000 J0.9643
G02 X49.8351 Z-4.356191 I0.8351 J-0.4822
G02 X49.378441 Y832.113044 Z-4.500000 I-0.8351 J-0.4822
G02 X49.0000 Y832.0357 I-0.378441 J0.886956
G02 X48.1649 Y833.4822 Z-4.678100 I0.0000 J0.9643
G02 X49.8351 Z-4.856191 I0.8351 J-0.4822
G02 X49.378441 Y832.113044 Z-5.000000 I-0.8351 J-0.4822
G02 X49.0000 Y832.0357 I-0.378441 J0.886956
G02 X48.1649 Y833.4822 Z-5.178100 I0.0000 J0.9643
G02 X49.8351 Z-5.356191 I0.8351 J-0.4822
G02 X49.378441 Y832.113044 Z-5.500000 I-0.8351 J-0.4822
G02 X49.0000 Y832.0357 I-0.378441 J0.886956
G02 X48.1649 Y833.4822 Z-5.678100 I0.0000 J0.9643
G02 X49.8351 Z-5.856191 I0.8351 J-0.4822
G02 X49.378441 Y832.113044 Z-6.000000 I-0.8351 J-0.4822
G02 X49.0000 Y832.0357 I-0.378441 J0.886956
G02 X48.1649 Y833.4822 Z-6.178100 I0.0000 J0.9643
G02 X49.8351 Z-6.356191 I0.8351 J-0.4822
G02 X49.378441 Y832.113044 Z-6.500000 I-0.8351 J-0.4822
G02 X49.0000 Y832.0357 I-0.378441 J0.886956
G02 X48.1649 Y833.4822 Z-6.678100 I0.0000 J0.9643
G02 X49.8351 Z-6.856191 I0.8351 J-0.4822
G02 X49.378441 Y832.113044 Z-7.000000 I-0.8351 J-0.4822
G02 X49.0000 Y832.0357 I-0.378441 J0.886956
G02 X48.1649 Y833.4822 Z-7.178100 I0.0000 J0.9643
G02 X49.8351 Z-7.356191 I0.8351 J-0.4822
G02 X49.378441 Y832.113044 Z-7.500000 I-0.8351 J-0.4822
G02 X49.0000 Y832.0357 I-0.378441 J0.886956
G02 X48.1649 Y833.4822 Z-7.678100 I0.0000 J0.9643
G02 X49.8351 Z-7.856191 I0.8351 J-0.4822
G02 X49.378441 Y832.113044 Z-8.000000 I-0.8351 J-0.4822
G02 X49.0000 Y832.0357 I-0.378441 J0.886956
G02 X48.1649 Y833.4822 Z-8.178100 I0.0000 J0.9643
G02 X49.8351 Z-8.356191 I0.8351 J-0.4822
G02 X49.378441 Y832.113044 Z-8.500000 I-0.8351 J-0.4822
G02 X49.0000 Y832.0357 I-0.378441 J0.886956
G02 X48.1649 Y833.4822 Z-8.678100 I0.0000 J0.9643
G02 X49.8351 Z-8.856191 I0.8351 J-0.4822
G02 X49.378441 Y832.113044 Z-9.000000 I-0.8351 J-0.4822
G02 X49.0000 Y832.0357 I-0.378441 J0.886956
G02 X48.1649 Y833.4822 Z-9.178100 I0.0000 J0.9643
G02 X49.8351 Z-9.356191 I0.8351 J-0.4822
G02 X49.378441 Y832.113044 Z-9.500000 I-0.8351 J-0.4822
G02 X49.0000 Y832.0357 I-0.378441 J0.886956
G02 X48.1649 Y833.4822 Z-9.678100 I0.0000 J0.9643
G02 X49.8351 Z-9.856191 I0.8351 J-0.4822
G02 X49.378441 Y832.113044 Z-10.000000 I-0.8351 J-0.4822
G02 X49.0000 Y832.0357 I-0.378441 J0.886956
G02 X48.1649 Y833.4822 I0.0000 J0.9643
G02 X49.8351 I0.8351 J-0.4822
G02 X49.378441 Y832.113044 I-0.8351 J-0.4822
G03 X49.835100 Y833.482200 I-0.378441 J0.886956
G03 X48.164900 I-0.835100 J-0.482200
G03 X49.000000 Y832.035700 I0.835100 J-0.482200
G00 Z5.0000

(Nr. 19 Ausschnitt: Ausschnitt 11)
G00 X259.0587 Y829.7174 Z5.0000
G00 Z0.5000
G01 Z0.0000 F1000
G02 X256.815024 Y834.232210 Z-0.500000 I0.9413 J3.2827
G02 X257.6278 Y835.4565 I3.184976 J-1.232110
G02 X263.3135 Y833.8262 I2.3722 J-2.4565
G02 X259.0587 Y829.7174 I-3.3135 J-0.8261
G02 X256.815024 Y834.232210 Z-1.000000 I0.9413 J3.2827
G02 X257.6278 Y835.4565 I3.184976 J-1.232110
G02 X263.3135 Y833.8262 I2.3722 J-2.4565
G02 X259.0587 Y829.7174 I-3.3135 J-0.8261
G02 X256.815024 Y834.232210 Z-1.500000 I0.9413 J3.2827
G02 X257.6278 Y835.4565 I3.184976 J-1.232110
G02 X263.3135 Y833.8262 I2.3722 J-2.4565
G02 X259.0587 Y829.7174 I-3.3135 J-0.8261
G02 X256.815024 Y834.232210 Z-2.000000 I0.9413 J3.2827
G02 X257.6278 Y835.4565 I3.184976 J-1.232110
G02 X263.3135 Y833.8262 I2.3722 J-2.4565
G02 X259.0587 Y829.7174 I-3.3135 J-0.8261
G02 X256.815024 Y834.232210 Z-2.500000 I0.9413 J3.2827
G02 X257.6278 Y835.4565 I3.184976 J-1.232110
G02 X263.3135 Y833.8262 I2.3722 J-2.4565
G02 X259.0587 Y829.7174 I-3.3135 J-0.8261
G02 X256.815024 Y834.232210 Z-3.000000 I0.9413 J3.2827
G02 X257.6278 Y835.4565 I3.184976 J-1.232110
G02 X263.3135 Y833.8262 I2.3722 J-2.4565
G02 X259.0587 Y829.7174 I-3.3135 J-0.8261
G02 X256.815024 Y834.232210 Z-3.500000 I0.9413 J3.2827
G02 X257.6278 Y835.4565 I3.184976 J-1.232110
G02 X263.3135 Y833.8262 I2.3722 J-2.4565
G02 X259.0587 Y829.7174 I-3.3135 J-0.8261
G02 X256.815024 Y834.232210 Z-4.000000 I0.9413 J3.2827
G02 X257.6278 Y835.4565 I3.184976 J-1.232110
G02 X263.3135 Y833.8262 I2.3722 J-2.4565
G02 X259.0587 Y829.7174 I-3.3135 J-0.8261
G02 X256.815024 Y834.232210 Z-4.500000 I0.9413 J3.2827
G02 X257.6278 Y835.4565 I3.184976 J-1.232110
G02 X263.3135 Y833.8262 I2.3722 J-2.4565
G02 X259.0587 Y829.7174 I-3.3135 J-0.8261
G02 X256.815024 Y834.232210 Z-5.000000 I0.9413 J3.2827
G02 X257.6278 Y835.4565 I3.184976 J-1.232110
G02 X263.3135 Y833.8262 I2.3722 J-2.4565
G02 X259.0587 Y829.7174 I-3.3135 J-0.8261
G02 X256.815024 Y834.232210 Z-5.500000 I0.9413 J3.2827
G02 X257.6278 Y835.4565 I3.184976 J-1.232110
G02 X263.3135 Y833.8262 I2.3722 J-2.4565
G02 X259.0587 Y829.7174 I-3.3135 J-0.8261
G02 X256.815024 Y834.232210 Z-6.000000 I0.9413 J3.2827
G02 X257.6278 Y835.4565 I3.184976 J-1.232110
G02 X263.3135 Y833.8262 I2.3722 J-2.4565
G02 X259.0587 Y829.7174 I-3.3135 J-0.8261
G02 X256.815024 Y834.232210 I0.9413 J3.2827
G03 X259.058700 Y829.717400 I3.184976 J-1.232110
G00 Z5.0000

(Nr. 20 Ausschnitt: Ausschnitt 23)
G00 X259.7776 Y832.0617 Z5.0000
G00 Z0.5000
G01 Z0.0000 F1000
G02 X259.2986 Y833.6618 Z-0.178100 I0.2224 J0.9383
G02 X260.9238 Y833.2766 Z-0.356198 I0.7014 J-0.6618
G02 X260.163782 Y832.049690 Z-0.500000 I-0.9238 J-0.2766
G02 X259.7776 Y832.0617 I-0.163782 J0.950310
G02 X259.2986 Y833.6618 Z-0.678100 I0.2224 J0.9383
G02 X260.9238 Y833.2766 Z-0.856198 I0.7014 J-0.6618
G02 X260.163782 Y832.049690 Z-1.000000 I-0.9238 J-0.2766
G02 X259.7776 Y832.0617 I-0.163782 J0.950310
G02 X259.2986 Y833.6618 Z-1.178100 I0.2224 J0.9383
G02 X260.9238 Y833.2766 Z-1.356198 I0.7014 J-0.6618
G02 X260.163782 Y832.049690 Z-1.500000 I-0.9238 J-0.2766
G02 X259.7776 Y832.0617 I-0.163782 J0.950310
G02 X259.2986 Y833.6618 Z-1.678100 I0.2224 J0.9383
G02 X260.9238 Y833.2766 Z-1.856198 I0.7014 J-0.6618
G02 X260.163782 Y832.049690 Z-2.000000 I-0.9238 J-0.2766
G02 X259.7776 Y832.0617 I-0.163782 J0.950310
G02 X259.2986 Y833.6618 Z-2.178100 I0.2224 J0.9383
G02 X260.9238 Y833.2766 Z-2.356198 I0.7014 J-0.6618
G02 X260.163782 Y832.049690 Z-2.500000 I-0.9238 J-0.2766
G02 X259.7776 Y832.0617 I-0.163782 J0.950310
G02 X259.2986 Y833.6618 Z-2.678100 I0.2224 J0.9383
G02 X260.9238 Y833.2766 Z-2.856198 I0.7014 J-0.6618
G02 X260.163782 Y832.049690 Z-3.000000 I-0.9238 J-0.2766
G02 X259.7776 Y832.0617 I-0.163782 J0.950310
G02 X259.2986 Y833.6618 Z-3.178100 I0.2224 J0.9383
G02 X260.9238 Y833.2766 Z-3.356198 I0.7014 J-0.6618
G02 X260.163782 Y832.049690 Z-3.500000 I-0.9238 J-0.2766
G02 X259.7776 Y832.0617 I-0.163782 J0.950310
G02 X259.2986 Y833.6618 Z-3.678100 I0.2224 J0.9383
G02 X260.9238 Y833.2766 Z-3.856198 I0.7014 J-0.6618
G02 X260.163782 Y832.049690 Z-4.000000 I-0.9238 J-0.2766
G02 X259.7776 Y832.0617 I-0.163782 J0.950310
G02 X259.2986 Y833.6618 Z-4.178100 I0.2224 J0.9383
G02 X260.9238 Y833.2766 Z-4.356198 I0.7014 J-0.6618
G02 X260.163782 Y832.049690 Z-4.500000 I-0.9238 J-0.2766
G02 X259.7776 Y832.0617 I-0.163782 J0.950310
G02 X259.2986 Y833.6618 Z-4.678100 I0.2224 J0.9383
G02 X260.9238 Y833.2766 Z-4.856198 I0.7014 J-0.6618
G02 X260.163782 Y832.049690 Z-5.000000 I-0.9238 J-0.2766
G02 X259.7776 Y832.0617 I-0.163782 J0.950310
G02 X259.2986 Y833.6618 Z-5.178100 I0.2224 J0.9383
G02 X260.9238 Y833.2766 Z-5.356198 I0.7014 J-0.6618
G02 X260.163782 Y832.049690 Z-5.500000 I-0.9238 J-0.2766
G02 X259.7776 Y832.0617 I-0.163782 J0.950310
G02 X259.2986 Y833.6618 Z-5.678100 I0.2224 J0.9383
G02 X260.9238 Y833.2766 Z-5.856198 I0.7014 J-0.6618
G02 X260.163782 Y832.049690 Z-6.000000 I-0.9238 J-0.2766
G02 X259.7776 Y832.0617 I-0.163782 J0.950310
G02 X259.2986 Y833.6618 Z-6.178100 I0.2224 J0.9383
G02 X260.9238 Y833.2766 Z-6.356198 I0.7014 J-0.6618
G02 X260.163782 Y832.049690 Z-6.500000 I-0.9238 J-0.2766
G02 X259.7776 Y832.0617 I-0.163782 J0.950310
G02 X259.2986 Y833.6618 Z-6.678100 I0.2224 J0.9383
G02 X260.9238 Y833.2766 Z-6.856198 I0.7014 J-0.6618
G02 X260.163782 Y832.049690 Z-7.000000 I-0.9238 J-0.2766
G02 X259.7776 Y832.0617 I-0.163782 J0.950310
G02 X259.2986 Y833.6618 Z-7.178100 I0.2224 J0.9383
G02 X260.9238 Y833.2766 Z-7.356198 I0.7014 J-0.6618
G02 X260.163782 Y832.049690 Z-7.500000 I-0.9238 J-0.2766
G02 X259.7776 Y832.0617 I-0.163782 J0.950310
G02 X259.2986 Y833.6618 Z-7.678100 I0.2224 J0.9383
G02 X260.9238 Y833.2766 Z-7.856198 I0.7014 J-0.6618
G02 X260.163782 Y832.049690 Z-8.000000 I-0.9238 J-0.2766
G02 X259.7776 Y832.0617 I-0.163782 J0.950310
G02 X259.2986 Y833.6618 Z-8.178100 I0.2224 J0.9383
G02 X260.9238 Y833.2766 Z-8.356198 I0.7014 J-0.6618
G02 X260.163782 Y832.049690 Z-8.500000 I-0.9238 J-0.2766
G02 X259.7776 Y832.0617 I-0.163782 J0.950310
G02 X259.2986 Y833.6618 Z-8.678100 I0.2224 J0.9383
G02 X260.9238 Y833.2766 Z-8.856198 I0.7014 J-0.6618
G02 X260.163782 Y832.049690 Z-9.000000 I-0.9238 J-0.2766
G02 X259.7776 Y832.0617 I-0.163782 J0.950310
G02 X259.2986 Y833.6618 Z-9.178100 I0.2224 J0.9383
G02 X260.9238 Y833.2766 Z-9.356198 I0.7014 J-0.6618
G02 X260.163782 Y832.049690 Z-9.500000 I-0.9238 J-0.2766
G02 X259.7776 Y832.0617 I-0.163782 J0.950310
G02 X259.2986 Y833.6618 Z-9.678100 I0.2224 J0.9383
G02 X260.9238 Y833.2766 Z-9.856198 I0.7014 J-0.6618
G02 X260.163782 Y832.049690 Z-10.000000 I-0.9238 J-0.2766
G02 X259.7776 Y832.0617 I-0.163782 J0.950310
G02 X259.2986 Y833.6618 I0.2224 J0.9383
G02 X260.9238 Y833.2766 I0.7014 J-0.6618
G02 X260.163782 Y832.049690 I-0.9238 J-0.2766
G03 X260.923800 Y833.276600 I-0.163782 J0.950310
G03 X259.298600 Y833.661800 I-0.923800 J-0.276600
G03 X259.777600 Y832.061700 I0.701400 J-0.661800
G00 Z5.0000

(Nr. 21 Ausschnitt: Ausschnitt 10)
G00 X458.3968 Y829.9848 Z5.0000
G00 Z0.5000
G01 Z0.0000 F1000
G02 X457.141006 Y834.867574 Z-0.500000 I1.6032 J3.0152
G02 X458.1904 Y835.8960 I2.858994 J-1.867574
G02 X463.4129 Y833.1192 I1.8096 J-2.8960
G02 X458.3968 Y829.9848 I-3.4129 J-0.1192
G02 X457.141006 Y834.867574 Z-1.000000 I1.6032 J3.0152
G02 X458.1904 Y835.8960 I2.858994 J-1.867574
G02 X463.4129 Y833.1192 I1.8096 J-2.8960
G02 X458.3968 Y829.9848 I-3.4129 J-0.1192
G02 X457.141006 Y834.867574 Z-1.500000 I1.6032 J3.0152
G02 X458.1904 Y835.8960 I2.858994 J-1.867574
G02 X463.4129 Y833.1192 I1.8096 J-2.8960
G02 X458.3968 Y829.9848 I-3.4129 J-0.1192
G02 X457.141006 Y834.867574 Z-2.000000 I1.6032 J3.0152
G02 X458.1904 Y835.8960 I2.858994 J-1.867574
G02 X463.4129 Y833.1192 I1.8096 J-2.8960
G02 X458.3968 Y829.9848 I-3.4129 J-0.1192
G02 X457.141006 Y834.867574 Z-2.500000 I1.6032 J3.0152
G02 X458.1904 Y835.8960 I2.858994 J-1.867574
G02 X463.4129 Y833.1192 I1.8096 J-2.8960
G02 X458.3968 Y829.9848 I-3.4129 J-0.1192
G02 X457.141006 Y834.867574 Z-3.000000 I1.6032 J3.0152
G02 X458.1904 Y835.8960 I2.858994 J-1.867574
G02 X463.4129 Y833.1192 I1.8096 J-2.8960
G02 X458.3968 Y829.9848 I-3.4129 J-0.1192
G02 X457.141006 Y834.867574 Z-3.500000 I1.6032 J3.0152
G02 X458.1904 Y835.8960 I2.858994 J-1.867574
G02 X463.4129 Y833.1192 I1.8096 J-2.8960
G02 X458.3968 Y829.9848 I-3.4129 J-0.1192
G02 X457.141006 Y834.867574 Z-4.000000 I1.6032 J3.0152
G02 X458.1904 Y835.8960 I2.858994 J-1.867574
G02 X463.4129 Y833.1192 I1.8096 J-2.8960
G02 X458.3968 Y829.9848 I-3.4129 J-0.1192
G02 X457.141006 Y834.867574 Z-4.500000 I1.6032 J3.0152
G02 X458.1904 Y835.8960 I2.858994 J-1.867574
G02 X463.4129 Y833.1192 I1.8096 J-2.8960
G02 X458.3968 Y829.9848 I-3.4129 J-0.1192
G02 X457.141006 Y834.867574 Z-5.000000 I1.6032 J3.0152
G02 X458.1904 Y835.8960 I2.858994 J-1.867574
G02 X463.4129 Y833.1192 I1.8096 J-2.8960
G02 X458.3968 Y829.9848 I-3.4129 J-0.1192
G02 X457.141006 Y834.867574 Z-5.500000 I1.6032 J3.0152
G02 X458.1904 Y835.8960 I2.858994 J-1.867574
G02 X463.4129 Y833.1192 I1.8096 J-2.8960
G02 X458.3968 Y829.9848 I-3.4129 J-0.1192
G02 X457.141006 Y834.867574 Z-6.000000 I1.6032 J3.0152
G02 X458.1904 Y835.8960 I2.858994 J-1.867574
G02 X463.4129 Y833.1192 I1.8096 J-2.8960
G02 X458.3968 Y829.9848 I-3.4129 J-0.1192
G02 X457.141006 Y834.867574 I1.6032 J3.0152
G03 X458.396800 Y829.984800 I2.858994 J-1.867574
G00 Z5.0000

(Nr. 22 Ausschnitt: Ausschnitt 22)
G00 X459.5672 Y832.1382 Z5.0000
G00 Z0.5000
G01 Z0.0000 F1000
G02 X459.4701 Y833.8057 Z-0.178100 I0.4328 J0.8618
G02 X460.9627 Y833.0561 Z-0.356187 I0.5299 J-0.8057
G02 X459.939986 Y832.037536 Z-0.500000 I-0.9627 J-0.0561
G02 X459.5672 Y832.1382 I0.060014 J0.962464
G02 X459.4701 Y833.8057 Z-0.678100 I0.4328 J0.8618
G02 X460.9627 Y833.0561 Z-0.856187 I0.5299 J-0.8057
G02 X459.939986 Y832.037536 Z-1.000000 I-0.9627 J-0.0561
G02 X459.5672 Y832.1382 I0.060014 J0.962464
G02 X459.4701 Y833.8057 Z-1.178100 I0.4328 J0.8618
G02 X460.9627 Y833.0561 Z-1.356187 I0.5299 J-0.8057
G02 X459.939986 Y832.037536 Z-1.500000 I-0.9627 J-0.0561
G02 X459.5672 Y832.1382 I0.060014 J0.962464
G02 X459.4701 Y833.8057 Z-1.678100 I0.4328 J0.8618
G02 X460.9627 Y833.0561 Z-1.856187 I0.5299 J-0.8057
G02 X459.939986 Y832.037536 Z-2.000000 I-0.9627 J-0.0561
G02 X459.5672 Y832.1382 I0.060014 J0.962464
G02 X459.4701 Y833.8057 Z-2.178100 I0.4328 J0.8618
G02 X460.9627 Y833.0561 Z-2.356187 I0.5299 J-0.8057
G02 X459.939986 Y832.037536 Z-2.500000 I-0.9627 J-0.0561
G02 X459.5672 Y832.1382 I0.060014 J0.962464
G02 X459.4701 Y833.8057 Z-2.678100 I0.4328 J0.8618
G02 X460.9627 Y833.0561 Z-2.856187 I0.5299 J-0.8057
G02 X459.939986 Y832.037536 Z-3.000000 I-0.9627 J-0.0561
G02 X459.5672 Y832.1382 I0.060014 J0.962464
G02 X459.4701 Y833.8057 Z-3.178100 I0.4328 J0.8618
G02 X460.9627 Y833.0561 Z-3.356187 I0.5299 J-0.8057
G02 X459.939986 Y832.037536 Z-3.500000 I-0.9627 J-0.0561
G02 X459.5672 Y832.1382 I0.060014 J0.962464
G02 X459.4701 Y833.8057 Z-3.678100 I0.4328 J0.8618
G02 X460.9627 Y833.0561 Z-3.856187 I0.5299 J-0.8057
G02 X459.939986 Y832.037536 Z-4.000000 I-0.9627 J-0.0561
G02 X459.5672 Y832.1382 I0.060014 J0.962464
G02 X459.4701 Y833.8057 Z-4.178100 I0.4328 J0.8618
G02 X460.9627 Y833.0561 Z-4.356187 I0.5299 J-0.8057
G02 X459.939986 Y832.037536 Z-4.500000 I-0.9627 J-0.0561
G02 X459.5672 Y832.1382 I0.060014 J0.962464
G02 X459.4701 Y833.8057 Z-4.678100 I0.4328 J0.8618
G02 X460.9627 Y833.0561 Z-4.856187 I0.5299 J-0.8057
G02 X459.939986 Y832.037536 Z-5.000000 I-0.9627 J-0.0561
G02 X459.5672 Y832.1382 I0.060014 J0.962464
G02 X459.4701 Y833.8057 Z-5.178100 I0.4328 J0.8618
G02 X460.9627 Y833.0561 Z-5.356187 I0.5299 J-0.8057
G02 X459.939986 Y832.037536 Z-5.500000 I-0.9627 J-0.0561
G02 X459.5672 Y832.1382 I0.060014 J0.962464
G02 X459.4701 Y833.8057 Z-5.678100 I0.4328 J0.8618
G02 X460.9627 Y833.0561 Z-5.856187 I0.5299 J-0.8057
G02 X459.939986 Y832.037536 Z-6.000000 I-0.9627 J-0.0561
G02 X459.5672 Y832.1382 I0.060014 J0.962464
G02 X459.4701 Y833.8057 Z-6.178100 I0.4328 J0.8618
G02 X460.9627 Y833.0561 Z-6.356187 I0.5299 J-0.8057
G02 X459.939986 Y832.037536 Z-6.500000 I-0.9627 J-0.0561
G02 X459.5672 Y832.1382 I0.060014 J0.962464
G02 X459.4701 Y833.8057 Z-6.678100 I0.4328 J0.8618
G02 X460.9627 Y833.0561 Z-6.856187 I0.5299 J-0.8057
G02 X459.939986 Y832.037536 Z-7.000000 I-0.9627 J-0.0561
G02 X459.5672 Y832.1382 I0.060014 J0.962464
G02 X459.4701 Y833.8057 Z-7.178100 I0.4328 J0.8618
G02 X460.9627 Y833.0561 Z-7.356187 I0.5299 J-0.8057
G02 X459.939986 Y832.037536 Z-7.500000 I-0.9627 J-0.0561
G02 X459.5672 Y832.1382 I0.060014 J0.962464
G02 X459.4701 Y833.8057 Z-7.678100 I0.4328 J0.8618
G02 X460.9627 Y833.0561 Z-7.856187 I0.5299 J-0.8057
G02 X459.939986 Y832.037536 Z-8.000000 I-0.9627 J-0.0561
G02 X459.5672 Y832.1382 I0.060014 J0.962464
G02 X459.4701 Y833.8057 Z-8.178100 I0.4328 J0.8618
G02 X460.9627 Y833.0561 Z-8.356187 I0.5299 J-0.8057
G02 X459.939986 Y832.037536 Z-8.500000 I-0.9627 J-0.0561
G02 X459.5672 Y832.1382 I0.060014 J0.962464
G02 X459.4701 Y833.8057 Z-8.678100 I0.4328 J0.8618
G02 X460.9627 Y833.0561 Z-8.856187 I0.5299 J-0.8057
G02 X459.939986 Y832.037536 Z-9.000000 I-0.9627 J-0.0561
G02 X459.5672 Y832.1382 I0.060014 J0.962464
G02 X459.4701 Y833.8057 Z-9.178100 I0.4328 J0.8618
G02 X460.9627 Y833.0561 Z-9.356187 I0.5299 J-0.8057
G02 X459.939986 Y832.037536 Z-9.500000 I-0.9627 J-0.0561
G02 X459.5672 Y832.1382 I0.060014 J0.962464
G02 X459.4701 Y833.8057 Z-9.678100 I0.4328 J0.8618
G02 X460.9627 Y833.0561 Z-9.856187 I0.5299 J-0.8057
G02 X459.939986 Y832.037536 Z-10.000000 I-0.9627 J-0.0561
G02 X459.5672 Y832.1382 I0.060014 J0.962464
G02 X459.4701 Y833.8057 I0.4328 J0.8618
G02 X460.9627 Y833.0561 I0.5299 J-0.8057
G02 X459.939986 Y832.037536 I-0.9627 J-0.0561
G03 X460.962700 Y833.056100 I0.060014 J0.962464
G03 X459.470100 Y833.805700 I-0.962700 J-0.056100
G03 X459.567200 Y832.138200 I0.529900 J-0.805700
G00 Z5.0000

(Nr. 23 Ausschnitt: Ausschnitt 9)
G00 X652.9448 Y830.2727 Z5.0000
G00 Z0.5000
G01 Z0.0000 F1000
G02 X652.468242 Y835.291770 Z-0.500000 I2.0552 J2.7273
G02 X653.6657 Y836.1435 I2.531758 J-2.291770
G02 X658.3895 Y832.5838 I1.3343 J-3.1435
G02 X652.9448 Y830.2727 I-3.3895 J0.4162
G02 X652.468242 Y835.291770 Z-1.000000 I2.0552 J2.7273
G02 X653.6657 Y836.1435 I2.531758 J-2.291770
G02 X658.3895 Y832.5838 I1.3343 J-3.1435
G02 X652.9448 Y830.2727 I-3.3895 J0.4162
G02 X652.468242 Y835.291770 Z-1.500000 I2.0552 J2.7273
G02 X653.6657 Y836.1435 I2.531758 J-2.291770
G02 X658.3895 Y832.5838 I1.3343 J-3.1435
G02 X652.9448 Y830.2727 I-3.3895 J0.4162
G02 X652.468242 Y835.291770 Z-2.000000 I2.0552 J2.7273
G02 X653.6657 Y836.1435 I2.531758 J-2.291770
G02 X658.3895 Y832.5838 I1.3343 J-3.1435
G02 X652.9448 Y830.2727 I-3.3895 J0.4162
G02 X652.468242 Y835.291770 Z-2.500000 I2.0552 J2.7273
G02 X653.6657 Y836.1435 I2.531758 J-2.291770
G02 X658.3895 Y832.5838 I1.3343 J-3.1435
G02 X652.9448 Y830.2727 I-3.3895 J0.4162
G02 X652.468242 Y835.291770 Z-3.000000 I2.0552 J2.7273
G02 X653.6657 Y836.1435 I2.531758 J-2.291770
G02 X658.3895 Y832.5838 I1.3343 J-3.1435
G02 X652.9448 Y830.2727 I-3.3895 J0.4162
G02 X652.468242 Y835.291770 Z-3.500000 I2.0552 J2.7273
G02 X653.6657 Y836.1435 I2.531758 J-2.291770
G02 X658.3895 Y832.5838 I1.3343 J-3.1435
G02 X652.9448 Y830.2727 I-3.3895 J0.4162
G02 X652.468242 Y835.291770 Z-4.000000 I2.0552 J2.7273
G02 X653.6657 Y836.1435 I2.531758 J-2.291770
G02 X658.3895 Y832.5838 I1.3343 J-3.1435
G02 X652.9448 Y830.2727 I-3.3895 J0.4162
G02 X652.468242 Y835.291770 Z-4.500000 I2.0552 J2.7273
G02 X653.6657 Y836.1435 I2.531758 J-2.291770
G02 X658.3895 Y832.5838 I1.3343 J-3.1435
G02 X652.9448 Y830.2727 I-3.3895 J0.4162
G02 X652.468242 Y835.291770 Z-5.000000 I2.0552 J2.7273
G02 X653.6657 Y836.1435 I2.531758 J-2.291770
G02 X658.3895 Y832.5838 I1.3343 J-3.1435
G02 X652.9448 Y830.2727 I-3.3895 J0.4162
G02 X652.468242 Y835.291770 Z-5.500000 I2.0552 J2.7273
G02 X653.6657 Y836.1435 I2.531758 J-2.291770
G02 X658.3895 Y832.5838 I1.3343 J-3.1435
G02 X652.9448 Y830.2727 I-3.3895 J0.4162
G02 X652.468242 Y835.291770 Z-6.000000 I2.0552 J2.7273
G02 X653.6657 Y836.1435 I2.531758 J-2.291770
G02 X658.3895 Y832.5838 I1.3343 J-3.1435
G02 X652.9448 Y830.2727 I-3.3895 J0.4162
G02 X652.468242 Y835.291770 I2.0552 J2.7273
G03 X652.944800 Y830.272700 I2.531758 J-2.291770
G00 Z5.0000

(Nr. 24 Ausschnitt: Ausschnitt 21)
G00 X654.4701 Y832.1943 Z5.0000
G00 Z0.5000
G01 Z0.0000 F1000
G02 X654.5672 Y833.8618 Z-0.178100 I0.5299 J0.8057
G02 X655.9627 Y832.9439 Z-0.356206 I0.4328 J-0.8618
G02 X654.828866 Y832.050973 Z-0.500000 I-0.9627 J0.0561
G02 X654.4701 Y832.1943 I0.171134 J0.949027
G02 X654.5672 Y833.8618 Z-0.678100 I0.5299 J0.8057
G02 X655.9627 Y832.9439 Z-0.856206 I0.4328 J-0.8618
G02 X654.828866 Y832.050973 Z-1.000000 I-0.9627 J0.0561
G02 X654.4701 Y832.1943 I0.171134 J0.949027
G02 X654.5672 Y833.8618 Z-1.178100 I0.5299 J0.8057
G02 X655.9627 Y832.9439 Z-1.356206 I0.4328 J-0.8618
G02 X654.828866 Y832.050973 Z-1.500000 I-0.9627 J0.0561
G02 X654.4701 Y832.1943 I0.171134 J0.949027
G02 X654.5672 Y833.8618 Z-1.678100 I0.5299 J0.8057
G02 X655.9627 Y832.9439 Z-1.856206 I0.4328 J-0.8618
G02 X654.828866 Y832.050973 Z-2.000000 I-0.9627 J0.0561
G02 X654.4701 Y832.1943 I0.171134 J0.949027
G02 X654.5672 Y833.8618 Z-2.178100 I0.5299 J0.8057
G02 X655.9627 Y832.9439 Z-2.356206 I0.4328 J-0.8618
G02 X654.828866 Y832.050973 Z-2.500000 I-0.9627 J0.0561
G02 X654.4701 Y832.1943 I0.171134 J0.949027
G02 X654.5672 Y833.8618 Z-2.678100 I0.5299 J0.8057
G02 X655.9627 Y832.9439 Z-2.856206 I0.4328 J-0.8618
G02 X654.828866 Y832.050973 Z-3.000000 I-0.9627 J0.0561
G02 X654.4701 Y832.1943 I0.171134 J0.949027
G02 X654.5672 Y833.8618 Z-3.178100 I0.5299 J0.8057
G02 X655.9627 Y832.9439 Z-3.356206 I0.4328 J-0.8618
G02 X654.828866 Y832.050973 Z-3.500000 I-0.9627 J0.0561
G02 X654.4701 Y832.1943 I0.171134 J0.949027
G02 X654.5672 Y833.8618 Z-3.678100 I0.5299 J0.8057
G02 X655.9627 Y832.9439 Z-3.856206 I0.4328 J-0.8618
G02 X654.828866 Y832.050973 Z-4.000000 I-0.9627 J0.0561
G02 X654.4701 Y832.1943 I0.171134 J0.949027
G02 X654.5672 Y833.8618 Z-4.178100 I0.5299 J0.8057
G02 X655.9627 Y832.9439 Z-4.356206 I0.4328 J-0.8618
G02 X654.828866 Y832.050973 Z-4.500000 I-0.9627 J0.0561
G02 X654.4701 Y832.1943 I0.171134 J0.949027
G02 X654.5672 Y833.8618 Z-4.678100 I0.5299 J0.8057
G02 X655.9627 Y832.9439 Z-4.856206 I0.4328 J-0.8618
G02 X654.828866 Y832.050973 Z-5.000000 I-0.9627 J0.0561
G02 X654.4701 Y832.1943 I0.171134 J0.949027
G02 X654.5672 Y833.8618 Z-5.178100 I0.5299 J0.8057
G02 X655.9627 Y832.9439 Z-5.356206 I0.4328 J-0.8618
G02 X654.828866 Y832.050973 Z-5.500000 I-0.9627 J0.0561
G02 X654.4701 Y832.1943 I0.171134 J0.949027
G02 X654.5672 Y833.8618 Z-5.678100 I0.5299 J0.8057
G02 X655.9627 Y832.9439 Z-5.856206 I0.4328 J-0.8618
G02 X654.828866 Y832.050973 Z-6.000000 I-0.9627 J0.0561
G02 X654.4701 Y832.1943 I0.171134 J0.949027
G02 X654.5672 Y833.8618 Z-6.178100 I0.5299 J0.8057
G02 X655.9627 Y832.9439 Z-6.356206 I0.4328 J-0.8618
G02 X654.828866 Y832.050973 Z-6.500000 I-0.9627 J0.0561
G02 X654.4701 Y832.1943 I0.171134 J0.949027
G02 X654.5672 Y833.8618 Z-6.678100 I0.5299 J0.8057
G02 X655.9627 Y832.9439 Z-6.856206 I0.4328 J-0.8618
G02 X654.828866 Y832.050973 Z-7.000000 I-0.9627 J0.0561
G02 X654.4701 Y832.1943 I0.171134 J0.949027
G02 X654.5672 Y833.8618 Z-7.178100 I0.5299 J0.8057
G02 X655.9627 Y832.9439 Z-7.356206 I0.4328 J-0.8618
G02 X654.828866 Y832.050973 Z-7.500000 I-0.9627 J0.0561
G02 X654.4701 Y832.1943 I0.171134 J0.949027
G02 X654.5672 Y833.8618 Z-7.678100 I0.5299 J0.8057
G02 X655.9627 Y832.9439 Z-7.856206 I0.4328 J-0.8618
G02 X654.828866 Y832.050973 Z-8.000000 I-0.9627 J0.0561
G02 X654.4701 Y832.1943 I0.171134 J0.949027
G02 X654.5672 Y833.8618 Z-8.178100 I0.5299 J0.8057
G02 X655.9627 Y832.9439 Z-8.356206 I0.4328 J-0.8618
G02 X654.828866 Y832.050973 Z-8.500000 I-0.9627 J0.0561
G02 X654.4701 Y832.1943 I0.171134 J0.949027
G02 X654.5672 Y833.8618 Z-8.678100 I0.5299 J0.8057
G02 X655.9627 Y832.9439 Z-8.856206 I0.4328 J-0.8618
G02 X654.828866 Y832.050973 Z-9.000000 I-0.9627 J0.0561
G02 X654.4701 Y832.1943 I0.171134 J0.949027
G02 X654.5672 Y833.8618 Z-9.178100 I0.5299 J0.8057
G02 X655.9627 Y832.9439 Z-9.356206 I0.4328 J-0.8618
G02 X654.828866 Y832.050973 Z-9.500000 I-0.9627 J0.0561
G02 X654.4701 Y832.1943 I0.171134 J0.949027
G02 X654.5672 Y833.8618 Z-9.678100 I0.5299 J0.8057
G02 X655.9627 Y832.9439 Z-9.856206 I0.4328 J-0.8618
G02 X654.828866 Y832.050973 Z-10.000000 I-0.9627 J0.0561
G02 X654.4701 Y832.1943 I0.171134 J0.949027
G02 X654.5672 Y833.8618 I0.5299 J0.8057
G02 X655.9627 Y832.9439 I0.4328 J-0.8618
G02 X654.828866 Y832.050973 I-0.9627 J0.0561
G03 X655.962700 Y832.943900 I0.171134 J0.949027
G03 X654.567200 Y833.861800 I-0.962700 J0.056100
G03 X654.470100 Y832.194300 I0.432800 J-0.861800
G00 Z5.0000
G00 X0.0000 Y0.0000

M05


