(Projekt Zeichnung)
(Erstellt mit Estlcam Version 11 Build 11,245)
(Laufzeit ca. 00:02:59 Stunden)

(Benötigte Werkzeuge:)
(Alu 1 Schneider)

M03 S27000
G00 Z5.0000


(Nr. 1 Ausschnitt: Ausschnitt 2)
G00 X47.1925 Y4.0913
G00 Z0.5000
G01 Z0.0000 F1000 S27000
G02 X41.7079 Y5.4790 Z-0.5000 I2.9544 J23.2091
G03 X47.1925 Y4.0913 Z-1.0000 I8.4389 J21.8214
G02 X26.8560 Y25.0804 I2.9544 J23.2091 F1200
G02 X26.8829 Y29.8268 I22.6271 J2.2449
G02 X47.1925 Y50.5357 I23.2656 J-2.5035
G02 X51.9376 Y50.6604 I2.9758 J-22.9023
G02 X73.4827 Y29.3450 I-1.7740 J-23.3395
G02 X73.4159 Y24.5987 I-22.9931 J-2.0500
G02 X51.9376 Y3.9667 I-23.2552 J2.7134
G02 X47.1925 Y4.0913 I-1.7798 J22.6245
G02 X41.7079 Y5.4790 Z-1.5000 I2.9544 J23.2091 F1000
G03 X47.1925 Y4.0913 Z-2.0000 I8.4389 J21.8214
G02 X26.8560 Y25.0804 I2.9544 J23.2091 F1200
G02 X26.8829 Y29.8268 I22.6271 J2.2449
G02 X47.1925 Y50.5357 I23.2656 J-2.5035
G02 X51.9376 Y50.6604 I2.9758 J-22.9023
G02 X73.4827 Y29.3450 I-1.7740 J-23.3395
G02 X73.4159 Y24.5987 I-22.9931 J-2.0500
G02 X51.9376 Y3.9667 I-23.2552 J2.7134
G02 X47.1925 Y4.0913 I-1.7798 J22.6245
G02 X41.7079 Y5.4790 Z-2.5000 I2.9544 J23.2091 F1000
G03 X47.1925 Y4.0913 Z-3.0000 I8.4389 J21.8214
G02 X26.8560 Y25.0804 I2.9544 J23.2091 F1200
G02 X26.8829 Y29.8268 I22.6271 J2.2449
G02 X47.1925 Y50.5357 I23.2656 J-2.5035
G02 X51.9376 Y50.6604 I2.9758 J-22.9023
G02 X73.4827 Y29.3450 I-1.7740 J-23.3395
G02 X73.4159 Y24.5987 I-22.9931 J-2.0500
G02 X51.9376 Y3.9667 I-23.2552 J2.7134
G02 X47.1925 Y4.0913 I-1.7798 J22.6245
G02 X41.7079 Y5.4790 Z-3.5000 I2.9544 J23.2091 F1000
G03 X47.1925 Y4.0913 Z-4.0000 I8.4389 J21.8214
G02 X26.8560 Y25.0804 I2.9544 J23.2091 F1200
G02 X26.8829 Y29.8268 I22.6271 J2.2449
G02 X47.1925 Y50.5357 I23.2656 J-2.5035
G02 X51.9376 Y50.6604 I2.9758 J-22.9023
G02 X73.4827 Y29.3450 I-1.7740 J-23.3395
G02 X73.4159 Y24.5987 I-22.9931 J-2.0500
G02 X51.9376 Y3.9667 I-23.2552 J2.7134
G02 X47.1925 Y4.0913 I-1.7798 J22.6245
G02 X41.7079 Y5.4790 Z-4.5000 I2.9544 J23.2091 F1000
G03 X47.1925 Y4.0913 Z-5.0000 I8.4389 J21.8214
G02 X26.8560 Y25.0804 I2.9544 J23.2091 F1200
G02 X26.8829 Y29.8268 I22.6271 J2.2449
G02 X47.1925 Y50.5357 I23.2656 J-2.5035
G02 X51.9376 Y50.6604 I2.9758 J-22.9023
G02 X73.4827 Y29.3450 I-1.7740 J-23.3395
G02 X73.4159 Y24.5987 I-22.9931 J-2.0500
G02 X51.9376 Y3.9667 I-23.2552 J2.7134
G02 X47.1925 Y4.0913 I-1.7798 J22.6245
G02 X41.7079 Y5.4790 Z-5.5000 I2.9544 J23.2091 F1000
G03 X47.1925 Y4.0913 Z-6.0000 I8.4389 J21.8214
G02 X26.8560 Y25.0804 I2.9544 J23.2091 F1200
G02 X26.8829 Y29.8268 I22.6271 J2.2449
G02 X47.1925 Y50.5357 I23.2656 J-2.5035
G02 X51.9376 Y50.6604 I2.9758 J-22.9023
G02 X73.4827 Y29.3450 I-1.7740 J-23.3395
G02 X73.4159 Y24.5987 I-22.9931 J-2.0500
G02 X51.9376 Y3.9667 I-23.2552 J2.7134
G02 X47.1925 Y4.0913 I-1.7798 J22.6245
G02 X41.7079 Y5.4790 Z-6.5000 I2.9544 J23.2091 F1000
G03 X47.1925 Y4.0913 Z-7.0000 I8.4389 J21.8214
G02 X26.8560 Y25.0804 I2.9544 J23.2091 F1200
G02 X26.8829 Y29.8268 I22.6271 J2.2449
G02 X47.1925 Y50.5357 I23.2656 J-2.5035
G02 X51.9376 Y50.6604 I2.9758 J-22.9023
G02 X73.4827 Y29.3450 I-1.7740 J-23.3395
G02 X73.4159 Y24.5987 I-22.9931 J-2.0500
G02 X51.9376 Y3.9667 I-23.2552 J2.7134
G02 X47.1925 Y4.0913 I-1.7798 J22.6245
G02 X41.7079 Y5.4790 Z-7.5000 I2.9544 J23.2091 F1000
G03 X47.1925 Y4.0913 Z-8.0000 I8.4389 J21.8214
G02 X26.8560 Y25.0804 I2.9544 J23.2091 F1200
G02 X26.8829 Y29.8268 I22.6271 J2.2449
G02 X47.1925 Y50.5357 I23.2656 J-2.5035
G02 X51.9376 Y50.6604 I2.9758 J-22.9023
G02 X73.4827 Y29.3450 I-1.7740 J-23.3395
G02 X73.4159 Y24.5987 I-22.9931 J-2.0500
G02 X51.9376 Y3.9667 I-23.2552 J2.7134
G02 X47.1925 Y4.0913 I-1.7798 J22.6245
G02 X41.7079 Y5.4790 Z-8.5000 I2.9544 J23.2091 F1000
G03 X47.1925 Y4.0913 Z-9.0000 I8.4389 J21.8214
G02 X26.8560 Y25.0804 I2.9544 J23.2091 F1200
G02 X26.8829 Y29.8268 I22.6271 J2.2449
G02 X47.1925 Y50.5357 I23.2656 J-2.5035
G02 X51.9376 Y50.6604 I2.9758 J-22.9023
G02 X73.4827 Y29.3450 I-1.7740 J-23.3395
G02 X73.4159 Y24.5987 I-22.9931 J-2.0500
G02 X51.9376 Y3.9667 I-23.2552 J2.7134
G02 X47.1925 Y4.0913 I-1.7798 J22.6245
G02 X41.7079 Y5.4790 Z-9.5000 I2.9544 J23.2091 F1000
G03 X47.1925 Y4.0913 Z-10.0000 I8.4389 J21.8214
G02 X26.8560 Y25.0804 I2.9544 J23.2091 F1200
G02 X26.8829 Y29.8268 I22.6271 J2.2449
G02 X47.1925 Y50.5357 I23.2656 J-2.5035
G02 X51.9376 Y50.6604 I2.9758 J-22.9023
G02 X73.4827 Y29.3450 I-1.7740 J-23.3395
G02 X73.4159 Y24.5987 I-22.9931 J-2.0500
G02 X51.9376 Y3.9667 I-23.2552 J2.7134
G02 X47.1925 Y4.0913 I-1.7798 J22.6245
G02 X41.7079 Y5.4790 Z-10.5000 I2.9544 J23.2091 F1000
G03 X47.1925 Y4.0913 Z-11.0000 I8.4389 J21.8214
G02 X26.8560 Y25.0804 I2.9544 J23.2091 F1200
G02 X26.8829 Y29.8268 I22.6271 J2.2449
G02 X47.1925 Y50.5357 I23.2656 J-2.5035
G02 X51.9376 Y50.6604 I2.9758 J-22.9023
G02 X73.4827 Y29.3450 I-1.7740 J-23.3395
G02 X73.4159 Y24.5987 I-22.9931 J-2.0500
G02 X51.9376 Y3.9667 I-23.2552 J2.7134
G02 X47.1925 Y4.0913 I-1.7798 J22.6245
G02 X41.7079 Y5.4790 Z-11.5000 I2.9544 J23.2091 F1000
G03 X47.1925 Y4.0913 Z-12.0000 I8.4389 J21.8214
G02 X26.8560 Y25.0804 I2.9544 J23.2091 F1200
G02 X26.8829 Y29.8268 I22.6271 J2.2449
G02 X47.1925 Y50.5357 I23.2656 J-2.5035
G02 X51.9376 Y50.6604 I2.9758 J-22.9023
G02 X73.4827 Y29.3450 I-1.7740 J-23.3395
G02 X73.4159 Y24.5987 I-22.9931 J-2.0500
G02 X51.9376 Y3.9667 I-23.2552 J2.7134
G02 X47.1925 Y4.0913 I-1.7798 J22.6245
G02 X41.7079 Y5.4790 Z-12.5000 I2.9544 J23.2091 F1000
G03 X47.1925 Y4.0913 Z-13.0000 I8.4389 J21.8214
G02 X26.8560 Y25.0804 I2.9544 J23.2091 F1200
G02 X26.8829 Y29.8268 I22.6271 J2.2449
G02 X47.1925 Y50.5357 I23.2656 J-2.5035
G02 X51.9376 Y50.6604 I2.9758 J-22.9023
G02 X73.4827 Y29.3450 I-1.7740 J-23.3395
G02 X73.4159 Y24.5987 I-22.9931 J-2.0500
G02 X51.9376 Y3.9667 I-23.2552 J2.7134
G02 X47.1925 Y4.0913 I-1.7798 J22.6245
G02 X41.7079 Y5.4790 Z-13.5000 I2.9544 J23.2091 F1000
G03 X47.1925 Y4.0913 Z-14.0000 I8.4389 J21.8214
G02 X26.8560 Y25.0804 I2.9544 J23.2091 F1200
G02 X26.8829 Y29.8268 I22.6271 J2.2449
G02 X47.1925 Y50.5357 I23.2656 J-2.5035
G02 X51.9376 Y50.6604 I2.9758 J-22.9023
G02 X73.4827 Y29.3450 I-1.7740 J-23.3395
G02 X73.4159 Y24.5987 I-22.9931 J-2.0500
G02 X51.9376 Y3.9667 I-23.2552 J2.7134
G02 X47.1925 Y4.0913 I-1.7798 J22.6245
G02 X41.7079 Y5.4790 Z-14.5000 I2.9544 J23.2091 F1000
G03 X47.1925 Y4.0913 Z-15.0000 I8.4389 J21.8214
G02 X26.8560 Y25.0804 I2.9544 J23.2091 F1200
G02 X26.8829 Y29.8268 I22.6271 J2.2449
G02 X47.1925 Y50.5357 I23.2656 J-2.5035
G02 X51.9376 Y50.6604 I2.9758 J-22.9023
G02 X73.4827 Y29.3450 I-1.7740 J-23.3395
G02 X73.4159 Y24.5987 I-22.9931 J-2.0500
G02 X51.9376 Y3.9667 I-23.2552 J2.7134
G02 X47.1925 Y4.0913 I-1.7798 J22.6245
G02 X41.7079 Y5.4790 Z-15.5000 I2.9544 J23.2091 F1000
G03 X47.1925 Y4.0913 Z-16.0000 I8.4389 J21.8214
G02 X26.8560 Y25.0804 I2.9544 J23.2091 F1200
G00 Z-15.0000
G02 X26.8829 Y29.8268 I22.6271 J2.2449
G02 X28.1637 Y35.3373 Z-15.5000 I23.2656 J-2.5035 F1000
G03 X26.8829 Y29.8268 Z-16.0000 I21.9848 J-8.0140
G02 X47.1925 Y50.5357 I23.2656 J-2.5035 F1200
G00 Z-15.0000
G02 X51.9376 Y50.6604 I2.9758 J-22.9023
G02 X57.4855 Y49.5530 Z-15.5000 I-1.7740 J-23.3395 F1000
G03 X51.9376 Y50.6604 Z-16.0000 I-7.3220 J-22.2322
G02 X73.4827 Y29.3450 I-1.7740 J-23.3395 F1200
G00 Z-15.0000
G02 X73.4159 Y24.5987 I-22.9931 J-2.0500
G02 X72.0862 Y19.0998 Z-15.5000 I-23.2552 J2.7134 F1000
G03 X73.4159 Y24.5987 Z-16.0000 I-21.9254 J8.2123
G02 X51.9376 Y3.9667 I-23.2552 J2.7134 F1200
G00 Z-15.0000
G02 X47.1925 Y4.0913 I-1.7798 J22.6245
G00 Z-15.5000
G01 Z-16.0000 F1000
G02 X41.7079 Y5.4790 Z-16.5000 I2.9544 J23.2091
G03 X47.1925 Y4.0913 Z-17.0000 I8.4389 J21.8214
G02 X26.8560 Y25.0804 I2.9544 J23.2091 F1200
G00 Z-15.0000
G02 X26.8829 Y29.8268 I22.6271 J2.2449
G00 Z-15.5000
G01 Z-16.0000 F1000
G02 X28.1637 Y35.3373 Z-16.5000 I23.2656 J-2.5035
G03 X26.8829 Y29.8268 Z-17.0000 I21.9848 J-8.0140
G02 X47.1925 Y50.5357 I23.2656 J-2.5035 F1200
G00 Z-15.0000
G02 X51.9376 Y50.6604 I2.9758 J-22.9023
G00 Z-15.5000
G01 Z-16.0000 F1000
G02 X57.4855 Y49.5530 Z-16.5000 I-1.7740 J-23.3395
G03 X51.9376 Y50.6604 Z-17.0000 I-7.3220 J-22.2322
G02 X73.4827 Y29.3450 I-1.7740 J-23.3395 F1200
G00 Z-15.0000
G02 X73.4159 Y24.5987 I-22.9931 J-2.0500
G00 Z-15.5000
G01 Z-16.0000 F1000
G02 X72.0862 Y19.0998 Z-16.5000 I-23.2552 J2.7134
G03 X73.4159 Y24.5987 Z-17.0000 I-21.9254 J8.2123
G02 X51.9376 Y3.9667 I-23.2552 J2.7134 F1200
G00 Z-15.0000
G02 X47.1925 Y4.0913 I-1.7798 J22.6245
G00 Z-16.5000
G01 Z-17.0000 F1000
G02 X41.7079 Y5.4790 Z-17.5000 I2.9544 J23.2091
G03 X47.1925 Y4.0913 Z-18.0000 I8.4389 J21.8214
G02 X26.8560 Y25.0804 I2.9544 J23.2091 F1200
G00 Z-15.0000
G02 X26.8829 Y29.8268 I22.6271 J2.2449
G00 Z-16.5000
G01 Z-17.0000 F1000
G02 X28.1637 Y35.3373 Z-17.5000 I23.2656 J-2.5035
G03 X26.8829 Y29.8268 Z-18.0000 I21.9848 J-8.0140
G02 X47.1925 Y50.5357 I23.2656 J-2.5035 F1200
G00 Z-15.0000
G02 X51.9376 Y50.6604 I2.9758 J-22.9023
G00 Z-16.5000
G01 Z-17.0000 F1000
G02 X57.4855 Y49.5530 Z-17.5000 I-1.7740 J-23.3395
G03 X51.9376 Y50.6604 Z-18.0000 I-7.3220 J-22.2322
G02 X73.4827 Y29.3450 I-1.7740 J-23.3395 F1200
G00 Z-15.0000
G02 X73.4159 Y24.5987 I-22.9931 J-2.0500
G00 Z-16.5000
G01 Z-17.0000 F1000
G02 X72.0862 Y19.0998 Z-17.5000 I-23.2552 J2.7134
G03 X73.4159 Y24.5987 Z-18.0000 I-21.9254 J8.2123
G02 X51.9376 Y3.9667 I-23.2552 J2.7134 F1200
G00 Z-15.0000
G02 X47.1925 Y4.0913 I-1.7798 J22.6245
G00 Z-17.5000
G01 Z-18.0000 F1000
G02 X41.7079 Y5.4790 Z-18.5000 I2.9544 J23.2091
G03 X47.1925 Y4.0913 Z-19.0000 I8.4389 J21.8214
G02 X26.8560 Y25.0804 I2.9544 J23.2091 F1200
G00 Z-15.0000
G02 X26.8829 Y29.8268 I22.6271 J2.2449
G00 Z-17.5000
G01 Z-18.0000 F1000
G02 X28.1637 Y35.3373 Z-18.5000 I23.2656 J-2.5035
G03 X26.8829 Y29.8268 Z-19.0000 I21.9848 J-8.0140
G02 X47.1925 Y50.5357 I23.2656 J-2.5035 F1200
G00 Z-15.0000
G02 X51.9376 Y50.6604 I2.9758 J-22.9023
G00 Z-17.5000
G01 Z-18.0000 F1000
G02 X57.4855 Y49.5530 Z-18.5000 I-1.7740 J-23.3395
G03 X51.9376 Y50.6604 Z-19.0000 I-7.3220 J-22.2322
G02 X73.4827 Y29.3450 I-1.7740 J-23.3395 F1200
G00 Z-15.0000
G02 X73.4159 Y24.5987 I-22.9931 J-2.0500
G00 Z-17.5000
G01 Z-18.0000 F1000
G02 X72.0862 Y19.0998 Z-18.5000 I-23.2552 J2.7134
G03 X73.4159 Y24.5987 Z-19.0000 I-21.9254 J8.2123
G02 X51.9376 Y3.9667 I-23.2552 J2.7134 F1200
G00 Z-15.0000
G02 X47.1925 Y4.0913 I-1.7798 J22.6245
G00 Z-18.5000
G01 Z-19.0000 F1000
G02 X41.7079 Y5.4790 Z-19.5000 I2.9544 J23.2091
G03 X47.1925 Y4.0913 Z-20.0000 I8.4389 J21.8214
G02 X26.8560 Y25.0804 I2.9544 J23.2091 F1200
G00 Z-15.0000
G02 X26.8829 Y29.8268 I22.6271 J2.2449
G00 Z-18.5000
G01 Z-19.0000 F1000
G02 X28.1637 Y35.3373 Z-19.5000 I23.2656 J-2.5035
G03 X26.8829 Y29.8268 Z-20.0000 I21.9848 J-8.0140
G02 X47.1925 Y50.5357 I23.2656 J-2.5035 F1200
G00 Z-15.0000
G02 X51.9376 Y50.6604 I2.9758 J-22.9023
G00 Z-18.5000
G01 Z-19.0000 F1000
G02 X57.4855 Y49.5530 Z-19.5000 I-1.7740 J-23.3395
G03 X51.9376 Y50.6604 Z-20.0000 I-7.3220 J-22.2322
G02 X73.4827 Y29.3450 I-1.7740 J-23.3395 F1200
G00 Z-15.0000
G02 X73.4159 Y24.5987 I-22.9931 J-2.0500
G00 Z-18.5000
G01 Z-19.0000 F1000
G02 X72.0862 Y19.0998 Z-19.5000 I-23.2552 J2.7134
G03 X73.4159 Y24.5987 Z-20.0000 I-21.9254 J8.2123
G02 X51.9376 Y3.9667 I-23.2552 J2.7134 F1200
G00 Z-15.0000
G02 X47.1925 Y4.0913 I-1.7798 J22.6245
G00 Z5.0000
G00 X0.0000 Y0.0000

M05
