(Projekt Zeichnung)
(Erstellt mit Estlcam Version 11 Build 11,245)
(Laufzeit ca. 00:00:12 Stunden)

(Benötigte Werkzeuge:)
(Alu 1 Schneider)

M03 S27000
G00 Z5.0000


(Nr. 1 Ausschnitt: Ausschnitt 1)
G00 X2.0000 Y49.3025
G00 Z0.5000
G01 Z0.0000 F1000 S27000
G02 X1.6413 Y49.9237 Z-0.1673 I0.0000 J0.4142
G02 X2.3587 Z-0.3346 I0.3587 J-0.2071
G02 X2.0100 Y49.3026 Z-0.5000 I-0.3587 J-0.2071
G03 X2.3587 Y49.9237 Z-0.6654 I-0.0100 J0.4140
G03 X1.6413 Z-0.8327 I-0.3587 J-0.2071
G03 X2.0000 Y49.3025 Z-1.0000 I0.3587 J-0.2071
G02 X1.6413 Y49.9237 I0.0000 J0.4142 F1200
G02 X2.3587 I0.3587 J-0.2071
G02 X2.0000 Y49.3025 I-0.3587 J-0.2071
G02 X1.6413 Y49.9237 Z-1.1673 I0.0000 J0.4142 F1000
G02 X2.3587 Z-1.3346 I0.3587 J-0.2071
G02 X2.0100 Y49.3026 Z-1.5000 I-0.3587 J-0.2071
G03 X2.3587 Y49.9237 Z-1.6654 I-0.0100 J0.4140
G03 X1.6413 Z-1.8327 I-0.3587 J-0.2071
G03 X2.0000 Y49.3025 Z-2.0000 I0.3587 J-0.2071
G02 X1.6413 Y49.9237 I0.0000 J0.4142 F1200
G02 X2.3587 I0.3587 J-0.2071
G02 X2.0000 Y49.3025 I-0.3587 J-0.2071
G02 X1.6413 Y49.9237 Z-2.1673 I0.0000 J0.4142 F1000
G02 X2.3587 Z-2.3346 I0.3587 J-0.2071
G02 X2.0100 Y49.3026 Z-2.5000 I-0.3587 J-0.2071
G03 X2.3587 Y49.9237 Z-2.6654 I-0.0100 J0.4140
G03 X1.6413 Z-2.8327 I-0.3587 J-0.2071
G03 X2.0000 Y49.3025 Z-3.0000 I0.3587 J-0.2071
G02 X1.6413 Y49.9237 I0.0000 J0.4142 F1200
G02 X2.3587 I0.3587 J-0.2071
G02 X2.0000 Y49.3025 I-0.3587 J-0.2071
G02 X1.6413 Y49.9237 Z-3.1673 I0.0000 J0.4142 F1000
G02 X2.3587 Z-3.3346 I0.3587 J-0.2071
G02 X2.0100 Y49.3026 Z-3.5000 I-0.3587 J-0.2071
G03 X2.3587 Y49.9237 Z-3.6654 I-0.0100 J0.4140
G03 X1.6413 Z-3.8327 I-0.3587 J-0.2071
G03 X2.0000 Y49.3025 Z-4.0000 I0.3587 J-0.2071
G02 X1.6413 Y49.9237 I0.0000 J0.4142 F1200
G02 X2.3587 I0.3587 J-0.2071
G02 X2.0000 Y49.3025 I-0.3587 J-0.2071
G02 X1.6413 Y49.9237 Z-4.1673 I0.0000 J0.4142 F1000
G02 X2.3587 Z-4.3346 I0.3587 J-0.2071
G02 X2.0100 Y49.3026 Z-4.5000 I-0.3587 J-0.2071
G03 X2.3587 Y49.9237 Z-4.6654 I-0.0100 J0.4140
G03 X1.6413 Z-4.8327 I-0.3587 J-0.2071
G03 X2.0000 Y49.3025 Z-5.0000 I0.3587 J-0.2071
G02 X1.6413 Y49.9237 I0.0000 J0.4142 F1200
G02 X2.3587 I0.3587 J-0.2071
G02 X2.0000 Y49.3025 I-0.3587 J-0.2071
G02 X1.6413 Y49.9237 Z-5.1673 I0.0000 J0.4142 F1000
G02 X2.3587 Z-5.3346 I0.3587 J-0.2071
G02 X2.0100 Y49.3026 Z-5.5000 I-0.3587 J-0.2071
G03 X2.3587 Y49.9237 Z-5.6654 I-0.0100 J0.4140
G03 X1.6413 Z-5.8327 I-0.3587 J-0.2071
G03 X2.0000 Y49.3025 Z-6.0000 I0.3587 J-0.2071
G02 X1.6413 Y49.9237 I0.0000 J0.4142 F1200
G02 X2.3587 I0.3587 J-0.2071
G02 X2.0000 Y49.3025 I-0.3587 J-0.2071
G02 X1.6413 Y49.9237 Z-6.1673 I0.0000 J0.4142 F1000
G02 X2.3587 Z-6.3346 I0.3587 J-0.2071
G02 X2.0100 Y49.3026 Z-6.5000 I-0.3587 J-0.2071
G03 X2.3587 Y49.9237 Z-6.6654 I-0.0100 J0.4140
G03 X1.6413 Z-6.8327 I-0.3587 J-0.2071
G03 X2.0000 Y49.3025 Z-7.0000 I0.3587 J-0.2071
G02 X1.6413 Y49.9237 I0.0000 J0.4142 F1200
G02 X2.3587 I0.3587 J-0.2071
G02 X2.0000 Y49.3025 I-0.3587 J-0.2071
G02 X1.6413 Y49.9237 Z-7.1673 I0.0000 J0.4142 F1000
G02 X2.3587 Z-7.3346 I0.3587 J-0.2071
G02 X2.0100 Y49.3026 Z-7.5000 I-0.3587 J-0.2071
G03 X2.3587 Y49.9237 Z-7.6654 I-0.0100 J0.4140
G03 X1.6413 Z-7.8327 I-0.3587 J-0.2071
G03 X2.0000 Y49.3025 Z-8.0000 I0.3587 J-0.2071
G02 X1.6413 Y49.9237 I0.0000 J0.4142 F1200
G02 X2.3587 I0.3587 J-0.2071
G02 X2.0000 Y49.3025 I-0.3587 J-0.2071
G02 X1.6413 Y49.9237 Z-8.1673 I0.0000 J0.4142 F1000
G02 X2.3587 Z-8.3346 I0.3587 J-0.2071
G02 X2.0100 Y49.3026 Z-8.5000 I-0.3587 J-0.2071
G03 X2.3587 Y49.9237 Z-8.6654 I-0.0100 J0.4140
G03 X1.6413 Z-8.8327 I-0.3587 J-0.2071
G03 X2.0000 Y49.3025 Z-9.0000 I0.3587 J-0.2071
G02 X1.6413 Y49.9237 I0.0000 J0.4142 F1200
G02 X2.3587 I0.3587 J-0.2071
G02 X2.0000 Y49.3025 I-0.3587 J-0.2071
G02 X1.6413 Y49.9237 Z-9.1673 I0.0000 J0.4142 F1000
G02 X2.3587 Z-9.3346 I0.3587 J-0.2071
G02 X2.0100 Y49.3026 Z-9.5000 I-0.3587 J-0.2071
G03 X2.3587 Y49.9237 Z-9.6654 I-0.0100 J0.4140
G03 X1.6413 Z-9.8327 I-0.3587 J-0.2071
G03 X2.0000 Y49.3025 Z-10.0000 I0.3587 J-0.2071
G02 X1.6413 Y49.9237 I0.0000 J0.4142 F1200
G02 X2.3587 I0.3587 J-0.2071
G02 X2.0000 Y49.3025 I-0.3587 J-0.2071
G02 X1.6413 Y49.9237 Z-10.1673 I0.0000 J0.4142 F1000
G02 X2.3587 Z-10.3346 I0.3587 J-0.2071
G02 X2.0100 Y49.3026 Z-10.5000 I-0.3587 J-0.2071
G03 X2.3587 Y49.9237 Z-10.6654 I-0.0100 J0.4140
G03 X1.6413 Z-10.8327 I-0.3587 J-0.2071
G03 X2.0000 Y49.3025 Z-11.0000 I0.3587 J-0.2071
G02 X1.6413 Y49.9237 I0.0000 J0.4142 F1200
G02 X2.3587 I0.3587 J-0.2071
G02 X2.0000 Y49.3025 I-0.3587 J-0.2071
G02 X1.6413 Y49.9237 Z-11.1673 I0.0000 J0.4142 F1000
G02 X2.3587 Z-11.3346 I0.3587 J-0.2071
G02 X2.0100 Y49.3026 Z-11.5000 I-0.3587 J-0.2071
G03 X2.3587 Y49.9237 Z-11.6654 I-0.0100 J0.4140
G03 X1.6413 Z-11.8327 I-0.3587 J-0.2071
G03 X2.0000 Y49.3025 Z-12.0000 I0.3587 J-0.2071
G02 X1.6413 Y49.9237 I0.0000 J0.4142 F1200
G02 X2.3587 I0.3587 J-0.2071
G02 X2.0000 Y49.3025 I-0.3587 J-0.2071
G02 X1.6413 Y49.9237 Z-12.1673 I0.0000 J0.4142 F1000
G02 X2.3587 Z-12.3346 I0.3587 J-0.2071
G02 X2.0100 Y49.3026 Z-12.5000 I-0.3587 J-0.2071
G03 X2.3587 Y49.9237 Z-12.6654 I-0.0100 J0.4140
G03 X1.6413 Z-12.8327 I-0.3587 J-0.2071
G03 X2.0000 Y49.3025 Z-13.0000 I0.3587 J-0.2071
G02 X1.6413 Y49.9237 I0.0000 J0.4142 F1200
G02 X2.3587 I0.3587 J-0.2071
G02 X2.0000 Y49.3025 I-0.3587 J-0.2071
G02 X1.6413 Y49.9237 Z-13.1673 I0.0000 J0.4142 F1000
G02 X2.3587 Z-13.3346 I0.3587 J-0.2071
G02 X2.0100 Y49.3026 Z-13.5000 I-0.3587 J-0.2071
G03 X2.3587 Y49.9237 Z-13.6654 I-0.0100 J0.4140
G03 X1.6413 Z-13.8327 I-0.3587 J-0.2071
G03 X2.0000 Y49.3025 Z-14.0000 I0.3587 J-0.2071
G02 X1.6413 Y49.9237 I0.0000 J0.4142 F1200
G02 X2.3587 I0.3587 J-0.2071
G02 X2.0000 Y49.3025 I-0.3587 J-0.2071
G02 X1.6413 Y49.9237 Z-14.1673 I0.0000 J0.4142 F1000
G02 X2.3587 Z-14.3346 I0.3587 J-0.2071
G02 X2.0100 Y49.3026 Z-14.5000 I-0.3587 J-0.2071
G03 X2.3587 Y49.9237 Z-14.6654 I-0.0100 J0.4140
G03 X1.6413 Z-14.8327 I-0.3587 J-0.2071
G03 X2.0000 Y49.3025 Z-15.0000 I0.3587 J-0.2071
G02 X1.6413 Y49.9237 I0.0000 J0.4142 F1200
G02 X2.3587 I0.3587 J-0.2071
G02 X2.0000 Y49.3025 I-0.3587 J-0.2071
G02 X1.6413 Y49.9237 Z-15.1673 I0.0000 J0.4142 F1000
G02 X2.3587 Z-15.3346 I0.3587 J-0.2071
G02 X2.0100 Y49.3026 Z-15.5000 I-0.3587 J-0.2071
G03 X2.3587 Y49.9237 Z-15.6654 I-0.0100 J0.4140
G03 X1.6413 Z-15.8327 I-0.3587 J-0.2071
G03 X2.0000 Y49.3025 Z-16.0000 I0.3587 J-0.2071
G02 X1.6413 Y49.9237 I0.0000 J0.4142 F1200
G02 X2.3587 I0.3587 J-0.2071
G02 X2.0000 Y49.3025 I-0.3587 J-0.2071
G02 X1.6413 Y49.9237 Z-16.1673 I0.0000 J0.4142 F1000
G02 X2.3587 Z-16.3346 I0.3587 J-0.2071
G02 X2.0100 Y49.3026 Z-16.5000 I-0.3587 J-0.2071
G03 X2.3587 Y49.9237 Z-16.6654 I-0.0100 J0.4140
G03 X1.6413 Z-16.8327 I-0.3587 J-0.2071
G03 X2.0000 Y49.3025 Z-17.0000 I0.3587 J-0.2071
G02 X1.6413 Y49.9237 I0.0000 J0.4142 F1200
G02 X2.3587 I0.3587 J-0.2071
G02 X2.0000 Y49.3025 I-0.3587 J-0.2071
G02 X1.6413 Y49.9237 Z-17.1673 I0.0000 J0.4142 F1000
G02 X2.3587 Z-17.3346 I0.3587 J-0.2071
G02 X2.0100 Y49.3026 Z-17.5000 I-0.3587 J-0.2071
G03 X2.3587 Y49.9237 Z-17.6654 I-0.0100 J0.4140
G03 X1.6413 Z-17.8327 I-0.3587 J-0.2071
G03 X2.0000 Y49.3025 Z-18.0000 I0.3587 J-0.2071
G02 X1.6413 Y49.9237 I0.0000 J0.4142 F1200
G02 X2.3587 I0.3587 J-0.2071
G02 X2.0000 Y49.3025 I-0.3587 J-0.2071
G02 X1.6413 Y49.9237 Z-18.1673 I0.0000 J0.4142 F1000
G02 X2.3587 Z-18.3346 I0.3587 J-0.2071
G02 X2.0100 Y49.3026 Z-18.5000 I-0.3587 J-0.2071
G03 X2.3587 Y49.9237 Z-18.6654 I-0.0100 J0.4140
G03 X1.6413 Z-18.8327 I-0.3587 J-0.2071
G03 X2.0000 Y49.3025 Z-19.0000 I0.3587 J-0.2071
G02 X1.6413 Y49.9237 I0.0000 J0.4142 F1200
G02 X2.3587 I0.3587 J-0.2071
G02 X2.0000 Y49.3025 I-0.3587 J-0.2071
G02 X1.6413 Y49.9237 Z-19.1673 I0.0000 J0.4142 F1000
G02 X2.3587 Z-19.3346 I0.3587 J-0.2071
G02 X2.0100 Y49.3026 Z-19.5000 I-0.3587 J-0.2071
G03 X2.3587 Y49.9237 Z-19.6654 I-0.0100 J0.4140
G03 X1.6413 Z-19.8327 I-0.3587 J-0.2071
G03 X2.0000 Y49.3025 Z-20.0000 I0.3587 J-0.2071
G02 X1.6413 Y49.9237 I0.0000 J0.4142 F1200
G02 X2.3587 I0.3587 J-0.2071
G02 X2.0000 Y49.3025 I-0.3587 J-0.2071
G00 Z5.0000
G00 X0.0000 Y0.0000

M05
