(Projekt Zeichnung)
(Erstellt mit Estlcam Version 11 Build 11,245)
(Laufzeit ca. 00:02:43 Stunden)

(Benötigte Werkzeuge:)
(Alu 1 Schneider)

M03 S27000
G00 Z5.0000


(Nr. 1 Ausschnitt: Ausschnitt 2)
G00 X30.0331 Y15.3482
G00 Z0.5000
G01 Z0.0000 F1000 S27000
G02 X27.7507 Y20.5248 Z-0.5000 I20.1266 J11.9654
G03 X30.0331 Y15.3482 Z-1.0000 I22.4090 J6.7888
G02 X49.8607 Y50.7263 I20.1266 J11.9654 F1200
G02 X70.5853 Y15.8661 I0.2990 J-23.4128
G02 X30.0331 Y15.3482 I-20.4256 J11.4474
G02 X27.7507 Y20.5248 Z-1.5000 I20.1266 J11.9654 F1000
G03 X30.0331 Y15.3482 Z-2.0000 I22.4090 J6.7888
G02 X49.8607 Y50.7263 I20.1266 J11.9654 F1200
G02 X70.5853 Y15.8661 I0.2990 J-23.4128
G02 X30.0331 Y15.3482 I-20.4256 J11.4474
G02 X27.7507 Y20.5248 Z-2.5000 I20.1266 J11.9654 F1000
G03 X30.0331 Y15.3482 Z-3.0000 I22.4090 J6.7888
G02 X49.8607 Y50.7263 I20.1266 J11.9654 F1200
G02 X70.5853 Y15.8661 I0.2990 J-23.4128
G02 X30.0331 Y15.3482 I-20.4256 J11.4474
G02 X27.7507 Y20.5248 Z-3.5000 I20.1266 J11.9654 F1000
G03 X30.0331 Y15.3482 Z-4.0000 I22.4090 J6.7888
G02 X49.8607 Y50.7263 I20.1266 J11.9654 F1200
G02 X70.5853 Y15.8661 I0.2990 J-23.4128
G02 X30.0331 Y15.3482 I-20.4256 J11.4474
G02 X27.7507 Y20.5248 Z-4.5000 I20.1266 J11.9654 F1000
G03 X30.0331 Y15.3482 Z-5.0000 I22.4090 J6.7888
G02 X49.8607 Y50.7263 I20.1266 J11.9654 F1200
G02 X70.5853 Y15.8661 I0.2990 J-23.4128
G02 X30.0331 Y15.3482 I-20.4256 J11.4474
G02 X27.7507 Y20.5248 Z-5.5000 I20.1266 J11.9654 F1000
G03 X30.0331 Y15.3482 Z-6.0000 I22.4090 J6.7888
G02 X49.8607 Y50.7263 I20.1266 J11.9654 F1200
G02 X70.5853 Y15.8661 I0.2990 J-23.4128
G02 X30.0331 Y15.3482 I-20.4256 J11.4474
G02 X27.7507 Y20.5248 Z-6.5000 I20.1266 J11.9654 F1000
G03 X30.0331 Y15.3482 Z-7.0000 I22.4090 J6.7888
G02 X49.8607 Y50.7263 I20.1266 J11.9654 F1200
G02 X70.5853 Y15.8661 I0.2990 J-23.4128
G02 X30.0331 Y15.3482 I-20.4256 J11.4474
G02 X27.7507 Y20.5248 Z-7.5000 I20.1266 J11.9654 F1000
G03 X30.0331 Y15.3482 Z-8.0000 I22.4090 J6.7888
G02 X49.8607 Y50.7263 I20.1266 J11.9654 F1200
G02 X70.5853 Y15.8661 I0.2990 J-23.4128
G02 X30.0331 Y15.3482 I-20.4256 J11.4474
G02 X27.7507 Y20.5248 Z-8.5000 I20.1266 J11.9654 F1000
G03 X30.0331 Y15.3482 Z-9.0000 I22.4090 J6.7888
G02 X49.8607 Y50.7263 I20.1266 J11.9654 F1200
G02 X70.5853 Y15.8661 I0.2990 J-23.4128
G02 X30.0331 Y15.3482 I-20.4256 J11.4474
G02 X27.7507 Y20.5248 Z-9.5000 I20.1266 J11.9654 F1000
G03 X30.0331 Y15.3482 Z-10.0000 I22.4090 J6.7888
G02 X49.8607 Y50.7263 I20.1266 J11.9654 F1200
G02 X70.5853 Y15.8661 I0.2990 J-23.4128
G02 X30.0331 Y15.3482 I-20.4256 J11.4474
G02 X27.7507 Y20.5248 Z-10.5000 I20.1266 J11.9654 F1000
G03 X30.0331 Y15.3482 Z-11.0000 I22.4090 J6.7888
G02 X49.8607 Y50.7263 I20.1266 J11.9654 F1200
G02 X70.5853 Y15.8661 I0.2990 J-23.4128
G02 X30.0331 Y15.3482 I-20.4256 J11.4474
G02 X27.7507 Y20.5248 Z-11.5000 I20.1266 J11.9654 F1000
G03 X30.0331 Y15.3482 Z-12.0000 I22.4090 J6.7888
G02 X49.8607 Y50.7263 I20.1266 J11.9654 F1200
G02 X70.5853 Y15.8661 I0.2990 J-23.4128
G02 X30.0331 Y15.3482 I-20.4256 J11.4474
G02 X27.7507 Y20.5248 Z-12.5000 I20.1266 J11.9654 F1000
G03 X30.0331 Y15.3482 Z-13.0000 I22.4090 J6.7888
G02 X49.8607 Y50.7263 I20.1266 J11.9654 F1200
G02 X70.5853 Y15.8661 I0.2990 J-23.4128
G02 X30.0331 Y15.3482 I-20.4256 J11.4474
G02 X27.7507 Y20.5248 Z-13.5000 I20.1266 J11.9654 F1000
G03 X30.0331 Y15.3482 Z-14.0000 I22.4090 J6.7888
G02 X49.8607 Y50.7263 I20.1266 J11.9654 F1200
G02 X70.5853 Y15.8661 I0.2990 J-23.4128
G02 X30.0331 Y15.3482 I-20.4256 J11.4474
G02 X27.7507 Y20.5248 Z-14.5000 I20.1266 J11.9654 F1000
G03 X30.0331 Y15.3482 Z-15.0000 I22.4090 J6.7888
G02 X49.8607 Y50.7263 I20.1266 J11.9654 F1200
G02 X70.5853 Y15.8661 I0.2990 J-23.4128
G02 X30.0331 Y15.3482 I-20.4256 J11.4474
G02 X27.7507 Y20.5248 Z-15.5000 I20.1266 J11.9654 F1000
G03 X30.0331 Y15.3482 Z-16.0000 I22.4090 J6.7888
G02 X49.8607 Y50.7263 I20.1266 J11.9654 F1200
G02 X70.5853 Y15.8661 I0.2990 J-23.4128
G02 X30.0331 Y15.3482 I-20.4256 J11.4474
G02 X27.7507 Y20.5248 Z-16.5000 I20.1266 J11.9654 F1000
G03 X30.0331 Y15.3482 Z-17.0000 I22.4090 J6.7888
G02 X49.8607 Y50.7263 I20.1266 J11.9654 F1200
G02 X70.5853 Y15.8661 I0.2990 J-23.4128
G02 X30.0331 Y15.3482 I-20.4256 J11.4474
G02 X27.7507 Y20.5248 Z-17.5000 I20.1266 J11.9654 F1000
G03 X30.0331 Y15.3482 Z-18.0000 I22.4090 J6.7888
G02 X49.8607 Y50.7263 I20.1266 J11.9654 F1200
G02 X70.5853 Y15.8661 I0.2990 J-23.4128
G02 X30.0331 Y15.3482 I-20.4256 J11.4474
G02 X27.7507 Y20.5248 Z-18.5000 I20.1266 J11.9654 F1000
G03 X30.0331 Y15.3482 Z-19.0000 I22.4090 J6.7888
G02 X49.8607 Y50.7263 I20.1266 J11.9654 F1200
G02 X70.5853 Y15.8661 I0.2990 J-23.4128
G02 X30.0331 Y15.3482 I-20.4256 J11.4474
G02 X27.7507 Y20.5248 Z-19.5000 I20.1266 J11.9654 F1000
G03 X30.0331 Y15.3482 Z-20.0000 I22.4090 J6.7888
G02 X49.8607 Y50.7263 I20.1266 J11.9654 F1200
G02 X70.5853 Y15.8661 I0.2990 J-23.4128
G02 X30.0331 Y15.3482 I-20.4256 J11.4474
G00 Z5.0000
G00 X0.0000 Y0.0000

M05
