(Projekt Zeichnung)
(Erstellt mit Estlcam Version 11 Build 11,245)
(Laufzeit ca. 00:03:52 Stunden)

(Benötigte Werkzeuge:)
(Alu 1 Schneider)

M03 S27000
G00 Z5.0000


(Nr. 1 Teil: Teil 1)
G00 X143.1198 Y-1.5850
G00 Z0.5000
G01 Z0.0000 F1000 S27000
G03 X144.7048 Y0.0000 Z-0.2195 I0.0000 J1.5850
G01 Y3.1816 Z-0.5000
G01 Y0.0000 Z-0.7805
G02 X143.1198 Y-1.5850 Z-1.0000 I-1.5850 J0.0000
G03 X144.7048 Y0.0000 I0.0000 J1.5850 F1200
G01 Y50.0000
G03 X143.1198 Y51.5850 I-1.5850 J0.0000
G01 X93.1198
G03 X91.5348 Y50.0000 I0.0000 J-1.5850
G01 Y0.0000
G03 X93.1198 Y-1.5850 I1.5850 J0.0000
G01 X143.1198
G03 X144.7048 Y0.0000 Z-1.2195 I0.0000 J1.5850 F1000
G01 Y3.1816 Z-1.5000
G01 Y0.0000 Z-1.7805
G02 X143.1198 Y-1.5850 Z-2.0000 I-1.5850 J0.0000
G03 X144.7048 Y0.0000 I0.0000 J1.5850 F1200
G01 Y50.0000
G03 X143.1198 Y51.5850 I-1.5850 J0.0000
G01 X93.1198
G03 X91.5348 Y50.0000 I0.0000 J-1.5850
G01 Y0.0000
G03 X93.1198 Y-1.5850 I1.5850 J0.0000
G01 X143.1198
G03 X144.7048 Y0.0000 Z-2.2195 I0.0000 J1.5850 F1000
G01 Y3.1816 Z-2.5000
G01 Y0.0000 Z-2.7805
G02 X143.1198 Y-1.5850 Z-3.0000 I-1.5850 J0.0000
G03 X144.7048 Y0.0000 I0.0000 J1.5850 F1200
G01 Y50.0000
G03 X143.1198 Y51.5850 I-1.5850 J0.0000
G01 X93.1198
G03 X91.5348 Y50.0000 I0.0000 J-1.5850
G01 Y0.0000
G03 X93.1198 Y-1.5850 I1.5850 J0.0000
G01 X143.1198
G03 X144.7048 Y0.0000 Z-3.2195 I0.0000 J1.5850 F1000
G01 Y3.1816 Z-3.5000
G01 Y0.0000 Z-3.7805
G02 X143.1198 Y-1.5850 Z-4.0000 I-1.5850 J0.0000
G03 X144.7048 Y0.0000 I0.0000 J1.5850 F1200
G01 Y50.0000
G03 X143.1198 Y51.5850 I-1.5850 J0.0000
G01 X93.1198
G03 X91.5348 Y50.0000 I0.0000 J-1.5850
G01 Y0.0000
G03 X93.1198 Y-1.5850 I1.5850 J0.0000
G01 X143.1198
G03 X144.7048 Y0.0000 Z-4.2195 I0.0000 J1.5850 F1000
G01 Y3.1816 Z-4.5000
G01 Y0.0000 Z-4.7805
G02 X143.1198 Y-1.5850 Z-5.0000 I-1.5850 J0.0000
G03 X144.7048 Y0.0000 I0.0000 J1.5850 F1200
G01 Y50.0000
G03 X143.1198 Y51.5850 I-1.5850 J0.0000
G01 X93.1198
G03 X91.5348 Y50.0000 I0.0000 J-1.5850
G01 Y0.0000
G03 X93.1198 Y-1.5850 I1.5850 J0.0000
G01 X143.1198
G03 X144.7048 Y0.0000 Z-5.2195 I0.0000 J1.5850 F1000
G01 Y3.1816 Z-5.5000
G01 Y0.0000 Z-5.7805
G02 X143.1198 Y-1.5850 Z-6.0000 I-1.5850 J0.0000
G03 X144.7048 Y0.0000 I0.0000 J1.5850 F1200
G01 Y50.0000
G03 X143.1198 Y51.5850 I-1.5850 J0.0000
G01 X93.1198
G03 X91.5348 Y50.0000 I0.0000 J-1.5850
G01 Y0.0000
G03 X93.1198 Y-1.5850 I1.5850 J0.0000
G01 X143.1198
G03 X144.7048 Y0.0000 Z-6.2195 I0.0000 J1.5850 F1000
G01 Y3.1816 Z-6.5000
G01 Y0.0000 Z-6.7805
G02 X143.1198 Y-1.5850 Z-7.0000 I-1.5850 J0.0000
G03 X144.7048 Y0.0000 I0.0000 J1.5850 F1200
G01 Y50.0000
G03 X143.1198 Y51.5850 I-1.5850 J0.0000
G01 X93.1198
G03 X91.5348 Y50.0000 I0.0000 J-1.5850
G01 Y0.0000
G03 X93.1198 Y-1.5850 I1.5850 J0.0000
G01 X143.1198
G03 X144.7048 Y0.0000 Z-7.2195 I0.0000 J1.5850 F1000
G01 Y3.1816 Z-7.5000
G01 Y0.0000 Z-7.7805
G02 X143.1198 Y-1.5850 Z-8.0000 I-1.5850 J0.0000
G03 X144.7048 Y0.0000 I0.0000 J1.5850 F1200
G01 Y50.0000
G03 X143.1198 Y51.5850 I-1.5850 J0.0000
G01 X93.1198
G03 X91.5348 Y50.0000 I0.0000 J-1.5850
G01 Y0.0000
G03 X93.1198 Y-1.5850 I1.5850 J0.0000
G01 X143.1198
G03 X144.7048 Y0.0000 Z-8.2195 I0.0000 J1.5850 F1000
G01 Y3.1816 Z-8.5000
G01 Y0.0000 Z-8.7805
G02 X143.1198 Y-1.5850 Z-9.0000 I-1.5850 J0.0000
G03 X144.7048 Y0.0000 I0.0000 J1.5850 F1200
G01 Y50.0000
G03 X143.1198 Y51.5850 I-1.5850 J0.0000
G01 X93.1198
G03 X91.5348 Y50.0000 I0.0000 J-1.5850
G01 Y0.0000
G03 X93.1198 Y-1.5850 I1.5850 J0.0000
G01 X143.1198
G03 X144.7048 Y0.0000 Z-9.2195 I0.0000 J1.5850 F1000
G01 Y3.1816 Z-9.5000
G01 Y0.0000 Z-9.7805
G02 X143.1198 Y-1.5850 Z-10.0000 I-1.5850 J0.0000
G03 X144.7048 Y0.0000 I0.0000 J1.5850 F1200
G01 Y50.0000
G03 X143.1198 Y51.5850 I-1.5850 J0.0000
G01 X93.1198
G03 X91.5348 Y50.0000 I0.0000 J-1.5850
G01 Y0.0000
G03 X93.1198 Y-1.5850 I1.5850 J0.0000
G01 X143.1198
G03 X144.7048 Y0.0000 Z-10.2195 I0.0000 J1.5850 F1000
G01 Y3.1816 Z-10.5000
G01 Y0.0000 Z-10.7805
G02 X143.1198 Y-1.5850 Z-11.0000 I-1.5850 J0.0000
G03 X144.7048 Y0.0000 I0.0000 J1.5850 F1200
G01 Y50.0000
G03 X143.1198 Y51.5850 I-1.5850 J0.0000
G01 X93.1198
G03 X91.5348 Y50.0000 I0.0000 J-1.5850
G01 Y0.0000
G03 X93.1198 Y-1.5850 I1.5850 J0.0000
G01 X143.1198
G03 X144.7048 Y0.0000 Z-11.2195 I0.0000 J1.5850 F1000
G01 Y3.1816 Z-11.5000
G01 Y0.0000 Z-11.7805
G02 X143.1198 Y-1.5850 Z-12.0000 I-1.5850 J0.0000
G03 X144.7048 Y0.0000 I0.0000 J1.5850 F1200
G01 Y50.0000
G03 X143.1198 Y51.5850 I-1.5850 J0.0000
G01 X93.1198
G03 X91.5348 Y50.0000 I0.0000 J-1.5850
G01 Y0.0000
G03 X93.1198 Y-1.5850 I1.5850 J0.0000
G01 X143.1198
G03 X144.7048 Y0.0000 Z-12.2195 I0.0000 J1.5850 F1000
G01 Y3.1816 Z-12.5000
G01 Y0.0000 Z-12.7805
G02 X143.1198 Y-1.5850 Z-13.0000 I-1.5850 J0.0000
G03 X144.7048 Y0.0000 I0.0000 J1.5850 F1200
G01 Y50.0000
G03 X143.1198 Y51.5850 I-1.5850 J0.0000
G01 X93.1198
G03 X91.5348 Y50.0000 I0.0000 J-1.5850
G01 Y0.0000
G03 X93.1198 Y-1.5850 I1.5850 J0.0000
G01 X143.1198
G03 X144.7048 Y0.0000 Z-13.2195 I0.0000 J1.5850 F1000
G01 Y3.1816 Z-13.5000
G01 Y0.0000 Z-13.7805
G02 X143.1198 Y-1.5850 Z-14.0000 I-1.5850 J0.0000
G03 X144.7048 Y0.0000 I0.0000 J1.5850 F1200
G01 Y50.0000
G03 X143.1198 Y51.5850 I-1.5850 J0.0000
G01 X93.1198
G03 X91.5348 Y50.0000 I0.0000 J-1.5850
G01 Y0.0000
G03 X93.1198 Y-1.5850 I1.5850 J0.0000
G01 X143.1198
G03 X144.7048 Y0.0000 Z-14.2195 I0.0000 J1.5850 F1000
G01 Y3.1816 Z-14.5000
G01 Y0.0000 Z-14.7805
G02 X143.1198 Y-1.5850 Z-15.0000 I-1.5850 J0.0000
G03 X144.7048 Y0.0000 I0.0000 J1.5850 F1200
G01 Y50.0000
G03 X143.1198 Y51.5850 I-1.5850 J0.0000
G01 X93.1198
G03 X91.5348 Y50.0000 I0.0000 J-1.5850
G01 Y0.0000
G03 X93.1198 Y-1.5850 I1.5850 J0.0000
G01 X143.1198
G03 X144.7048 Y0.0000 Z-15.2195 I0.0000 J1.5850 F1000
G01 Y3.1816 Z-15.5000
G01 Y0.0000 Z-15.7805
G02 X143.1198 Y-1.5850 Z-16.0000 I-1.5850 J0.0000
G03 X144.7048 Y0.0000 I0.0000 J1.5850 F1200
G01 Y50.0000
G03 X143.1198 Y51.5850 I-1.5850 J0.0000
G01 X93.1198
G03 X91.5348 Y50.0000 I0.0000 J-1.5850
G01 Y0.0000
G03 X93.1198 Y-1.5850 I1.5850 J0.0000
G01 X143.1198
G03 X144.7048 Y0.0000 Z-16.2195 I0.0000 J1.5850 F1000
G01 Y3.1816 Z-16.5000
G01 Y0.0000 Z-16.7805
G02 X143.1198 Y-1.5850 Z-17.0000 I-1.5850 J0.0000
G03 X144.7048 Y0.0000 I0.0000 J1.5850 F1200
G01 Y50.0000
G03 X143.1198 Y51.5850 I-1.5850 J0.0000
G01 X93.1198
G03 X91.5348 Y50.0000 I0.0000 J-1.5850
G01 Y0.0000
G03 X93.1198 Y-1.5850 I1.5850 J0.0000
G01 X143.1198
G03 X144.7048 Y0.0000 Z-17.2195 I0.0000 J1.5850 F1000
G01 Y3.1816 Z-17.5000
G01 Y0.0000 Z-17.7805
G02 X143.1198 Y-1.5850 Z-18.0000 I-1.5850 J0.0000
G03 X144.7048 Y0.0000 I0.0000 J1.5850 F1200
G01 Y50.0000
G03 X143.1198 Y51.5850 I-1.5850 J0.0000
G01 X93.1198
G03 X91.5348 Y50.0000 I0.0000 J-1.5850
G01 Y0.0000
G03 X93.1198 Y-1.5850 I1.5850 J0.0000
G01 X143.1198
G03 X144.7048 Y0.0000 Z-18.2195 I0.0000 J1.5850 F1000
G01 Y3.1816 Z-18.5000
G01 Y0.0000 Z-18.7805
G02 X143.1198 Y-1.5850 Z-19.0000 I-1.5850 J0.0000
G03 X144.7048 Y0.0000 I0.0000 J1.5850 F1200
G01 Y50.0000
G03 X143.1198 Y51.5850 I-1.5850 J0.0000
G01 X93.1198
G03 X91.5348 Y50.0000 I0.0000 J-1.5850
G01 Y0.0000
G03 X93.1198 Y-1.5850 I1.5850 J0.0000
G01 X143.1198
G03 X144.7048 Y0.0000 Z-19.2195 I0.0000 J1.5850 F1000
G01 Y3.1816 Z-19.5000
G01 Y0.0000 Z-19.7805
G02 X143.1198 Y-1.5850 Z-20.0000 I-1.5850 J0.0000
G03 X144.7048 Y0.0000 I0.0000 J1.5850 F1200
G01 Y50.0000
G03 X143.1198 Y51.5850 I-1.5850 J0.0000
G01 X93.1198
G03 X91.5348 Y50.0000 I0.0000 J-1.5850
G01 Y0.0000
G03 X93.1198 Y-1.5850 I1.5850 J0.0000
G01 X143.1198
G00 Z5.0000
G00 X0.0000 Y0.0000

M05
