(Projekt Zeichnung)
(Erstellt mit Estlcam Version 11 Build 11,245)
(Laufzeit ca. 00:04:12 Stunden)

(Benötigte Werkzeuge:)
(Alu 1 Schneider)

M03 S27000
G00 Z5.0000


(Nr. 1 Teil: Teil 2)
G00 X120.2017 Y-1.5850
G00 Z0.5000
G01 Z0.0000 F1000 S27000
G01 X125.8730 Z-0.5000
G01 X120.2017 Z-1.0000
G01 X143.1198 F1200
G03 X144.7048 Y0.0000 I0.0000 J1.5850
G01 Y22.6225
G01 Y27.3775
G01 Y50.0000
G03 X143.1198 Y51.5850 I-1.5850 J0.0000
G01 X120.4973
G01 X115.7423
G01 X93.1198
G03 X91.5348 Y50.0000 I0.0000 J-1.5850
G01 Y29.3941
G01 Y24.6391
G01 Y0.0000
G03 X93.1198 Y-1.5850 I1.5850 J0.0000
G01 X115.4467
G01 X120.2017
G01 X125.8730 Z-1.5000 F1000
G01 X120.2017 Z-2.0000
G01 X143.1198 F1200
G03 X144.7048 Y0.0000 I0.0000 J1.5850
G01 Y22.6225
G01 Y27.3775
G01 Y50.0000
G03 X143.1198 Y51.5850 I-1.5850 J0.0000
G01 X120.4973
G01 X115.7423
G01 X93.1198
G03 X91.5348 Y50.0000 I0.0000 J-1.5850
G01 Y29.3941
G01 Y24.6391
G01 Y0.0000
G03 X93.1198 Y-1.5850 I1.5850 J0.0000
G01 X115.4467
G01 X120.2017
G01 X125.8730 Z-2.5000 F1000
G01 X120.2017 Z-3.0000
G01 X143.1198 F1200
G03 X144.7048 Y0.0000 I0.0000 J1.5850
G01 Y22.6225
G01 Y27.3775
G01 Y50.0000
G03 X143.1198 Y51.5850 I-1.5850 J0.0000
G01 X120.4973
G01 X115.7423
G01 X93.1198
G03 X91.5348 Y50.0000 I0.0000 J-1.5850
G01 Y29.3941
G01 Y24.6391
G01 Y0.0000
G03 X93.1198 Y-1.5850 I1.5850 J0.0000
G01 X115.4467
G01 X120.2017
G01 X125.8730 Z-3.5000 F1000
G01 X120.2017 Z-4.0000
G01 X143.1198 F1200
G03 X144.7048 Y0.0000 I0.0000 J1.5850
G01 Y22.6225
G01 Y27.3775
G01 Y50.0000
G03 X143.1198 Y51.5850 I-1.5850 J0.0000
G01 X120.4973
G01 X115.7423
G01 X93.1198
G03 X91.5348 Y50.0000 I0.0000 J-1.5850
G01 Y29.3941
G01 Y24.6391
G01 Y0.0000
G03 X93.1198 Y-1.5850 I1.5850 J0.0000
G01 X115.4467
G01 X120.2017
G01 X125.8730 Z-4.5000 F1000
G01 X120.2017 Z-5.0000
G01 X143.1198 F1200
G03 X144.7048 Y0.0000 I0.0000 J1.5850
G01 Y22.6225
G01 Y27.3775
G01 Y50.0000
G03 X143.1198 Y51.5850 I-1.5850 J0.0000
G01 X120.4973
G01 X115.7423
G01 X93.1198
G03 X91.5348 Y50.0000 I0.0000 J-1.5850
G01 Y29.3941
G01 Y24.6391
G01 Y0.0000
G03 X93.1198 Y-1.5850 I1.5850 J0.0000
G01 X115.4467
G01 X120.2017
G01 X125.8730 Z-5.5000 F1000
G01 X120.2017 Z-6.0000
G01 X143.1198 F1200
G03 X144.7048 Y0.0000 I0.0000 J1.5850
G01 Y22.6225
G01 Y27.3775
G01 Y50.0000
G03 X143.1198 Y51.5850 I-1.5850 J0.0000
G01 X120.4973
G01 X115.7423
G01 X93.1198
G03 X91.5348 Y50.0000 I0.0000 J-1.5850
G01 Y29.3941
G01 Y24.6391
G01 Y0.0000
G03 X93.1198 Y-1.5850 I1.5850 J0.0000
G01 X115.4467
G01 X120.2017
G01 X125.8730 Z-6.5000 F1000
G01 X120.2017 Z-7.0000
G01 X143.1198 F1200
G03 X144.7048 Y0.0000 I0.0000 J1.5850
G01 Y22.6225
G01 Y27.3775
G01 Y50.0000
G03 X143.1198 Y51.5850 I-1.5850 J0.0000
G01 X120.4973
G01 X115.7423
G01 X93.1198
G03 X91.5348 Y50.0000 I0.0000 J-1.5850
G01 Y29.3941
G01 Y24.6391
G01 Y0.0000
G03 X93.1198 Y-1.5850 I1.5850 J0.0000
G01 X115.4467
G01 X120.2017
G01 X125.8730 Z-7.5000 F1000
G01 X120.2017 Z-8.0000
G01 X143.1198 F1200
G03 X144.7048 Y0.0000 I0.0000 J1.5850
G01 Y22.6225
G01 Y27.3775
G01 Y50.0000
G03 X143.1198 Y51.5850 I-1.5850 J0.0000
G01 X120.4973
G01 X115.7423
G01 X93.1198
G03 X91.5348 Y50.0000 I0.0000 J-1.5850
G01 Y29.3941
G01 Y24.6391
G01 Y0.0000
G03 X93.1198 Y-1.5850 I1.5850 J0.0000
G01 X115.4467
G01 X120.2017
G01 X125.8730 Z-8.5000 F1000
G01 X120.2017 Z-9.0000
G01 X143.1198 F1200
G03 X144.7048 Y0.0000 I0.0000 J1.5850
G01 Y22.6225
G01 Y27.3775
G01 Y50.0000
G03 X143.1198 Y51.5850 I-1.5850 J0.0000
G01 X120.4973
G01 X115.7423
G01 X93.1198
G03 X91.5348 Y50.0000 I0.0000 J-1.5850
G01 Y29.3941
G01 Y24.6391
G01 Y0.0000
G03 X93.1198 Y-1.5850 I1.5850 J0.0000
G01 X115.4467
G01 X120.2017
G01 X125.8730 Z-9.5000 F1000
G01 X120.2017 Z-10.0000
G01 X143.1198 F1200
G03 X144.7048 Y0.0000 I0.0000 J1.5850
G01 Y22.6225
G01 Y27.3775
G01 Y50.0000
G03 X143.1198 Y51.5850 I-1.5850 J0.0000
G01 X120.4973
G01 X115.7423
G01 X93.1198
G03 X91.5348 Y50.0000 I0.0000 J-1.5850
G01 Y29.3941
G01 Y24.6391
G01 Y0.0000
G03 X93.1198 Y-1.5850 I1.5850 J0.0000
G01 X115.4467
G01 X120.2017
G01 X125.8730 Z-10.5000 F1000
G01 X120.2017 Z-11.0000
G01 X143.1198 F1200
G03 X144.7048 Y0.0000 I0.0000 J1.5850
G01 Y22.6225
G01 Y27.3775
G01 Y50.0000
G03 X143.1198 Y51.5850 I-1.5850 J0.0000
G01 X120.4973
G01 X115.7423
G01 X93.1198
G03 X91.5348 Y50.0000 I0.0000 J-1.5850
G01 Y29.3941
G01 Y24.6391
G01 Y0.0000
G03 X93.1198 Y-1.5850 I1.5850 J0.0000
G01 X115.4467
G01 X120.2017
G01 X125.8730 Z-11.5000 F1000
G01 X120.2017 Z-12.0000
G01 X143.1198 F1200
G03 X144.7048 Y0.0000 I0.0000 J1.5850
G01 Y22.6225
G01 Y27.3775
G01 Y50.0000
G03 X143.1198 Y51.5850 I-1.5850 J0.0000
G01 X120.4973
G01 X115.7423
G01 X93.1198
G03 X91.5348 Y50.0000 I0.0000 J-1.5850
G01 Y29.3941
G01 Y24.6391
G01 Y0.0000
G03 X93.1198 Y-1.5850 I1.5850 J0.0000
G01 X115.4467
G01 X120.2017
G01 X125.8730 Z-12.5000 F1000
G01 X120.2017 Z-13.0000
G01 X143.1198 F1200
G03 X144.7048 Y0.0000 I0.0000 J1.5850
G01 Y22.6225
G01 Y27.3775
G01 Y50.0000
G03 X143.1198 Y51.5850 I-1.5850 J0.0000
G01 X120.4973
G01 X115.7423
G01 X93.1198
G03 X91.5348 Y50.0000 I0.0000 J-1.5850
G01 Y29.3941
G01 Y24.6391
G01 Y0.0000
G03 X93.1198 Y-1.5850 I1.5850 J0.0000
G01 X115.4467
G01 X120.2017
G01 X125.8730 Z-13.5000 F1000
G01 X120.2017 Z-14.0000
G01 X143.1198 F1200
G03 X144.7048 Y0.0000 I0.0000 J1.5850
G01 Y22.6225
G01 Y27.3775
G01 Y50.0000
G03 X143.1198 Y51.5850 I-1.5850 J0.0000
G01 X120.4973
G01 X115.7423
G01 X93.1198
G03 X91.5348 Y50.0000 I0.0000 J-1.5850
G01 Y29.3941
G01 Y24.6391
G01 Y0.0000
G03 X93.1198 Y-1.5850 I1.5850 J0.0000
G01 X115.4467
G01 X120.2017
G01 X125.8730 Z-14.5000 F1000
G01 X120.2017 Z-15.0000
G01 X143.1198 F1200
G03 X144.7048 Y0.0000 I0.0000 J1.5850
G01 Y22.6225
G01 Y27.3775
G01 Y50.0000
G03 X143.1198 Y51.5850 I-1.5850 J0.0000
G01 X120.4973
G01 X115.7423
G01 X93.1198
G03 X91.5348 Y50.0000 I0.0000 J-1.5850
G01 Y29.3941
G01 Y24.6391
G01 Y0.0000
G03 X93.1198 Y-1.5850 I1.5850 J0.0000
G01 X115.4467
G01 X120.2017
G01 X125.8730 Z-15.5000 F1000
G01 X120.2017 Z-16.0000
G01 X143.1198 F1200
G03 X144.7048 Y0.0000 I0.0000 J1.5850
G01 Y22.6225
G00 Z-15.0000
G01 Y27.3775
G01 Y33.0488 Z-15.5000 F1000
G01 Y27.3775 Z-16.0000
G01 Y50.0000 F1200
G03 X143.1198 Y51.5850 I-1.5850 J0.0000
G01 X120.4973
G00 Z-15.0000
G01 X115.7423
G01 X110.0710 Z-15.5000 F1000
G01 X115.7423 Z-16.0000
G01 X93.1198 F1200
G03 X91.5348 Y50.0000 I0.0000 J-1.5850
G01 Y29.3941
G00 Z-15.0000
G01 Y24.6391
G01 Y18.9678 Z-15.5000 F1000
G01 Y24.6391 Z-16.0000
G01 Y0.0000 F1200
G03 X93.1198 Y-1.5850 I1.5850 J0.0000
G01 X115.4467
G00 Z-15.0000
G01 X120.2017
G00 Z-15.5000
G01 Z-16.0000 F1000
G01 X125.8730 Z-16.5000
G01 X120.2017 Z-17.0000
G01 X143.1198 F1200
G03 X144.7048 Y0.0000 I0.0000 J1.5850
G01 Y22.6225
G00 Z-15.0000
G01 Y27.3775
G00 Z-15.5000
G01 Z-16.0000 F1000
G01 Y33.0488 Z-16.5000
G01 Y27.3775 Z-17.0000
G01 Y50.0000 F1200
G03 X143.1198 Y51.5850 I-1.5850 J0.0000
G01 X120.4973
G00 Z-15.0000
G01 X115.7423
G00 Z-15.5000
G01 Z-16.0000 F1000
G01 X110.0710 Z-16.5000
G01 X115.7423 Z-17.0000
G01 X93.1198 F1200
G03 X91.5348 Y50.0000 I0.0000 J-1.5850
G01 Y29.3941
G00 Z-15.0000
G01 Y24.6391
G00 Z-15.5000
G01 Z-16.0000 F1000
G01 Y18.9678 Z-16.5000
G01 Y24.6391 Z-17.0000
G01 Y0.0000 F1200
G03 X93.1198 Y-1.5850 I1.5850 J0.0000
G01 X115.4467
G00 Z-15.0000
G01 X120.2017
G00 Z-16.5000
G01 Z-17.0000 F1000
G01 X125.8730 Z-17.5000
G01 X120.2017 Z-18.0000
G01 X143.1198 F1200
G03 X144.7048 Y0.0000 I0.0000 J1.5850
G01 Y22.6225
G00 Z-15.0000
G01 Y27.3775
G00 Z-16.5000
G01 Z-17.0000 F1000
G01 Y33.0488 Z-17.5000
G01 Y27.3775 Z-18.0000
G01 Y50.0000 F1200
G03 X143.1198 Y51.5850 I-1.5850 J0.0000
G01 X120.4973
G00 Z-15.0000
G01 X115.7423
G00 Z-16.5000
G01 Z-17.0000 F1000
G01 X110.0710 Z-17.5000
G01 X115.7423 Z-18.0000
G01 X93.1198 F1200
G03 X91.5348 Y50.0000 I0.0000 J-1.5850
G01 Y29.3941
G00 Z-15.0000
G01 Y24.6391
G00 Z-16.5000
G01 Z-17.0000 F1000
G01 Y18.9678 Z-17.5000
G01 Y24.6391 Z-18.0000
G01 Y0.0000 F1200
G03 X93.1198 Y-1.5850 I1.5850 J0.0000
G01 X115.4467
G00 Z-15.0000
G01 X120.2017
G00 Z-17.5000
G01 Z-18.0000 F1000
G01 X125.8730 Z-18.5000
G01 X120.2017 Z-19.0000
G01 X143.1198 F1200
G03 X144.7048 Y0.0000 I0.0000 J1.5850
G01 Y22.6225
G00 Z-15.0000
G01 Y27.3775
G00 Z-17.5000
G01 Z-18.0000 F1000
G01 Y33.0488 Z-18.5000
G01 Y27.3775 Z-19.0000
G01 Y50.0000 F1200
G03 X143.1198 Y51.5850 I-1.5850 J0.0000
G01 X120.4973
G00 Z-15.0000
G01 X115.7423
G00 Z-17.5000
G01 Z-18.0000 F1000
G01 X110.0710 Z-18.5000
G01 X115.7423 Z-19.0000
G01 X93.1198 F1200
G03 X91.5348 Y50.0000 I0.0000 J-1.5850
G01 Y29.3941
G00 Z-15.0000
G01 Y24.6391
G00 Z-17.5000
G01 Z-18.0000 F1000
G01 Y18.9678 Z-18.5000
G01 Y24.6391 Z-19.0000
G01 Y0.0000 F1200
G03 X93.1198 Y-1.5850 I1.5850 J0.0000
G01 X115.4467
G00 Z-15.0000
G01 X120.2017
G00 Z-18.5000
G01 Z-19.0000 F1000
G01 X125.8730 Z-19.5000
G01 X120.2017 Z-20.0000
G01 X143.1198 F1200
G03 X144.7048 Y0.0000 I0.0000 J1.5850
G01 Y22.6225
G00 Z-15.0000
G01 Y27.3775
G00 Z-18.5000
G01 Z-19.0000 F1000
G01 Y33.0488 Z-19.5000
G01 Y27.3775 Z-20.0000
G01 Y50.0000 F1200
G03 X143.1198 Y51.5850 I-1.5850 J0.0000
G01 X120.4973
G00 Z-15.0000
G01 X115.7423
G00 Z-18.5000
G01 Z-19.0000 F1000
G01 X110.0710 Z-19.5000
G01 X115.7423 Z-20.0000
G01 X93.1198 F1200
G03 X91.5348 Y50.0000 I0.0000 J-1.5850
G01 Y29.3941
G00 Z-15.0000
G01 Y24.6391
G00 Z-18.5000
G01 Z-19.0000 F1000
G01 Y18.9678 Z-19.5000
G01 Y24.6391 Z-20.0000
G01 Y0.0000 F1200
G03 X93.1198 Y-1.5850 I1.5850 J0.0000
G01 X115.4467
G00 Z-15.0000
G01 X120.2017
G00 Z5.0000
G00 X0.0000 Y0.0000

M05
