(Projekt Zeichnung)
(Erstellt mit Estlcam Version 11 Build 11,245)
(Laufzeit ca. 11:55:00 Stunden)

(Benötigte Werkzeuge:)
(Alu 1 Schneider)

M03 S27000
G00 Z5.0000


(Nr. 1 Tasche linear: Ausschnitt 3)
G00 X95.0218 Y1.9500
G00 Z0.5000
G01 Z0.0000 F1000 S27000
G01 X100.6930 Z-0.5000
G01 X95.0218 Z-1.0000
G01 X141.2178 F1200
G01 Y2.0000
G01 X95.0218
G01 Y2.0500
G01 X141.2178
G01 Y2.1000
G01 X95.0218
G01 Y2.1500
G01 X141.2178
G01 Y2.2000
G01 X95.0218
G01 Y2.2500
G01 X141.2178
G01 Y2.3000
G01 X95.0218
G01 Y2.3500
G01 X141.2178
G01 Y2.4000
G01 X95.0218
G01 Y2.4500
G01 X141.2178
G01 Y2.5000
G01 X95.0218
G01 Y2.5500
G01 X141.2178
G01 Y2.6000
G01 X95.0218
G01 Y2.6500
G01 X141.2178
G01 Y2.7000
G01 X95.0218
G01 Y2.7500
G01 X141.2178
G01 Y2.8000
G01 X95.0218
G01 Y2.8500
G01 X141.2178
G01 Y2.9000
G01 X95.0218
G01 Y2.9500
G01 X141.2178
G01 Y3.0000
G01 X95.0218
G01 Y3.0500
G01 X141.2178
G01 Y3.1000
G01 X95.0218
G01 Y3.1500
G01 X141.2178
G01 Y3.2000
G01 X95.0218
G01 Y3.2500
G01 X141.2178
G01 Y3.3000
G01 X95.0218
G01 Y3.3500
G01 X141.2178
G01 Y3.4000
G01 X95.0218
G01 Y3.4500
G01 X141.2178
G01 Y3.5000
G01 X95.0218
G01 Y3.5500
G01 X141.2178
G01 Y3.6000
G01 X95.0218
G01 Y3.6500
G01 X141.2178
G01 Y3.7000
G01 X95.0218
G01 Y3.7500
G01 X141.2178
G01 Y3.8000
G01 X95.0218
G01 Y3.8500
G01 X141.2178
G01 Y3.9000
G01 X95.0218
G01 Y3.9500
G01 X141.2178
G01 Y4.0000
G01 X95.0218
G01 Y4.0500
G01 X141.2178
G01 Y4.1000
G01 X95.0218
G01 Y4.1500
G01 X141.2178
G01 Y4.2000
G01 X95.0218
G01 Y4.2500
G01 X141.2178
G01 Y4.3000
G01 X95.0218
G01 Y4.3500
G01 X141.2178
G01 Y4.4000
G01 X95.0218
G01 Y4.4500
G01 X141.2178
G01 Y4.5000
G01 X95.0218
G01 Y4.5500
G01 X141.2178
G01 Y4.6000
G01 X95.0218
G01 Y4.6500
G01 X141.2178
G01 Y4.7000
G01 X95.0218
G01 Y4.7500
G01 X141.2178
G01 Y4.8000
G01 X95.0218
G01 Y4.8500
G01 X141.2178
G01 Y4.9000
G01 X95.0218
G01 Y4.9500
G01 X141.2178
G01 Y5.0000
G01 X95.0218
G01 Y5.0500
G01 X141.2178
G01 Y5.1000
G01 X95.0218
G01 Y5.1500
G01 X141.2178
G01 Y5.2000
G01 X95.0218
G01 Y5.2500
G01 X141.2178
G01 Y5.3000
G01 X95.0218
G01 Y5.3500
G01 X141.2178
G01 Y5.4000
G01 X95.0218
G01 Y5.4500
G01 X141.2178
G01 Y5.5000
G01 X95.0218
G01 Y5.5500
G01 X141.2178
G01 Y5.6000
G01 X95.0218
G01 Y5.6500
G01 X141.2178
G01 Y5.7000
G01 X95.0218
G01 Y5.7500
G01 X141.2178
G01 Y5.8000
G01 X95.0218
G01 Y5.8500
G01 X141.2178
G01 Y5.9000
G01 X95.0218
G01 Y5.9500
G01 X141.2178
G01 Y6.0000
G01 X95.0218
G01 Y6.0500
G01 X141.2178
G01 Y6.1000
G01 X95.0218
G01 Y6.1500
G01 X141.2178
G01 Y6.2000
G01 X95.0218
G01 Y6.2500
G01 X141.2178
G01 Y6.3000
G01 X95.0218
G01 Y6.3500
G01 X141.2178
G01 Y6.4000
G01 X95.0218
G01 Y6.4500
G01 X141.2178
G01 Y6.5000
G01 X95.0218
G01 Y6.5500
G01 X141.2178
G01 Y6.6000
G01 X95.0218
G01 Y6.6500
G01 X141.2178
G01 Y6.7000
G01 X95.0218
G01 Y6.7500
G01 X141.2178
G01 Y6.8000
G01 X95.0218
G01 Y6.8500
G01 X141.2178
G01 Y6.9000
G01 X95.0218
G01 Y6.9500
G01 X141.2178
G01 Y7.0000
G01 X95.0218
G01 Y7.0500
G01 X141.2178
G01 Y7.1000
G01 X95.0218
G01 Y7.1500
G01 X141.2178
G01 Y7.2000
G01 X95.0218
G01 Y7.2500
G01 X141.2178
G01 Y7.3000
G01 X95.0218
G01 Y7.3500
G01 X141.2178
G01 Y7.4000
G01 X95.0218
G01 Y7.4500
G01 X141.2178
G01 Y7.5000
G01 X95.0218
G01 Y7.5500
G01 X141.2178
G01 Y7.6000
G01 X95.0218
G01 Y7.6500
G01 X141.2178
G01 Y7.7000
G01 X95.0218
G01 Y7.7500
G01 X141.2178
G01 Y7.8000
G01 X95.0218
G01 Y7.8500
G01 X141.2178
G01 Y7.9000
G01 X95.0218
G01 Y7.9500
G01 X141.2178
G01 Y8.0000
G01 X95.0218
G01 Y8.0500
G01 X141.2178
G01 Y8.1000
G01 X95.0218
G01 Y8.1500
G01 X141.2178
G01 Y8.2000
G01 X95.0218
G01 Y8.2500
G01 X141.2178
G01 Y8.3000
G01 X95.0218
G01 Y8.3500
G01 X141.2178
G01 Y8.4000
G01 X95.0218
G01 Y8.4500
G01 X141.2178
G01 Y8.5000
G01 X95.0218
G01 Y8.5500
G01 X141.2178
G01 Y8.6000
G01 X95.0218
G01 Y8.6500
G01 X141.2178
G01 Y8.7000
G01 X95.0218
G01 Y8.7500
G01 X141.2178
G01 Y8.8000
G01 X95.0218
G01 Y8.8500
G01 X141.2178
G01 Y8.9000
G01 X95.0218
G01 Y8.9500
G01 X141.2178
G01 Y9.0000
G01 X95.0218
G01 Y9.0500
G01 X141.2178
G01 Y9.1000
G01 X95.0218
G01 Y9.1500
G01 X141.2178
G01 Y9.2000
G01 X95.0218
G01 Y9.2500
G01 X141.2178
G01 Y9.3000
G01 X95.0218
G01 Y9.3500
G01 X141.2178
G01 Y9.4000
G01 X95.0218
G01 Y9.4500
G01 X141.2178
G01 Y9.5000
G01 X95.0218
G01 Y9.5500
G01 X141.2178
G01 Y9.6000
G01 X95.0218
G01 Y9.6500
G01 X141.2178
G01 Y9.7000
G01 X95.0218
G01 Y9.7500
G01 X141.2178
G01 Y9.8000
G01 X95.0218
G01 Y9.8500
G01 X141.2178
G01 Y9.9000
G01 X95.0218
G01 Y9.9500
G01 X141.2178
G01 Y10.0000
G01 X95.0218
G01 Y10.0500
G01 X141.2178
G01 Y10.1000
G01 X95.0218
G01 Y10.1500
G01 X141.2178
G01 Y10.2000
G01 X95.0218
G01 Y10.2500
G01 X141.2178
G01 Y10.3000
G01 X95.0218
G01 Y10.3500
G01 X141.2178
G01 Y10.4000
G01 X95.0218
G01 Y10.4500
G01 X141.2178
G01 Y10.5000
G01 X95.0218
G01 Y10.5500
G01 X141.2178
G01 Y10.6000
G01 X95.0218
G01 Y10.6500
G01 X141.2178
G01 Y10.7000
G01 X95.0218
G01 Y10.7500
G01 X141.2178
G01 Y10.8000
G01 X95.0218
G01 Y10.8500
G01 X141.2178
G01 Y10.9000
G01 X95.0218
G01 Y10.9500
G01 X141.2178
G01 Y11.0000
G01 X95.0218
G01 Y11.0500
G01 X141.2178
G01 Y11.1000
G01 X95.0218
G01 Y11.1500
G01 X141.2178
G01 Y11.2000
G01 X95.0218
G01 Y11.2500
G01 X141.2178
G01 Y11.3000
G01 X95.0218
G01 Y11.3500
G01 X141.2178
G01 Y11.4000
G01 X95.0218
G01 Y11.4500
G01 X141.2178
G01 Y11.5000
G01 X95.0218
G01 Y11.5500
G01 X141.2178
G01 Y11.6000
G01 X95.0218
G01 Y11.6500
G01 X141.2178
G01 Y11.7000
G01 X95.0218
G01 Y11.7500
G01 X141.2178
G01 Y11.8000
G01 X95.0218
G01 Y11.8500
G01 X141.2178
G01 Y11.9000
G01 X95.0218
G01 Y11.9500
G01 X141.2178
G01 Y12.0000
G01 X95.0218
G01 Y12.0500
G01 X141.2178
G01 Y12.1000
G01 X95.0218
G01 Y12.1500
G01 X141.2178
G01 Y12.2000
G01 X95.0218
G01 Y12.2500
G01 X141.2178
G01 Y12.3000
G01 X95.0218
G01 Y12.3500
G01 X141.2178
G01 Y12.4000
G01 X95.0218
G01 Y12.4500
G01 X141.2178
G01 Y12.5000
G01 X95.0218
G01 Y12.5500
G01 X141.2178
G01 Y12.6000
G01 X95.0218
G01 Y12.6500
G01 X141.2178
G01 Y12.7000
G01 X95.0218
G01 Y12.7500
G01 X141.2178
G01 Y12.8000
G01 X95.0218
G01 Y12.8500
G01 X141.2178
G01 Y12.9000
G01 X95.0218
G01 Y12.9500
G01 X141.2178
G01 Y13.0000
G01 X95.0218
G01 Y13.0500
G01 X141.2178
G01 Y13.1000
G01 X95.0218
G01 Y13.1500
G01 X141.2178
G01 Y13.2000
G01 X95.0218
G01 Y13.2500
G01 X141.2178
G01 Y13.3000
G01 X95.0218
G01 Y13.3500
G01 X141.2178
G01 Y13.4000
G01 X95.0218
G01 Y13.4500
G01 X141.2178
G01 Y13.5000
G01 X95.0218
G01 Y13.5500
G01 X141.2178
G01 Y13.6000
G01 X95.0218
G01 Y13.6500
G01 X141.2178
G01 Y13.7000
G01 X95.0218
G01 Y13.7500
G01 X141.2178
G01 Y13.8000
G01 X95.0218
G01 Y13.8500
G01 X141.2178
G01 Y13.9000
G01 X95.0218
G01 Y13.9500
G01 X141.2178
G01 Y14.0000
G01 X95.0218
G01 Y14.0500
G01 X141.2178
G01 Y14.1000
G01 X95.0218
G01 Y14.1500
G01 X141.2178
G01 Y14.2000
G01 X95.0218
G01 Y14.2500
G01 X141.2178
G01 Y14.3000
G01 X95.0218
G01 Y14.3500
G01 X141.2178
G01 Y14.4000
G01 X95.0218
G01 Y14.4500
G01 X141.2178
G01 Y14.5000
G01 X95.0218
G01 Y14.5500
G01 X141.2178
G01 Y14.6000
G01 X95.0218
G01 Y14.6500
G01 X141.2178
G01 Y14.7000
G01 X95.0218
G01 Y14.7500
G01 X141.2178
G01 Y14.8000
G01 X95.0218
G01 Y14.8500
G01 X141.2178
G01 Y14.9000
G01 X95.0218
G01 Y14.9500
G01 X141.2178
G01 Y15.0000
G01 X95.0218
G01 Y15.0500
G01 X141.2178
G01 Y15.1000
G01 X95.0218
G01 Y15.1500
G01 X141.2178
G01 Y15.2000
G01 X95.0218
G01 Y15.2500
G01 X141.2178
G01 Y15.3000
G01 X95.0218
G01 Y15.3500
G01 X141.2178
G01 Y15.4000
G01 X95.0218
G01 Y15.4500
G01 X141.2178
G01 Y15.5000
G01 X95.0218
G01 Y15.5500
G01 X141.2178
G01 Y15.6000
G01 X95.0218
G01 Y15.6500
G01 X141.2178
G01 Y15.7000
G01 X95.0218
G01 Y15.7500
G01 X141.2178
G01 Y15.8000
G01 X95.0218
G01 Y15.8500
G01 X141.2178
G01 Y15.9000
G01 X95.0218
G01 Y15.9500
G01 X141.2178
G01 Y16.0000
G01 X95.0218
G01 Y16.0500
G01 X141.2178
G01 Y16.1000
G01 X95.0218
G01 Y16.1500
G01 X141.2178
G01 Y16.2000
G01 X95.0218
G01 Y16.2500
G01 X141.2178
G01 Y16.3000
G01 X95.0218
G01 Y16.3500
G01 X141.2178
G01 Y16.4000
G01 X95.0218
G01 Y16.4500
G01 X141.2178
G01 Y16.5000
G01 X95.0218
G01 Y16.5500
G01 X141.2178
G01 Y16.6000
G01 X95.0218
G01 Y16.6500
G01 X141.2178
G01 Y16.7000
G01 X95.0218
G01 Y16.7500
G01 X141.2178
G01 Y16.8000
G01 X95.0218
G01 Y16.8500
G01 X141.2178
G01 Y16.9000
G01 X95.0218
G01 Y16.9500
G01 X141.2178
G01 Y17.0000
G01 X95.0218
G01 Y17.0500
G01 X141.2178
G01 Y17.1000
G01 X95.0218
G01 Y17.1500
G01 X141.2178
G01 Y17.2000
G01 X95.0218
G01 Y17.2500
G01 X141.2178
G01 Y17.3000
G01 X95.0218
G01 Y17.3500
G01 X141.2178
G01 Y17.4000
G01 X95.0218
G01 Y17.4500
G01 X141.2178
G01 Y17.5000
G01 X95.0218
G01 Y17.5500
G01 X141.2178
G01 Y17.6000
G01 X95.0218
G01 Y17.6500
G01 X141.2178
G01 Y17.7000
G01 X95.0218
G01 Y17.7500
G01 X141.2178
G01 Y17.8000
G01 X95.0218
G01 Y17.8500
G01 X141.2178
G01 Y17.9000
G01 X95.0218
G01 Y17.9500
G01 X141.2178
G01 Y18.0000
G01 X95.0218
G01 Y18.0500
G01 X141.2178
G01 Y18.1000
G01 X95.0218
G01 Y18.1500
G01 X141.2178
G01 Y18.2000
G01 X95.0218
G01 Y18.2500
G01 X141.2178
G01 Y18.3000
G01 X95.0218
G01 Y18.3500
G01 X141.2178
G01 Y18.4000
G01 X95.0218
G01 Y18.4500
G01 X141.2178
G01 Y18.5000
G01 X95.0218
G01 Y18.5500
G01 X141.2178
G01 Y18.6000
G01 X95.0218
G01 Y18.6500
G01 X141.2178
G01 Y18.7000
G01 X95.0218
G01 Y18.7500
G01 X141.2178
G01 Y18.8000
G01 X95.0218
G01 Y18.8500
G01 X141.2178
G01 Y18.9000
G01 X95.0218
G01 Y18.9500
G01 X141.2178
G01 Y19.0000
G01 X95.0218
G01 Y19.0500
G01 X141.2178
G01 Y19.1000
G01 X95.0218
G01 Y19.1500
G01 X141.2178
G01 Y19.2000
G01 X95.0218
G01 Y19.2500
G01 X141.2178
G01 Y19.3000
G01 X95.0218
G01 Y19.3500
G01 X141.2178
G01 Y19.4000
G01 X95.0218
G01 Y19.4500
G01 X141.2178
G01 Y19.5000
G01 X95.0218
G01 Y19.5500
G01 X141.2178
G01 Y19.6000
G01 X95.0218
G01 Y19.6500
G01 X141.2178
G01 Y19.7000
G01 X95.0218
G01 Y19.7500
G01 X141.2178
G01 Y19.8000
G01 X95.0218
G01 Y19.8500
G01 X141.2178
G01 Y19.9000
G01 X95.0218
G01 Y19.9500
G01 X141.2178
G01 Y20.0000
G01 X95.0218
G01 Y20.0500
G01 X141.2178
G01 Y20.1000
G01 X95.0218
G01 Y20.1500
G01 X141.2178
G01 Y20.2000
G01 X95.0218
G01 Y20.2500
G01 X141.2178
G01 Y20.3000
G01 X95.0218
G01 Y20.3500
G01 X141.2178
G01 Y20.4000
G01 X95.0218
G01 Y20.4500
G01 X141.2178
G01 Y20.5000
G01 X95.0218
G01 Y20.5500
G01 X141.2178
G01 Y20.6000
G01 X95.0218
G01 Y20.6500
G01 X141.2178
G01 Y20.7000
G01 X95.0218
G01 Y20.7500
G01 X141.2178
G01 Y20.8000
G01 X95.0218
G01 Y20.8500
G01 X141.2178
G01 Y20.9000
G01 X95.0218
G01 Y20.9500
G01 X141.2178
G01 Y21.0000
G01 X95.0218
G01 Y21.0500
G01 X141.2178
G01 Y21.1000
G01 X95.0218
G01 Y21.1500
G01 X141.2178
G01 Y21.2000
G01 X95.0218
G01 Y21.2500
G01 X141.2178
G01 Y21.3000
G01 X95.0218
G01 Y21.3500
G01 X141.2178
G01 Y21.4000
G01 X95.0218
G01 Y21.4500
G01 X141.2178
G01 Y21.5000
G01 X95.0218
G01 Y21.5500
G01 X141.2178
G01 Y21.6000
G01 X95.0218
G01 Y21.6500
G01 X141.2178
G01 Y21.7000
G01 X95.0218
G01 Y21.7500
G01 X141.2178
G01 Y21.8000
G01 X95.0218
G01 Y21.8500
G01 X141.2178
G01 Y21.9000
G01 X95.0218
G01 Y21.9500
G01 X141.2178
G01 Y22.0000
G01 X95.0218
G01 Y22.0500
G01 X141.2178
G01 Y22.1000
G01 X95.0218
G01 Y22.1500
G01 X141.2178
G01 Y22.2000
G01 X95.0218
G01 Y22.2500
G01 X141.2178
G01 Y22.3000
G01 X95.0218
G01 Y22.3500
G01 X141.2178
G01 Y22.4000
G01 X95.0218
G01 Y22.4500
G01 X141.2178
G01 Y22.5000
G01 X95.0218
G01 Y22.5500
G01 X141.2178
G01 Y22.6000
G01 X95.0218
G01 Y22.6500
G01 X141.2178
G01 Y22.7000
G01 X95.0218
G01 Y22.7500
G01 X141.2178
G01 Y22.8000
G01 X95.0218
G01 Y22.8500
G01 X141.2178
G01 Y22.9000
G01 X95.0218
G01 Y22.9500
G01 X141.2178
G01 Y23.0000
G01 X95.0218
G01 Y23.0500
G01 X141.2178
G01 Y23.1000
G01 X95.0218
G01 Y23.1500
G01 X141.2178
G01 Y23.2000
G01 X95.0218
G01 Y23.2500
G01 X141.2178
G01 Y23.3000
G01 X95.0218
G01 Y23.3500
G01 X141.2178
G01 Y23.4000
G01 X95.0218
G01 Y23.4500
G01 X141.2178
G01 Y23.5000
G01 X95.0218
G01 Y23.5500
G01 X141.2178
G01 Y23.6000
G01 X95.0218
G01 Y23.6500
G01 X141.2178
G01 Y23.7000
G01 X95.0218
G01 Y23.7500
G01 X141.2178
G01 Y23.8000
G01 X95.0218
G01 Y23.8500
G01 X141.2178
G01 Y23.9000
G01 X95.0218
G01 Y23.9500
G01 X141.2178
G01 Y24.0000
G01 X95.0218
G01 Y24.0500
G01 X141.2178
G01 Y24.1000
G01 X95.0218
G01 Y24.1500
G01 X141.2178
G01 Y24.2000
G01 X95.0218
G01 Y24.2500
G01 X141.2178
G01 Y24.3000
G01 X95.0218
G01 Y24.3500
G01 X141.2178
G01 Y24.4000
G01 X95.0218
G01 Y24.4500
G01 X141.2178
G01 Y24.5000
G01 X95.0218
G01 Y24.5500
G01 X141.2178
G01 Y24.6000
G01 X95.0218
G01 Y24.6500
G01 X141.2178
G01 Y24.7000
G01 X95.0218
G01 Y24.7500
G01 X141.2178
G01 Y24.8000
G01 X95.0218
G01 Y24.8500
G01 X141.2178
G01 Y24.9000
G01 X95.0218
G01 Y24.9500
G01 X141.2178
G01 Y25.0000
G01 X95.0218
G01 Y25.0500
G01 X141.2178
G01 Y25.1000
G01 X95.0218
G01 Y25.1500
G01 X141.2178
G01 Y25.2000
G01 X95.0218
G01 Y25.2500
G01 X141.2178
G01 Y25.3000
G01 X95.0218
G01 Y25.3500
G01 X141.2178
G01 Y25.4000
G01 X95.0218
G01 Y25.4500
G01 X141.2178
G01 Y25.5000
G01 X95.0218
G01 Y25.5500
G01 X141.2178
G01 Y25.6000
G01 X95.0218
G01 Y25.6500
G01 X141.2178
G01 Y25.7000
G01 X95.0218
G01 Y25.7500
G01 X141.2178
G01 Y25.8000
G01 X95.0218
G01 Y25.8500
G01 X141.2178
G01 Y25.9000
G01 X95.0218
G01 Y25.9500
G01 X141.2178
G01 Y26.0000
G01 X95.0218
G01 Y26.0500
G01 X141.2178
G01 Y26.1000
G01 X95.0218
G01 Y26.1500
G01 X141.2178
G01 Y26.2000
G01 X95.0218
G01 Y26.2500
G01 X141.2178
G01 Y26.3000
G01 X95.0218
G01 Y26.3500
G01 X141.2178
G01 Y26.4000
G01 X95.0218
G01 Y26.4500
G01 X141.2178
G01 Y26.5000
G01 X95.0218
G01 Y26.5500
G01 X141.2178
G01 Y26.6000
G01 X95.0218
G01 Y26.6500
G01 X141.2178
G01 Y26.7000
G01 X95.0218
G01 Y26.7500
G01 X141.2178
G01 Y26.8000
G01 X95.0218
G01 Y26.8500
G01 X141.2178
G01 Y26.9000
G01 X95.0218
G01 Y26.9500
G01 X141.2178
G01 Y27.0000
G01 X95.0218
G01 Y27.0500
G01 X141.2178
G01 Y27.1000
G01 X95.0218
G01 Y27.1500
G01 X141.2178
G01 Y27.2000
G01 X95.0218
G01 Y27.2500
G01 X141.2178
G01 Y27.3000
G01 X95.0218
G01 Y27.3500
G01 X141.2178
G01 Y27.4000
G01 X95.0218
G01 Y27.4500
G01 X141.2178
G01 Y27.5000
G01 X95.0218
G01 Y27.5500
G01 X141.2178
G01 Y27.6000
G01 X95.0218
G01 Y27.6500
G01 X141.2178
G01 Y27.7000
G01 X95.0218
G01 Y27.7500
G01 X141.2178
G01 Y27.8000
G01 X95.0218
G01 Y27.8500
G01 X141.2178
G01 Y27.9000
G01 X95.0218
G01 Y27.9500
G01 X141.2178
G01 Y28.0000
G01 X95.0218
G01 Y28.0500
G01 X141.2178
G01 Y28.1000
G01 X95.0218
G01 Y28.1500
G01 X141.2178
G01 Y28.2000
G01 X95.0218
G01 Y28.2500
G01 X141.2178
G01 Y28.3000
G01 X95.0218
G01 Y28.3500
G01 X141.2178
G01 Y28.4000
G01 X95.0218
G01 Y28.4500
G01 X141.2178
G01 Y28.5000
G01 X95.0218
G01 Y28.5500
G01 X141.2178
G01 Y28.6000
G01 X95.0218
G01 Y28.6500
G01 X141.2178
G01 Y28.7000
G01 X95.0218
G01 Y28.7500
G01 X141.2178
G01 Y28.8000
G01 X95.0218
G01 Y28.8500
G01 X141.2178
G01 Y28.9000
G01 X95.0218
G01 Y28.9500
G01 X141.2178
G01 Y29.0000
G01 X95.0218
G01 Y29.0500
G01 X141.2178
G01 Y29.1000
G01 X95.0218
G01 Y29.1500
G01 X141.2178
G01 Y29.2000
G01 X95.0218
G01 Y29.2500
G01 X141.2178
G01 Y29.3000
G01 X95.0218
G01 Y29.3500
G01 X141.2178
G01 Y29.4000
G01 X95.0218
G01 Y29.4500
G01 X141.2178
G01 Y29.5000
G01 X95.0218
G01 Y29.5500
G01 X141.2178
G01 Y29.6000
G01 X95.0218
G01 Y29.6500
G01 X141.2178
G01 Y29.7000
G01 X95.0218
G01 Y29.7500
G01 X141.2178
G01 Y29.8000
G01 X95.0218
G01 Y29.8500
G01 X141.2178
G01 Y29.9000
G01 X95.0218
G01 Y29.9500
G01 X141.2178
G01 Y30.0000
G01 X95.0218
G01 Y30.0500
G01 X141.2178
G01 Y30.1000
G01 X95.0218
G01 Y30.1500
G01 X141.2178
G01 Y30.2000
G01 X95.0218
G01 Y30.2500
G01 X141.2178
G01 Y30.3000
G01 X95.0218
G01 Y30.3500
G01 X141.2178
G01 Y30.4000
G01 X95.0218
G01 Y30.4500
G01 X141.2178
G01 Y30.5000
G01 X95.0218
G01 Y30.5500
G01 X141.2178
G01 Y30.6000
G01 X95.0218
G01 Y30.6500
G01 X141.2178
G01 Y30.7000
G01 X95.0218
G01 Y30.7500
G01 X141.2178
G01 Y30.8000
G01 X95.0218
G01 Y30.8500
G01 X141.2178
G01 Y30.9000
G01 X95.0218
G01 Y30.9500
G01 X141.2178
G01 Y31.0000
G01 X95.0218
G01 Y31.0500
G01 X141.2178
G01 Y31.1000
G01 X95.0218
G01 Y31.1500
G01 X141.2178
G01 Y31.2000
G01 X95.0218
G01 Y31.2500
G01 X141.2178
G01 Y31.3000
G01 X95.0218
G01 Y31.3500
G01 X141.2178
G01 Y31.4000
G01 X95.0218
G01 Y31.4500
G01 X141.2178
G01 Y31.5000
G01 X95.0218
G01 Y31.5500
G01 X141.2178
G01 Y31.6000
G01 X95.0218
G01 Y31.6500
G01 X141.2178
G01 Y31.7000
G01 X95.0218
G01 Y31.7500
G01 X141.2178
G01 Y31.8000
G01 X95.0218
G01 Y31.8500
G01 X141.2178
G01 Y31.9000
G01 X95.0218
G01 Y31.9500
G01 X141.2178
G01 Y32.0000
G01 X95.0218
G01 Y32.0500
G01 X141.2178
G01 Y32.1000
G01 X95.0218
G01 Y32.1500
G01 X141.2178
G01 Y32.2000
G01 X95.0218
G01 Y32.2500
G01 X141.2178
G01 Y32.3000
G01 X95.0218
G01 Y32.3500
G01 X141.2178
G01 Y32.4000
G01 X95.0218
G01 Y32.4500
G01 X141.2178
G01 Y32.5000
G01 X95.0218
G01 Y32.5500
G01 X141.2178
G01 Y32.6000
G01 X95.0218
G01 Y32.6500
G01 X141.2178
G01 Y32.7000
G01 X95.0218
G01 Y32.7500
G01 X141.2178
G01 Y32.8000
G01 X95.0218
G01 Y32.8500
G01 X141.2178
G01 Y32.9000
G01 X95.0218
G01 Y32.9500
G01 X141.2178
G01 Y33.0000
G01 X95.0218
G01 Y33.0500
G01 X141.2178
G01 Y33.1000
G01 X95.0218
G01 Y33.1500
G01 X141.2178
G01 Y33.2000
G01 X95.0218
G01 Y33.2500
G01 X141.2178
G01 Y33.3000
G01 X95.0218
G01 Y33.3500
G01 X141.2178
G01 Y33.4000
G01 X95.0218
G01 Y33.4500
G01 X141.2178
G01 Y33.5000
G01 X95.0218
G01 Y33.5500
G01 X141.2178
G01 Y33.6000
G01 X95.0218
G01 Y33.6500
G01 X141.2178
G01 Y33.7000
G01 X95.0218
G01 Y33.7500
G01 X141.2178
G01 Y33.8000
G01 X95.0218
G01 Y33.8500
G01 X141.2178
G01 Y33.9000
G01 X95.0218
G01 Y33.9500
G01 X141.2178
G01 Y34.0000
G01 X95.0218
G01 Y34.0500
G01 X141.2178
G01 Y34.1000
G01 X95.0218
G01 Y34.1500
G01 X141.2178
G01 Y34.2000
G01 X95.0218
G01 Y34.2500
G01 X141.2178
G01 Y34.3000
G01 X95.0218
G01 Y34.3500
G01 X141.2178
G01 Y34.4000
G01 X95.0218
G01 Y34.4500
G01 X141.2178
G01 Y34.5000
G01 X95.0218
G01 Y34.5500
G01 X141.2178
G01 Y34.6000
G01 X95.0218
G01 Y34.6500
G01 X141.2178
G01 Y34.7000
G01 X95.0218
G01 Y34.7500
G01 X141.2178
G01 Y34.8000
G01 X95.0218
G01 Y34.8500
G01 X141.2178
G01 Y34.9000
G01 X95.0218
G01 Y34.9500
G01 X141.2178
G01 Y35.0000
G01 X95.0218
G01 Y35.0500
G01 X141.2178
G01 Y35.1000
G01 X95.0218
G01 Y35.1500
G01 X141.2178
G01 Y35.2000
G01 X95.0218
G01 Y35.2500
G01 X141.2178
G01 Y35.3000
G01 X95.0218
G01 Y35.3500
G01 X141.2178
G01 Y35.4000
G01 X95.0218
G01 Y35.4500
G01 X141.2178
G01 Y35.5000
G01 X95.0218
G01 Y35.5500
G01 X141.2178
G01 Y35.6000
G01 X95.0218
G01 Y35.6500
G01 X141.2178
G01 Y35.7000
G01 X95.0218
G01 Y35.7500
G01 X141.2178
G01 Y35.8000
G01 X95.0218
G01 Y35.8500
G01 X141.2178
G01 Y35.9000
G01 X95.0218
G01 Y35.9500
G01 X141.2178
G01 Y36.0000
G01 X95.0218
G01 Y36.0500
G01 X141.2178
G01 Y36.1000
G01 X95.0218
G01 Y36.1500
G01 X141.2178
G01 Y36.2000
G01 X95.0218
G01 Y36.2500
G01 X141.2178
G01 Y36.3000
G01 X95.0218
G01 Y36.3500
G01 X141.2178
G01 Y36.4000
G01 X95.0218
G01 Y36.4500
G01 X141.2178
G01 Y36.5000
G01 X95.0218
G01 Y36.5500
G01 X141.2178
G01 Y36.6000
G01 X95.0218
G01 Y36.6500
G01 X141.2178
G01 Y36.7000
G01 X95.0218
G01 Y36.7500
G01 X141.2178
G01 Y36.8000
G01 X95.0218
G01 Y36.8500
G01 X141.2178
G01 Y36.9000
G01 X95.0218
G01 Y36.9500
G01 X141.2178
G01 Y37.0000
G01 X95.0218
G01 Y37.0500
G01 X141.2178
G01 Y37.1000
G01 X95.0218
G01 Y37.1500
G01 X141.2178
G01 Y37.2000
G01 X95.0218
G01 Y37.2500
G01 X141.2178
G01 Y37.3000
G01 X95.0218
G01 Y37.3500
G01 X141.2178
G01 Y37.4000
G01 X95.0218
G01 Y37.4500
G01 X141.2178
G01 Y37.5000
G01 X95.0218
G01 Y37.5500
G01 X141.2178
G01 Y37.6000
G01 X95.0218
G01 Y37.6500
G01 X141.2178
G01 Y37.7000
G01 X95.0218
G01 Y37.7500
G01 X141.2178
G01 Y37.8000
G01 X95.0218
G01 Y37.8500
G01 X141.2178
G01 Y37.9000
G01 X95.0218
G01 Y37.9500
G01 X141.2178
G01 Y38.0000
G01 X95.0218
G01 Y38.0500
G01 X141.2178
G01 Y38.1000
G01 X95.0218
G01 Y38.1500
G01 X141.2178
G01 Y38.2000
G01 X95.0218
G01 Y38.2500
G01 X141.2178
G01 Y38.3000
G01 X95.0218
G01 Y38.3500
G01 X141.2178
G01 Y38.4000
G01 X95.0218
G01 Y38.4500
G01 X141.2178
G01 Y38.5000
G01 X95.0218
G01 Y38.5500
G01 X141.2178
G01 Y38.6000
G01 X95.0218
G01 Y38.6500
G01 X141.2178
G01 Y38.7000
G01 X95.0218
G01 Y38.7500
G01 X141.2178
G01 Y38.8000
G01 X95.0218
G01 Y38.8500
G01 X141.2178
G01 Y38.9000
G01 X95.0218
G01 Y38.9500
G01 X141.2178
G01 Y39.0000
G01 X95.0218
G01 Y39.0500
G01 X141.2178
G01 Y39.1000
G01 X95.0218
G01 Y39.1500
G01 X141.2178
G01 Y39.2000
G01 X95.0218
G01 Y39.2500
G01 X141.2178
G01 Y39.3000
G01 X95.0218
G01 Y39.3500
G01 X141.2178
G01 Y39.4000
G01 X95.0218
G01 Y39.4500
G01 X141.2178
G01 Y39.5000
G01 X95.0218
G01 Y39.5500
G01 X141.2178
G01 Y39.6000
G01 X95.0218
G01 Y39.6500
G01 X141.2178
G01 Y39.7000
G01 X95.0218
G01 Y39.7500
G01 X141.2178
G01 Y39.8000
G01 X95.0218
G01 Y39.8500
G01 X141.2178
G01 Y39.9000
G01 X95.0218
G01 Y39.9500
G01 X141.2178
G01 Y40.0000
G01 X95.0218
G01 Y40.0500
G01 X141.2178
G01 Y40.1000
G01 X95.0218
G01 Y40.1500
G01 X141.2178
G01 Y40.2000
G01 X95.0218
G01 Y40.2500
G01 X141.2178
G01 Y40.3000
G01 X95.0218
G01 Y40.3500
G01 X141.2178
G01 Y40.4000
G01 X95.0218
G01 Y40.4500
G01 X141.2178
G01 Y40.5000
G01 X95.0218
G01 Y40.5500
G01 X141.2178
G01 Y40.6000
G01 X95.0218
G01 Y40.6500
G01 X141.2178
G01 Y40.7000
G01 X95.0218
G01 Y40.7500
G01 X141.2178
G01 Y40.8000
G01 X95.0218
G01 Y40.8500
G01 X141.2178
G01 Y40.9000
G01 X95.0218
G01 Y40.9500
G01 X141.2178
G01 Y41.0000
G01 X95.0218
G01 Y41.0500
G01 X141.2178
G01 Y41.1000
G01 X95.0218
G01 Y41.1500
G01 X141.2178
G01 Y41.2000
G01 X95.0218
G01 Y41.2500
G01 X141.2178
G01 Y41.3000
G01 X95.0218
G01 Y41.3500
G01 X141.2178
G01 Y41.4000
G01 X95.0218
G01 Y41.4500
G01 X141.2178
G01 Y41.5000
G01 X95.0218
G01 Y41.5500
G01 X141.2178
G01 Y41.6000
G01 X95.0218
G01 Y41.6500
G01 X141.2178
G01 Y41.7000
G01 X95.0218
G01 Y41.7500
G01 X141.2178
G01 Y41.8000
G01 X95.0218
G01 Y41.8500
G01 X141.2178
G01 Y41.9000
G01 X95.0218
G01 Y41.9500
G01 X141.2178
G01 Y42.0000
G01 X95.0218
G01 Y42.0500
G01 X141.2178
G01 Y42.1000
G01 X95.0218
G01 Y42.1500
G01 X141.2178
G01 Y42.2000
G01 X95.0218
G01 Y42.2500
G01 X141.2178
G01 Y42.3000
G01 X95.0218
G01 Y42.3500
G01 X141.2178
G01 Y42.4000
G01 X95.0218
G01 Y42.4500
G01 X141.2178
G01 Y42.5000
G01 X95.0218
G01 Y42.5500
G01 X141.2178
G01 Y42.6000
G01 X95.0218
G01 Y42.6500
G01 X141.2178
G01 Y42.7000
G01 X95.0218
G01 Y42.7500
G01 X141.2178
G01 Y42.8000
G01 X95.0218
G01 Y42.8500
G01 X141.2178
G01 Y42.9000
G01 X95.0218
G01 Y42.9500
G01 X141.2178
G01 Y43.0000
G01 X95.0218
G01 Y43.0500
G01 X141.2178
G01 Y43.1000
G01 X95.0218
G01 Y43.1500
G01 X141.2178
G01 Y43.2000
G01 X95.0218
G01 Y43.2500
G01 X141.2178
G01 Y43.3000
G01 X95.0218
G01 Y43.3500
G01 X141.2178
G01 Y43.4000
G01 X95.0218
G01 Y43.4500
G01 X141.2178
G01 Y43.5000
G01 X95.0218
G01 Y43.5500
G01 X141.2178
G01 Y43.6000
G01 X95.0218
G01 Y43.6500
G01 X141.2178
G01 Y43.7000
G01 X95.0218
G01 Y43.7500
G01 X141.2178
G01 Y43.8000
G01 X95.0218
G01 Y43.8500
G01 X141.2178
G01 Y43.9000
G01 X95.0218
G01 Y43.9500
G01 X141.2178
G01 Y44.0000
G01 X95.0218
G01 Y44.0500
G01 X141.2178
G01 Y44.1000
G01 X95.0218
G01 Y44.1500
G01 X141.2178
G01 Y44.2000
G01 X95.0218
G01 Y44.2500
G01 X141.2178
G01 Y44.3000
G01 X95.0218
G01 Y44.3500
G01 X141.2178
G01 Y44.4000
G01 X95.0218
G01 Y44.4500
G01 X141.2178
G01 Y44.5000
G01 X95.0218
G01 Y44.5500
G01 X141.2178
G01 Y44.6000
G01 X95.0218
G01 Y44.6500
G01 X141.2178
G01 Y44.7000
G01 X95.0218
G01 Y44.7500
G01 X141.2178
G01 Y44.8000
G01 X95.0218
G01 Y44.8500
G01 X141.2178
G01 Y44.9000
G01 X95.0218
G01 Y44.9500
G01 X141.2178
G01 Y45.0000
G01 X95.0218
G01 Y45.0500
G01 X141.2178
G01 Y45.1000
G01 X95.0218
G01 Y45.1500
G01 X141.2178
G01 Y45.2000
G01 X95.0218
G01 Y45.2500
G01 X141.2178
G01 Y45.3000
G01 X95.0218
G01 Y45.3500
G01 X141.2178
G01 Y45.4000
G01 X95.0218
G01 Y45.4500
G01 X141.2178
G01 Y45.5000
G01 X95.0218
G01 Y45.5500
G01 X141.2178
G01 Y45.6000
G01 X95.0218
G01 Y45.6500
G01 X141.2178
G01 Y45.7000
G01 X95.0218
G01 Y45.7500
G01 X141.2178
G01 Y45.8000
G01 X95.0218
G01 Y45.8500
G01 X141.2178
G01 Y45.9000
G01 X95.0218
G01 Y45.9500
G01 X141.2178
G01 Y46.0000
G01 X95.0218
G01 Y46.0500
G01 X141.2178
G01 Y46.1000
G01 X95.0218
G01 Y46.1500
G01 X141.2178
G01 Y46.2000
G01 X95.0218
G01 Y46.2500
G01 X141.2178
G01 Y46.3000
G01 X95.0218
G01 Y46.3500
G01 X141.2178
G01 Y46.4000
G01 X95.0218
G01 Y46.4500
G01 X141.2178
G01 Y46.5000
G01 X95.0218
G01 Y46.5500
G01 X141.2178
G01 Y46.6000
G01 X95.0218
G01 Y46.6500
G01 X141.2178
G01 Y46.7000
G01 X95.0218
G01 Y46.7500
G01 X141.2178
G01 Y46.8000
G01 X95.0218
G01 Y46.8500
G01 X141.2178
G01 Y46.9000
G01 X95.0218
G01 Y46.9500
G01 X141.2178
G01 Y47.0000
G01 X95.0218
G01 Y47.0500
G01 X141.2178
G01 Y47.1000
G01 X95.0218
G01 Y47.1500
G01 X141.2178
G01 Y47.2000
G01 X95.0218
G01 Y47.2500
G01 X141.2178
G01 Y47.3000
G01 X95.0218
G01 Y47.3500
G01 X141.2178
G01 Y47.4000
G01 X95.0218
G01 Y47.4500
G01 X141.2178
G01 Y47.5000
G01 X95.0218
G01 Y47.5500
G01 X141.2178
G01 Y47.6000
G01 X95.0218
G01 Y47.6500
G01 X141.2178
G01 Y47.7000
G01 X95.0218
G01 Y47.7500
G01 X141.2178
G01 Y47.8000
G01 X95.0218
G01 Y47.8500
G01 X141.2178
G01 Y47.9000
G01 X95.0218
G01 Y47.9500
G01 X141.2178
G01 Y48.0000
G01 X95.0218
G01 Y48.0500
G01 X141.2178
G01 X141.5348 Y47.9328
G01 Y1.5850
G01 X94.7048
G01 Y48.4150
G01 X141.5348
G01 Y47.9328
G01 X141.2178 Y48.0500
G01 X135.5465 Z-1.5000 F1000
G01 X141.2178 Z-2.0000
G01 X95.0218 F1200
G01 Y48.0000
G01 X141.2178
G01 Y47.9500
G01 X95.0218
G01 Y47.9000
G01 X141.2178
G01 Y47.8500
G01 X95.0218
G01 Y47.8000
G01 X141.2178
G01 Y47.7500
G01 X95.0218
G01 Y47.7000
G01 X141.2178
G01 Y47.6500
G01 X95.0218
G01 Y47.6000
G01 X141.2178
G01 Y47.5500
G01 X95.0218
G01 Y47.5000
G01 X141.2178
G01 Y47.4500
G01 X95.0218
G01 Y47.4000
G01 X141.2178
G01 Y47.3500
G01 X95.0218
G01 Y47.3000
G01 X141.2178
G01 Y47.2500
G01 X95.0218
G01 Y47.2000
G01 X141.2178
G01 Y47.1500
G01 X95.0218
G01 Y47.1000
G01 X141.2178
G01 Y47.0500
G01 X95.0218
G01 Y47.0000
G01 X141.2178
G01 Y46.9500
G01 X95.0218
G01 Y46.9000
G01 X141.2178
G01 Y46.8500
G01 X95.0218
G01 Y46.8000
G01 X141.2178
G01 Y46.7500
G01 X95.0218
G01 Y46.7000
G01 X141.2178
G01 Y46.6500
G01 X95.0218
G01 Y46.6000
G01 X141.2178
G01 Y46.5500
G01 X95.0218
G01 Y46.5000
G01 X141.2178
G01 Y46.4500
G01 X95.0218
G01 Y46.4000
G01 X141.2178
G01 Y46.3500
G01 X95.0218
G01 Y46.3000
G01 X141.2178
G01 Y46.2500
G01 X95.0218
G01 Y46.2000
G01 X141.2178
G01 Y46.1500
G01 X95.0218
G01 Y46.1000
G01 X141.2178
G01 Y46.0500
G01 X95.0218
G01 Y46.0000
G01 X141.2178
G01 Y45.9500
G01 X95.0218
G01 Y45.9000
G01 X141.2178
G01 Y45.8500
G01 X95.0218
G01 Y45.8000
G01 X141.2178
G01 Y45.7500
G01 X95.0218
G01 Y45.7000
G01 X141.2178
G01 Y45.6500
G01 X95.0218
G01 Y45.6000
G01 X141.2178
G01 Y45.5500
G01 X95.0218
G01 Y45.5000
G01 X141.2178
G01 Y45.4500
G01 X95.0218
G01 Y45.4000
G01 X141.2178
G01 Y45.3500
G01 X95.0218
G01 Y45.3000
G01 X141.2178
G01 Y45.2500
G01 X95.0218
G01 Y45.2000
G01 X141.2178
G01 Y45.1500
G01 X95.0218
G01 Y45.1000
G01 X141.2178
G01 Y45.0500
G01 X95.0218
G01 Y45.0000
G01 X141.2178
G01 Y44.9500
G01 X95.0218
G01 Y44.9000
G01 X141.2178
G01 Y44.8500
G01 X95.0218
G01 Y44.8000
G01 X141.2178
G01 Y44.7500
G01 X95.0218
G01 Y44.7000
G01 X141.2178
G01 Y44.6500
G01 X95.0218
G01 Y44.6000
G01 X141.2178
G01 Y44.5500
G01 X95.0218
G01 Y44.5000
G01 X141.2178
G01 Y44.4500
G01 X95.0218
G01 Y44.4000
G01 X141.2178
G01 Y44.3500
G01 X95.0218
G01 Y44.3000
G01 X141.2178
G01 Y44.2500
G01 X95.0218
G01 Y44.2000
G01 X141.2178
G01 Y44.1500
G01 X95.0218
G01 Y44.1000
G01 X141.2178
G01 Y44.0500
G01 X95.0218
G01 Y44.0000
G01 X141.2178
G01 Y43.9500
G01 X95.0218
G01 Y43.9000
G01 X141.2178
G01 Y43.8500
G01 X95.0218
G01 Y43.8000
G01 X141.2178
G01 Y43.7500
G01 X95.0218
G01 Y43.7000
G01 X141.2178
G01 Y43.6500
G01 X95.0218
G01 Y43.6000
G01 X141.2178
G01 Y43.5500
G01 X95.0218
G01 Y43.5000
G01 X141.2178
G01 Y43.4500
G01 X95.0218
G01 Y43.4000
G01 X141.2178
G01 Y43.3500
G01 X95.0218
G01 Y43.3000
G01 X141.2178
G01 Y43.2500
G01 X95.0218
G01 Y43.2000
G01 X141.2178
G01 Y43.1500
G01 X95.0218
G01 Y43.1000
G01 X141.2178
G01 Y43.0500
G01 X95.0218
G01 Y43.0000
G01 X141.2178
G01 Y42.9500
G01 X95.0218
G01 Y42.9000
G01 X141.2178
G01 Y42.8500
G01 X95.0218
G01 Y42.8000
G01 X141.2178
G01 Y42.7500
G01 X95.0218
G01 Y42.7000
G01 X141.2178
G01 Y42.6500
G01 X95.0218
G01 Y42.6000
G01 X141.2178
G01 Y42.5500
G01 X95.0218
G01 Y42.5000
G01 X141.2178
G01 Y42.4500
G01 X95.0218
G01 Y42.4000
G01 X141.2178
G01 Y42.3500
G01 X95.0218
G01 Y42.3000
G01 X141.2178
G01 Y42.2500
G01 X95.0218
G01 Y42.2000
G01 X141.2178
G01 Y42.1500
G01 X95.0218
G01 Y42.1000
G01 X141.2178
G01 Y42.0500
G01 X95.0218
G01 Y42.0000
G01 X141.2178
G01 Y41.9500
G01 X95.0218
G01 Y41.9000
G01 X141.2178
G01 Y41.8500
G01 X95.0218
G01 Y41.8000
G01 X141.2178
G01 Y41.7500
G01 X95.0218
G01 Y41.7000
G01 X141.2178
G01 Y41.6500
G01 X95.0218
G01 Y41.6000
G01 X141.2178
G01 Y41.5500
G01 X95.0218
G01 Y41.5000
G01 X141.2178
G01 Y41.4500
G01 X95.0218
G01 Y41.4000
G01 X141.2178
G01 Y41.3500
G01 X95.0218
G01 Y41.3000
G01 X141.2178
G01 Y41.2500
G01 X95.0218
G01 Y41.2000
G01 X141.2178
G01 Y41.1500
G01 X95.0218
G01 Y41.1000
G01 X141.2178
G01 Y41.0500
G01 X95.0218
G01 Y41.0000
G01 X141.2178
G01 Y40.9500
G01 X95.0218
G01 Y40.9000
G01 X141.2178
G01 Y40.8500
G01 X95.0218
G01 Y40.8000
G01 X141.2178
G01 Y40.7500
G01 X95.0218
G01 Y40.7000
G01 X141.2178
G01 Y40.6500
G01 X95.0218
G01 Y40.6000
G01 X141.2178
G01 Y40.5500
G01 X95.0218
G01 Y40.5000
G01 X141.2178
G01 Y40.4500
G01 X95.0218
G01 Y40.4000
G01 X141.2178
G01 Y40.3500
G01 X95.0218
G01 Y40.3000
G01 X141.2178
G01 Y40.2500
G01 X95.0218
G01 Y40.2000
G01 X141.2178
G01 Y40.1500
G01 X95.0218
G01 Y40.1000
G01 X141.2178
G01 Y40.0500
G01 X95.0218
G01 Y40.0000
G01 X141.2178
G01 Y39.9500
G01 X95.0218
G01 Y39.9000
G01 X141.2178
G01 Y39.8500
G01 X95.0218
G01 Y39.8000
G01 X141.2178
G01 Y39.7500
G01 X95.0218
G01 Y39.7000
G01 X141.2178
G01 Y39.6500
G01 X95.0218
G01 Y39.6000
G01 X141.2178
G01 Y39.5500
G01 X95.0218
G01 Y39.5000
G01 X141.2178
G01 Y39.4500
G01 X95.0218
G01 Y39.4000
G01 X141.2178
G01 Y39.3500
G01 X95.0218
G01 Y39.3000
G01 X141.2178
G01 Y39.2500
G01 X95.0218
G01 Y39.2000
G01 X141.2178
G01 Y39.1500
G01 X95.0218
G01 Y39.1000
G01 X141.2178
G01 Y39.0500
G01 X95.0218
G01 Y39.0000
G01 X141.2178
G01 Y38.9500
G01 X95.0218
G01 Y38.9000
G01 X141.2178
G01 Y38.8500
G01 X95.0218
G01 Y38.8000
G01 X141.2178
G01 Y38.7500
G01 X95.0218
G01 Y38.7000
G01 X141.2178
G01 Y38.6500
G01 X95.0218
G01 Y38.6000
G01 X141.2178
G01 Y38.5500
G01 X95.0218
G01 Y38.5000
G01 X141.2178
G01 Y38.4500
G01 X95.0218
G01 Y38.4000
G01 X141.2178
G01 Y38.3500
G01 X95.0218
G01 Y38.3000
G01 X141.2178
G01 Y38.2500
G01 X95.0218
G01 Y38.2000
G01 X141.2178
G01 Y38.1500
G01 X95.0218
G01 Y38.1000
G01 X141.2178
G01 Y38.0500
G01 X95.0218
G01 Y38.0000
G01 X141.2178
G01 Y37.9500
G01 X95.0218
G01 Y37.9000
G01 X141.2178
G01 Y37.8500
G01 X95.0218
G01 Y37.8000
G01 X141.2178
G01 Y37.7500
G01 X95.0218
G01 Y37.7000
G01 X141.2178
G01 Y37.6500
G01 X95.0218
G01 Y37.6000
G01 X141.2178
G01 Y37.5500
G01 X95.0218
G01 Y37.5000
G01 X141.2178
G01 Y37.4500
G01 X95.0218
G01 Y37.4000
G01 X141.2178
G01 Y37.3500
G01 X95.0218
G01 Y37.3000
G01 X141.2178
G01 Y37.2500
G01 X95.0218
G01 Y37.2000
G01 X141.2178
G01 Y37.1500
G01 X95.0218
G01 Y37.1000
G01 X141.2178
G01 Y37.0500
G01 X95.0218
G01 Y37.0000
G01 X141.2178
G01 Y36.9500
G01 X95.0218
G01 Y36.9000
G01 X141.2178
G01 Y36.8500
G01 X95.0218
G01 Y36.8000
G01 X141.2178
G01 Y36.7500
G01 X95.0218
G01 Y36.7000
G01 X141.2178
G01 Y36.6500
G01 X95.0218
G01 Y36.6000
G01 X141.2178
G01 Y36.5500
G01 X95.0218
G01 Y36.5000
G01 X141.2178
G01 Y36.4500
G01 X95.0218
G01 Y36.4000
G01 X141.2178
G01 Y36.3500
G01 X95.0218
G01 Y36.3000
G01 X141.2178
G01 Y36.2500
G01 X95.0218
G01 Y36.2000
G01 X141.2178
G01 Y36.1500
G01 X95.0218
G01 Y36.1000
G01 X141.2178
G01 Y36.0500
G01 X95.0218
G01 Y36.0000
G01 X141.2178
G01 Y35.9500
G01 X95.0218
G01 Y35.9000
G01 X141.2178
G01 Y35.8500
G01 X95.0218
G01 Y35.8000
G01 X141.2178
G01 Y35.7500
G01 X95.0218
G01 Y35.7000
G01 X141.2178
G01 Y35.6500
G01 X95.0218
G01 Y35.6000
G01 X141.2178
G01 Y35.5500
G01 X95.0218
G01 Y35.5000
G01 X141.2178
G01 Y35.4500
G01 X95.0218
G01 Y35.4000
G01 X141.2178
G01 Y35.3500
G01 X95.0218
G01 Y35.3000
G01 X141.2178
G01 Y35.2500
G01 X95.0218
G01 Y35.2000
G01 X141.2178
G01 Y35.1500
G01 X95.0218
G01 Y35.1000
G01 X141.2178
G01 Y35.0500
G01 X95.0218
G01 Y35.0000
G01 X141.2178
G01 Y34.9500
G01 X95.0218
G01 Y34.9000
G01 X141.2178
G01 Y34.8500
G01 X95.0218
G01 Y34.8000
G01 X141.2178
G01 Y34.7500
G01 X95.0218
G01 Y34.7000
G01 X141.2178
G01 Y34.6500
G01 X95.0218
G01 Y34.6000
G01 X141.2178
G01 Y34.5500
G01 X95.0218
G01 Y34.5000
G01 X141.2178
G01 Y34.4500
G01 X95.0218
G01 Y34.4000
G01 X141.2178
G01 Y34.3500
G01 X95.0218
G01 Y34.3000
G01 X141.2178
G01 Y34.2500
G01 X95.0218
G01 Y34.2000
G01 X141.2178
G01 Y34.1500
G01 X95.0218
G01 Y34.1000
G01 X141.2178
G01 Y34.0500
G01 X95.0218
G01 Y34.0000
G01 X141.2178
G01 Y33.9500
G01 X95.0218
G01 Y33.9000
G01 X141.2178
G01 Y33.8500
G01 X95.0218
G01 Y33.8000
G01 X141.2178
G01 Y33.7500
G01 X95.0218
G01 Y33.7000
G01 X141.2178
G01 Y33.6500
G01 X95.0218
G01 Y33.6000
G01 X141.2178
G01 Y33.5500
G01 X95.0218
G01 Y33.5000
G01 X141.2178
G01 Y33.4500
G01 X95.0218
G01 Y33.4000
G01 X141.2178
G01 Y33.3500
G01 X95.0218
G01 Y33.3000
G01 X141.2178
G01 Y33.2500
G01 X95.0218
G01 Y33.2000
G01 X141.2178
G01 Y33.1500
G01 X95.0218
G01 Y33.1000
G01 X141.2178
G01 Y33.0500
G01 X95.0218
G01 Y33.0000
G01 X141.2178
G01 Y32.9500
G01 X95.0218
G01 Y32.9000
G01 X141.2178
G01 Y32.8500
G01 X95.0218
G01 Y32.8000
G01 X141.2178
G01 Y32.7500
G01 X95.0218
G01 Y32.7000
G01 X141.2178
G01 Y32.6500
G01 X95.0218
G01 Y32.6000
G01 X141.2178
G01 Y32.5500
G01 X95.0218
G01 Y32.5000
G01 X141.2178
G01 Y32.4500
G01 X95.0218
G01 Y32.4000
G01 X141.2178
G01 Y32.3500
G01 X95.0218
G01 Y32.3000
G01 X141.2178
G01 Y32.2500
G01 X95.0218
G01 Y32.2000
G01 X141.2178
G01 Y32.1500
G01 X95.0218
G01 Y32.1000
G01 X141.2178
G01 Y32.0500
G01 X95.0218
G01 Y32.0000
G01 X141.2178
G01 Y31.9500
G01 X95.0218
G01 Y31.9000
G01 X141.2178
G01 Y31.8500
G01 X95.0218
G01 Y31.8000
G01 X141.2178
G01 Y31.7500
G01 X95.0218
G01 Y31.7000
G01 X141.2178
G01 Y31.6500
G01 X95.0218
G01 Y31.6000
G01 X141.2178
G01 Y31.5500
G01 X95.0218
G01 Y31.5000
G01 X141.2178
G01 Y31.4500
G01 X95.0218
G01 Y31.4000
G01 X141.2178
G01 Y31.3500
G01 X95.0218
G01 Y31.3000
G01 X141.2178
G01 Y31.2500
G01 X95.0218
G01 Y31.2000
G01 X141.2178
G01 Y31.1500
G01 X95.0218
G01 Y31.1000
G01 X141.2178
G01 Y31.0500
G01 X95.0218
G01 Y31.0000
G01 X141.2178
G01 Y30.9500
G01 X95.0218
G01 Y30.9000
G01 X141.2178
G01 Y30.8500
G01 X95.0218
G01 Y30.8000
G01 X141.2178
G01 Y30.7500
G01 X95.0218
G01 Y30.7000
G01 X141.2178
G01 Y30.6500
G01 X95.0218
G01 Y30.6000
G01 X141.2178
G01 Y30.5500
G01 X95.0218
G01 Y30.5000
G01 X141.2178
G01 Y30.4500
G01 X95.0218
G01 Y30.4000
G01 X141.2178
G01 Y30.3500
G01 X95.0218
G01 Y30.3000
G01 X141.2178
G01 Y30.2500
G01 X95.0218
G01 Y30.2000
G01 X141.2178
G01 Y30.1500
G01 X95.0218
G01 Y30.1000
G01 X141.2178
G01 Y30.0500
G01 X95.0218
G01 Y30.0000
G01 X141.2178
G01 Y29.9500
G01 X95.0218
G01 Y29.9000
G01 X141.2178
G01 Y29.8500
G01 X95.0218
G01 Y29.8000
G01 X141.2178
G01 Y29.7500
G01 X95.0218
G01 Y29.7000
G01 X141.2178
G01 Y29.6500
G01 X95.0218
G01 Y29.6000
G01 X141.2178
G01 Y29.5500
G01 X95.0218
G01 Y29.5000
G01 X141.2178
G01 Y29.4500
G01 X95.0218
G01 Y29.4000
G01 X141.2178
G01 Y29.3500
G01 X95.0218
G01 Y29.3000
G01 X141.2178
G01 Y29.2500
G01 X95.0218
G01 Y29.2000
G01 X141.2178
G01 Y29.1500
G01 X95.0218
G01 Y29.1000
G01 X141.2178
G01 Y29.0500
G01 X95.0218
G01 Y29.0000
G01 X141.2178
G01 Y28.9500
G01 X95.0218
G01 Y28.9000
G01 X141.2178
G01 Y28.8500
G01 X95.0218
G01 Y28.8000
G01 X141.2178
G01 Y28.7500
G01 X95.0218
G01 Y28.7000
G01 X141.2178
G01 Y28.6500
G01 X95.0218
G01 Y28.6000
G01 X141.2178
G01 Y28.5500
G01 X95.0218
G01 Y28.5000
G01 X141.2178
G01 Y28.4500
G01 X95.0218
G01 Y28.4000
G01 X141.2178
G01 Y28.3500
G01 X95.0218
G01 Y28.3000
G01 X141.2178
G01 Y28.2500
G01 X95.0218
G01 Y28.2000
G01 X141.2178
G01 Y28.1500
G01 X95.0218
G01 Y28.1000
G01 X141.2178
G01 Y28.0500
G01 X95.0218
G01 Y28.0000
G01 X141.2178
G01 Y27.9500
G01 X95.0218
G01 Y27.9000
G01 X141.2178
G01 Y27.8500
G01 X95.0218
G01 Y27.8000
G01 X141.2178
G01 Y27.7500
G01 X95.0218
G01 Y27.7000
G01 X141.2178
G01 Y27.6500
G01 X95.0218
G01 Y27.6000
G01 X141.2178
G01 Y27.5500
G01 X95.0218
G01 Y27.5000
G01 X141.2178
G01 Y27.4500
G01 X95.0218
G01 Y27.4000
G01 X141.2178
G01 Y27.3500
G01 X95.0218
G01 Y27.3000
G01 X141.2178
G01 Y27.2500
G01 X95.0218
G01 Y27.2000
G01 X141.2178
G01 Y27.1500
G01 X95.0218
G01 Y27.1000
G01 X141.2178
G01 Y27.0500
G01 X95.0218
G01 Y27.0000
G01 X141.2178
G01 Y26.9500
G01 X95.0218
G01 Y26.9000
G01 X141.2178
G01 Y26.8500
G01 X95.0218
G01 Y26.8000
G01 X141.2178
G01 Y26.7500
G01 X95.0218
G01 Y26.7000
G01 X141.2178
G01 Y26.6500
G01 X95.0218
G01 Y26.6000
G01 X141.2178
G01 Y26.5500
G01 X95.0218
G01 Y26.5000
G01 X141.2178
G01 Y26.4500
G01 X95.0218
G01 Y26.4000
G01 X141.2178
G01 Y26.3500
G01 X95.0218
G01 Y26.3000
G01 X141.2178
G01 Y26.2500
G01 X95.0218
G01 Y26.2000
G01 X141.2178
G01 Y26.1500
G01 X95.0218
G01 Y26.1000
G01 X141.2178
G01 Y26.0500
G01 X95.0218
G01 Y26.0000
G01 X141.2178
G01 Y25.9500
G01 X95.0218
G01 Y25.9000
G01 X141.2178
G01 Y25.8500
G01 X95.0218
G01 Y25.8000
G01 X141.2178
G01 Y25.7500
G01 X95.0218
G01 Y25.7000
G01 X141.2178
G01 Y25.6500
G01 X95.0218
G01 Y25.6000
G01 X141.2178
G01 Y25.5500
G01 X95.0218
G01 Y25.5000
G01 X141.2178
G01 Y25.4500
G01 X95.0218
G01 Y25.4000
G01 X141.2178
G01 Y25.3500
G01 X95.0218
G01 Y25.3000
G01 X141.2178
G01 Y25.2500
G01 X95.0218
G01 Y25.2000
G01 X141.2178
G01 Y25.1500
G01 X95.0218
G01 Y25.1000
G01 X141.2178
G01 Y25.0500
G01 X95.0218
G01 Y25.0000
G01 X141.2178
G01 Y24.9500
G01 X95.0218
G01 Y24.9000
G01 X141.2178
G01 Y24.8500
G01 X95.0218
G01 Y24.8000
G01 X141.2178
G01 Y24.7500
G01 X95.0218
G01 Y24.7000
G01 X141.2178
G01 Y24.6500
G01 X95.0218
G01 Y24.6000
G01 X141.2178
G01 Y24.5500
G01 X95.0218
G01 Y24.5000
G01 X141.2178
G01 Y24.4500
G01 X95.0218
G01 Y24.4000
G01 X141.2178
G01 Y24.3500
G01 X95.0218
G01 Y24.3000
G01 X141.2178
G01 Y24.2500
G01 X95.0218
G01 Y24.2000
G01 X141.2178
G01 Y24.1500
G01 X95.0218
G01 Y24.1000
G01 X141.2178
G01 Y24.0500
G01 X95.0218
G01 Y24.0000
G01 X141.2178
G01 Y23.9500
G01 X95.0218
G01 Y23.9000
G01 X141.2178
G01 Y23.8500
G01 X95.0218
G01 Y23.8000
G01 X141.2178
G01 Y23.7500
G01 X95.0218
G01 Y23.7000
G01 X141.2178
G01 Y23.6500
G01 X95.0218
G01 Y23.6000
G01 X141.2178
G01 Y23.5500
G01 X95.0218
G01 Y23.5000
G01 X141.2178
G01 Y23.4500
G01 X95.0218
G01 Y23.4000
G01 X141.2178
G01 Y23.3500
G01 X95.0218
G01 Y23.3000
G01 X141.2178
G01 Y23.2500
G01 X95.0218
G01 Y23.2000
G01 X141.2178
G01 Y23.1500
G01 X95.0218
G01 Y23.1000
G01 X141.2178
G01 Y23.0500
G01 X95.0218
G01 Y23.0000
G01 X141.2178
G01 Y22.9500
G01 X95.0218
G01 Y22.9000
G01 X141.2178
G01 Y22.8500
G01 X95.0218
G01 Y22.8000
G01 X141.2178
G01 Y22.7500
G01 X95.0218
G01 Y22.7000
G01 X141.2178
G01 Y22.6500
G01 X95.0218
G01 Y22.6000
G01 X141.2178
G01 Y22.5500
G01 X95.0218
G01 Y22.5000
G01 X141.2178
G01 Y22.4500
G01 X95.0218
G01 Y22.4000
G01 X141.2178
G01 Y22.3500
G01 X95.0218
G01 Y22.3000
G01 X141.2178
G01 Y22.2500
G01 X95.0218
G01 Y22.2000
G01 X141.2178
G01 Y22.1500
G01 X95.0218
G01 Y22.1000
G01 X141.2178
G01 Y22.0500
G01 X95.0218
G01 Y22.0000
G01 X141.2178
G01 Y21.9500
G01 X95.0218
G01 Y21.9000
G01 X141.2178
G01 Y21.8500
G01 X95.0218
G01 Y21.8000
G01 X141.2178
G01 Y21.7500
G01 X95.0218
G01 Y21.7000
G01 X141.2178
G01 Y21.6500
G01 X95.0218
G01 Y21.6000
G01 X141.2178
G01 Y21.5500
G01 X95.0218
G01 Y21.5000
G01 X141.2178
G01 Y21.4500
G01 X95.0218
G01 Y21.4000
G01 X141.2178
G01 Y21.3500
G01 X95.0218
G01 Y21.3000
G01 X141.2178
G01 Y21.2500
G01 X95.0218
G01 Y21.2000
G01 X141.2178
G01 Y21.1500
G01 X95.0218
G01 Y21.1000
G01 X141.2178
G01 Y21.0500
G01 X95.0218
G01 Y21.0000
G01 X141.2178
G01 Y20.9500
G01 X95.0218
G01 Y20.9000
G01 X141.2178
G01 Y20.8500
G01 X95.0218
G01 Y20.8000
G01 X141.2178
G01 Y20.7500
G01 X95.0218
G01 Y20.7000
G01 X141.2178
G01 Y20.6500
G01 X95.0218
G01 Y20.6000
G01 X141.2178
G01 Y20.5500
G01 X95.0218
G01 Y20.5000
G01 X141.2178
G01 Y20.4500
G01 X95.0218
G01 Y20.4000
G01 X141.2178
G01 Y20.3500
G01 X95.0218
G01 Y20.3000
G01 X141.2178
G01 Y20.2500
G01 X95.0218
G01 Y20.2000
G01 X141.2178
G01 Y20.1500
G01 X95.0218
G01 Y20.1000
G01 X141.2178
G01 Y20.0500
G01 X95.0218
G01 Y20.0000
G01 X141.2178
G01 Y19.9500
G01 X95.0218
G01 Y19.9000
G01 X141.2178
G01 Y19.8500
G01 X95.0218
G01 Y19.8000
G01 X141.2178
G01 Y19.7500
G01 X95.0218
G01 Y19.7000
G01 X141.2178
G01 Y19.6500
G01 X95.0218
G01 Y19.6000
G01 X141.2178
G01 Y19.5500
G01 X95.0218
G01 Y19.5000
G01 X141.2178
G01 Y19.4500
G01 X95.0218
G01 Y19.4000
G01 X141.2178
G01 Y19.3500
G01 X95.0218
G01 Y19.3000
G01 X141.2178
G01 Y19.2500
G01 X95.0218
G01 Y19.2000
G01 X141.2178
G01 Y19.1500
G01 X95.0218
G01 Y19.1000
G01 X141.2178
G01 Y19.0500
G01 X95.0218
G01 Y19.0000
G01 X141.2178
G01 Y18.9500
G01 X95.0218
G01 Y18.9000
G01 X141.2178
G01 Y18.8500
G01 X95.0218
G01 Y18.8000
G01 X141.2178
G01 Y18.7500
G01 X95.0218
G01 Y18.7000
G01 X141.2178
G01 Y18.6500
G01 X95.0218
G01 Y18.6000
G01 X141.2178
G01 Y18.5500
G01 X95.0218
G01 Y18.5000
G01 X141.2178
G01 Y18.4500
G01 X95.0218
G01 Y18.4000
G01 X141.2178
G01 Y18.3500
G01 X95.0218
G01 Y18.3000
G01 X141.2178
G01 Y18.2500
G01 X95.0218
G01 Y18.2000
G01 X141.2178
G01 Y18.1500
G01 X95.0218
G01 Y18.1000
G01 X141.2178
G01 Y18.0500
G01 X95.0218
G01 Y18.0000
G01 X141.2178
G01 Y17.9500
G01 X95.0218
G01 Y17.9000
G01 X141.2178
G01 Y17.8500
G01 X95.0218
G01 Y17.8000
G01 X141.2178
G01 Y17.7500
G01 X95.0218
G01 Y17.7000
G01 X141.2178
G01 Y17.6500
G01 X95.0218
G01 Y17.6000
G01 X141.2178
G01 Y17.5500
G01 X95.0218
G01 Y17.5000
G01 X141.2178
G01 Y17.4500
G01 X95.0218
G01 Y17.4000
G01 X141.2178
G01 Y17.3500
G01 X95.0218
G01 Y17.3000
G01 X141.2178
G01 Y17.2500
G01 X95.0218
G01 Y17.2000
G01 X141.2178
G01 Y17.1500
G01 X95.0218
G01 Y17.1000
G01 X141.2178
G01 Y17.0500
G01 X95.0218
G01 Y17.0000
G01 X141.2178
G01 Y16.9500
G01 X95.0218
G01 Y16.9000
G01 X141.2178
G01 Y16.8500
G01 X95.0218
G01 Y16.8000
G01 X141.2178
G01 Y16.7500
G01 X95.0218
G01 Y16.7000
G01 X141.2178
G01 Y16.6500
G01 X95.0218
G01 Y16.6000
G01 X141.2178
G01 Y16.5500
G01 X95.0218
G01 Y16.5000
G01 X141.2178
G01 Y16.4500
G01 X95.0218
G01 Y16.4000
G01 X141.2178
G01 Y16.3500
G01 X95.0218
G01 Y16.3000
G01 X141.2178
G01 Y16.2500
G01 X95.0218
G01 Y16.2000
G01 X141.2178
G01 Y16.1500
G01 X95.0218
G01 Y16.1000
G01 X141.2178
G01 Y16.0500
G01 X95.0218
G01 Y16.0000
G01 X141.2178
G01 Y15.9500
G01 X95.0218
G01 Y15.9000
G01 X141.2178
G01 Y15.8500
G01 X95.0218
G01 Y15.8000
G01 X141.2178
G01 Y15.7500
G01 X95.0218
G01 Y15.7000
G01 X141.2178
G01 Y15.6500
G01 X95.0218
G01 Y15.6000
G01 X141.2178
G01 Y15.5500
G01 X95.0218
G01 Y15.5000
G01 X141.2178
G01 Y15.4500
G01 X95.0218
G01 Y15.4000
G01 X141.2178
G01 Y15.3500
G01 X95.0218
G01 Y15.3000
G01 X141.2178
G01 Y15.2500
G01 X95.0218
G01 Y15.2000
G01 X141.2178
G01 Y15.1500
G01 X95.0218
G01 Y15.1000
G01 X141.2178
G01 Y15.0500
G01 X95.0218
G01 Y15.0000
G01 X141.2178
G01 Y14.9500
G01 X95.0218
G01 Y14.9000
G01 X141.2178
G01 Y14.8500
G01 X95.0218
G01 Y14.8000
G01 X141.2178
G01 Y14.7500
G01 X95.0218
G01 Y14.7000
G01 X141.2178
G01 Y14.6500
G01 X95.0218
G01 Y14.6000
G01 X141.2178
G01 Y14.5500
G01 X95.0218
G01 Y14.5000
G01 X141.2178
G01 Y14.4500
G01 X95.0218
G01 Y14.4000
G01 X141.2178
G01 Y14.3500
G01 X95.0218
G01 Y14.3000
G01 X141.2178
G01 Y14.2500
G01 X95.0218
G01 Y14.2000
G01 X141.2178
G01 Y14.1500
G01 X95.0218
G01 Y14.1000
G01 X141.2178
G01 Y14.0500
G01 X95.0218
G01 Y14.0000
G01 X141.2178
G01 Y13.9500
G01 X95.0218
G01 Y13.9000
G01 X141.2178
G01 Y13.8500
G01 X95.0218
G01 Y13.8000
G01 X141.2178
G01 Y13.7500
G01 X95.0218
G01 Y13.7000
G01 X141.2178
G01 Y13.6500
G01 X95.0218
G01 Y13.6000
G01 X141.2178
G01 Y13.5500
G01 X95.0218
G01 Y13.5000
G01 X141.2178
G01 Y13.4500
G01 X95.0218
G01 Y13.4000
G01 X141.2178
G01 Y13.3500
G01 X95.0218
G01 Y13.3000
G01 X141.2178
G01 Y13.2500
G01 X95.0218
G01 Y13.2000
G01 X141.2178
G01 Y13.1500
G01 X95.0218
G01 Y13.1000
G01 X141.2178
G01 Y13.0500
G01 X95.0218
G01 Y13.0000
G01 X141.2178
G01 Y12.9500
G01 X95.0218
G01 Y12.9000
G01 X141.2178
G01 Y12.8500
G01 X95.0218
G01 Y12.8000
G01 X141.2178
G01 Y12.7500
G01 X95.0218
G01 Y12.7000
G01 X141.2178
G01 Y12.6500
G01 X95.0218
G01 Y12.6000
G01 X141.2178
G01 Y12.5500
G01 X95.0218
G01 Y12.5000
G01 X141.2178
G01 Y12.4500
G01 X95.0218
G01 Y12.4000
G01 X141.2178
G01 Y12.3500
G01 X95.0218
G01 Y12.3000
G01 X141.2178
G01 Y12.2500
G01 X95.0218
G01 Y12.2000
G01 X141.2178
G01 Y12.1500
G01 X95.0218
G01 Y12.1000
G01 X141.2178
G01 Y12.0500
G01 X95.0218
G01 Y12.0000
G01 X141.2178
G01 Y11.9500
G01 X95.0218
G01 Y11.9000
G01 X141.2178
G01 Y11.8500
G01 X95.0218
G01 Y11.8000
G01 X141.2178
G01 Y11.7500
G01 X95.0218
G01 Y11.7000
G01 X141.2178
G01 Y11.6500
G01 X95.0218
G01 Y11.6000
G01 X141.2178
G01 Y11.5500
G01 X95.0218
G01 Y11.5000
G01 X141.2178
G01 Y11.4500
G01 X95.0218
G01 Y11.4000
G01 X141.2178
G01 Y11.3500
G01 X95.0218
G01 Y11.3000
G01 X141.2178
G01 Y11.2500
G01 X95.0218
G01 Y11.2000
G01 X141.2178
G01 Y11.1500
G01 X95.0218
G01 Y11.1000
G01 X141.2178
G01 Y11.0500
G01 X95.0218
G01 Y11.0000
G01 X141.2178
G01 Y10.9500
G01 X95.0218
G01 Y10.9000
G01 X141.2178
G01 Y10.8500
G01 X95.0218
G01 Y10.8000
G01 X141.2178
G01 Y10.7500
G01 X95.0218
G01 Y10.7000
G01 X141.2178
G01 Y10.6500
G01 X95.0218
G01 Y10.6000
G01 X141.2178
G01 Y10.5500
G01 X95.0218
G01 Y10.5000
G01 X141.2178
G01 Y10.4500
G01 X95.0218
G01 Y10.4000
G01 X141.2178
G01 Y10.3500
G01 X95.0218
G01 Y10.3000
G01 X141.2178
G01 Y10.2500
G01 X95.0218
G01 Y10.2000
G01 X141.2178
G01 Y10.1500
G01 X95.0218
G01 Y10.1000
G01 X141.2178
G01 Y10.0500
G01 X95.0218
G01 Y10.0000
G01 X141.2178
G01 Y9.9500
G01 X95.0218
G01 Y9.9000
G01 X141.2178
G01 Y9.8500
G01 X95.0218
G01 Y9.8000
G01 X141.2178
G01 Y9.7500
G01 X95.0218
G01 Y9.7000
G01 X141.2178
G01 Y9.6500
G01 X95.0218
G01 Y9.6000
G01 X141.2178
G01 Y9.5500
G01 X95.0218
G01 Y9.5000
G01 X141.2178
G01 Y9.4500
G01 X95.0218
G01 Y9.4000
G01 X141.2178
G01 Y9.3500
G01 X95.0218
G01 Y9.3000
G01 X141.2178
G01 Y9.2500
G01 X95.0218
G01 Y9.2000
G01 X141.2178
G01 Y9.1500
G01 X95.0218
G01 Y9.1000
G01 X141.2178
G01 Y9.0500
G01 X95.0218
G01 Y9.0000
G01 X141.2178
G01 Y8.9500
G01 X95.0218
G01 Y8.9000
G01 X141.2178
G01 Y8.8500
G01 X95.0218
G01 Y8.8000
G01 X141.2178
G01 Y8.7500
G01 X95.0218
G01 Y8.7000
G01 X141.2178
G01 Y8.6500
G01 X95.0218
G01 Y8.6000
G01 X141.2178
G01 Y8.5500
G01 X95.0218
G01 Y8.5000
G01 X141.2178
G01 Y8.4500
G01 X95.0218
G01 Y8.4000
G01 X141.2178
G01 Y8.3500
G01 X95.0218
G01 Y8.3000
G01 X141.2178
G01 Y8.2500
G01 X95.0218
G01 Y8.2000
G01 X141.2178
G01 Y8.1500
G01 X95.0218
G01 Y8.1000
G01 X141.2178
G01 Y8.0500
G01 X95.0218
G01 Y8.0000
G01 X141.2178
G01 Y7.9500
G01 X95.0218
G01 Y7.9000
G01 X141.2178
G01 Y7.8500
G01 X95.0218
G01 Y7.8000
G01 X141.2178
G01 Y7.7500
G01 X95.0218
G01 Y7.7000
G01 X141.2178
G01 Y7.6500
G01 X95.0218
G01 Y7.6000
G01 X141.2178
G01 Y7.5500
G01 X95.0218
G01 Y7.5000
G01 X141.2178
G01 Y7.4500
G01 X95.0218
G01 Y7.4000
G01 X141.2178
G01 Y7.3500
G01 X95.0218
G01 Y7.3000
G01 X141.2178
G01 Y7.2500
G01 X95.0218
G01 Y7.2000
G01 X141.2178
G01 Y7.1500
G01 X95.0218
G01 Y7.1000
G01 X141.2178
G01 Y7.0500
G01 X95.0218
G01 Y7.0000
G01 X141.2178
G01 Y6.9500
G01 X95.0218
G01 Y6.9000
G01 X141.2178
G01 Y6.8500
G01 X95.0218
G01 Y6.8000
G01 X141.2178
G01 Y6.7500
G01 X95.0218
G01 Y6.7000
G01 X141.2178
G01 Y6.6500
G01 X95.0218
G01 Y6.6000
G01 X141.2178
G01 Y6.5500
G01 X95.0218
G01 Y6.5000
G01 X141.2178
G01 Y6.4500
G01 X95.0218
G01 Y6.4000
G01 X141.2178
G01 Y6.3500
G01 X95.0218
G01 Y6.3000
G01 X141.2178
G01 Y6.2500
G01 X95.0218
G01 Y6.2000
G01 X141.2178
G01 Y6.1500
G01 X95.0218
G01 Y6.1000
G01 X141.2178
G01 Y6.0500
G01 X95.0218
G01 Y6.0000
G01 X141.2178
G01 Y5.9500
G01 X95.0218
G01 Y5.9000
G01 X141.2178
G01 Y5.8500
G01 X95.0218
G01 Y5.8000
G01 X141.2178
G01 Y5.7500
G01 X95.0218
G01 Y5.7000
G01 X141.2178
G01 Y5.6500
G01 X95.0218
G01 Y5.6000
G01 X141.2178
G01 Y5.5500
G01 X95.0218
G01 Y5.5000
G01 X141.2178
G01 Y5.4500
G01 X95.0218
G01 Y5.4000
G01 X141.2178
G01 Y5.3500
G01 X95.0218
G01 Y5.3000
G01 X141.2178
G01 Y5.2500
G01 X95.0218
G01 Y5.2000
G01 X141.2178
G01 Y5.1500
G01 X95.0218
G01 Y5.1000
G01 X141.2178
G01 Y5.0500
G01 X95.0218
G01 Y5.0000
G01 X141.2178
G01 Y4.9500
G01 X95.0218
G01 Y4.9000
G01 X141.2178
G01 Y4.8500
G01 X95.0218
G01 Y4.8000
G01 X141.2178
G01 Y4.7500
G01 X95.0218
G01 Y4.7000
G01 X141.2178
G01 Y4.6500
G01 X95.0218
G01 Y4.6000
G01 X141.2178
G01 Y4.5500
G01 X95.0218
G01 Y4.5000
G01 X141.2178
G01 Y4.4500
G01 X95.0218
G01 Y4.4000
G01 X141.2178
G01 Y4.3500
G01 X95.0218
G01 Y4.3000
G01 X141.2178
G01 Y4.2500
G01 X95.0218
G01 Y4.2000
G01 X141.2178
G01 Y4.1500
G01 X95.0218
G01 Y4.1000
G01 X141.2178
G01 Y4.0500
G01 X95.0218
G01 Y4.0000
G01 X141.2178
G01 Y3.9500
G01 X95.0218
G01 Y3.9000
G01 X141.2178
G01 Y3.8500
G01 X95.0218
G01 Y3.8000
G01 X141.2178
G01 Y3.7500
G01 X95.0218
G01 Y3.7000
G01 X141.2178
G01 Y3.6500
G01 X95.0218
G01 Y3.6000
G01 X141.2178
G01 Y3.5500
G01 X95.0218
G01 Y3.5000
G01 X141.2178
G01 Y3.4500
G01 X95.0218
G01 Y3.4000
G01 X141.2178
G01 Y3.3500
G01 X95.0218
G01 Y3.3000
G01 X141.2178
G01 Y3.2500
G01 X95.0218
G01 Y3.2000
G01 X141.2178
G01 Y3.1500
G01 X95.0218
G01 Y3.1000
G01 X141.2178
G01 Y3.0500
G01 X95.0218
G01 Y3.0000
G01 X141.2178
G01 Y2.9500
G01 X95.0218
G01 Y2.9000
G01 X141.2178
G01 Y2.8500
G01 X95.0218
G01 Y2.8000
G01 X141.2178
G01 Y2.7500
G01 X95.0218
G01 Y2.7000
G01 X141.2178
G01 Y2.6500
G01 X95.0218
G01 Y2.6000
G01 X141.2178
G01 Y2.5500
G01 X95.0218
G01 Y2.5000
G01 X141.2178
G01 Y2.4500
G01 X95.0218
G01 Y2.4000
G01 X141.2178
G01 Y2.3500
G01 X95.0218
G01 Y2.3000
G01 X141.2178
G01 Y2.2500
G01 X95.0218
G01 Y2.2000
G01 X141.2178
G01 Y2.1500
G01 X95.0218
G01 Y2.1000
G01 X141.2178
G01 Y2.0500
G01 X95.0218
G01 Y2.0000
G01 X141.2178
G01 Y1.9500
G01 X95.0218
G01 X94.7048 Y2.0672
G01 Y48.4150
G01 X141.5348
G01 Y1.5850
G01 X94.7048
G01 Y2.0672
G01 X95.0218 Y1.9500
G01 X100.6930 Z-2.5000 F1000
G01 X95.0218 Z-3.0000
G01 X141.2178 F1200
G01 Y2.0000
G01 X95.0218
G01 Y2.0500
G01 X141.2178
G01 Y2.1000
G01 X95.0218
G01 Y2.1500
G01 X141.2178
G01 Y2.2000
G01 X95.0218
G01 Y2.2500
G01 X141.2178
G01 Y2.3000
G01 X95.0218
G01 Y2.3500
G01 X141.2178
G01 Y2.4000
G01 X95.0218
G01 Y2.4500
G01 X141.2178
G01 Y2.5000
G01 X95.0218
G01 Y2.5500
G01 X141.2178
G01 Y2.6000
G01 X95.0218
G01 Y2.6500
G01 X141.2178
G01 Y2.7000
G01 X95.0218
G01 Y2.7500
G01 X141.2178
G01 Y2.8000
G01 X95.0218
G01 Y2.8500
G01 X141.2178
G01 Y2.9000
G01 X95.0218
G01 Y2.9500
G01 X141.2178
G01 Y3.0000
G01 X95.0218
G01 Y3.0500
G01 X141.2178
G01 Y3.1000
G01 X95.0218
G01 Y3.1500
G01 X141.2178
G01 Y3.2000
G01 X95.0218
G01 Y3.2500
G01 X141.2178
G01 Y3.3000
G01 X95.0218
G01 Y3.3500
G01 X141.2178
G01 Y3.4000
G01 X95.0218
G01 Y3.4500
G01 X141.2178
G01 Y3.5000
G01 X95.0218
G01 Y3.5500
G01 X141.2178
G01 Y3.6000
G01 X95.0218
G01 Y3.6500
G01 X141.2178
G01 Y3.7000
G01 X95.0218
G01 Y3.7500
G01 X141.2178
G01 Y3.8000
G01 X95.0218
G01 Y3.8500
G01 X141.2178
G01 Y3.9000
G01 X95.0218
G01 Y3.9500
G01 X141.2178
G01 Y4.0000
G01 X95.0218
G01 Y4.0500
G01 X141.2178
G01 Y4.1000
G01 X95.0218
G01 Y4.1500
G01 X141.2178
G01 Y4.2000
G01 X95.0218
G01 Y4.2500
G01 X141.2178
G01 Y4.3000
G01 X95.0218
G01 Y4.3500
G01 X141.2178
G01 Y4.4000
G01 X95.0218
G01 Y4.4500
G01 X141.2178
G01 Y4.5000
G01 X95.0218
G01 Y4.5500
G01 X141.2178
G01 Y4.6000
G01 X95.0218
G01 Y4.6500
G01 X141.2178
G01 Y4.7000
G01 X95.0218
G01 Y4.7500
G01 X141.2178
G01 Y4.8000
G01 X95.0218
G01 Y4.8500
G01 X141.2178
G01 Y4.9000
G01 X95.0218
G01 Y4.9500
G01 X141.2178
G01 Y5.0000
G01 X95.0218
G01 Y5.0500
G01 X141.2178
G01 Y5.1000
G01 X95.0218
G01 Y5.1500
G01 X141.2178
G01 Y5.2000
G01 X95.0218
G01 Y5.2500
G01 X141.2178
G01 Y5.3000
G01 X95.0218
G01 Y5.3500
G01 X141.2178
G01 Y5.4000
G01 X95.0218
G01 Y5.4500
G01 X141.2178
G01 Y5.5000
G01 X95.0218
G01 Y5.5500
G01 X141.2178
G01 Y5.6000
G01 X95.0218
G01 Y5.6500
G01 X141.2178
G01 Y5.7000
G01 X95.0218
G01 Y5.7500
G01 X141.2178
G01 Y5.8000
G01 X95.0218
G01 Y5.8500
G01 X141.2178
G01 Y5.9000
G01 X95.0218
G01 Y5.9500
G01 X141.2178
G01 Y6.0000
G01 X95.0218
G01 Y6.0500
G01 X141.2178
G01 Y6.1000
G01 X95.0218
G01 Y6.1500
G01 X141.2178
G01 Y6.2000
G01 X95.0218
G01 Y6.2500
G01 X141.2178
G01 Y6.3000
G01 X95.0218
G01 Y6.3500
G01 X141.2178
G01 Y6.4000
G01 X95.0218
G01 Y6.4500
G01 X141.2178
G01 Y6.5000
G01 X95.0218
G01 Y6.5500
G01 X141.2178
G01 Y6.6000
G01 X95.0218
G01 Y6.6500
G01 X141.2178
G01 Y6.7000
G01 X95.0218
G01 Y6.7500
G01 X141.2178
G01 Y6.8000
G01 X95.0218
G01 Y6.8500
G01 X141.2178
G01 Y6.9000
G01 X95.0218
G01 Y6.9500
G01 X141.2178
G01 Y7.0000
G01 X95.0218
G01 Y7.0500
G01 X141.2178
G01 Y7.1000
G01 X95.0218
G01 Y7.1500
G01 X141.2178
G01 Y7.2000
G01 X95.0218
G01 Y7.2500
G01 X141.2178
G01 Y7.3000
G01 X95.0218
G01 Y7.3500
G01 X141.2178
G01 Y7.4000
G01 X95.0218
G01 Y7.4500
G01 X141.2178
G01 Y7.5000
G01 X95.0218
G01 Y7.5500
G01 X141.2178
G01 Y7.6000
G01 X95.0218
G01 Y7.6500
G01 X141.2178
G01 Y7.7000
G01 X95.0218
G01 Y7.7500
G01 X141.2178
G01 Y7.8000
G01 X95.0218
G01 Y7.8500
G01 X141.2178
G01 Y7.9000
G01 X95.0218
G01 Y7.9500
G01 X141.2178
G01 Y8.0000
G01 X95.0218
G01 Y8.0500
G01 X141.2178
G01 Y8.1000
G01 X95.0218
G01 Y8.1500
G01 X141.2178
G01 Y8.2000
G01 X95.0218
G01 Y8.2500
G01 X141.2178
G01 Y8.3000
G01 X95.0218
G01 Y8.3500
G01 X141.2178
G01 Y8.4000
G01 X95.0218
G01 Y8.4500
G01 X141.2178
G01 Y8.5000
G01 X95.0218
G01 Y8.5500
G01 X141.2178
G01 Y8.6000
G01 X95.0218
G01 Y8.6500
G01 X141.2178
G01 Y8.7000
G01 X95.0218
G01 Y8.7500
G01 X141.2178
G01 Y8.8000
G01 X95.0218
G01 Y8.8500
G01 X141.2178
G01 Y8.9000
G01 X95.0218
G01 Y8.9500
G01 X141.2178
G01 Y9.0000
G01 X95.0218
G01 Y9.0500
G01 X141.2178
G01 Y9.1000
G01 X95.0218
G01 Y9.1500
G01 X141.2178
G01 Y9.2000
G01 X95.0218
G01 Y9.2500
G01 X141.2178
G01 Y9.3000
G01 X95.0218
G01 Y9.3500
G01 X141.2178
G01 Y9.4000
G01 X95.0218
G01 Y9.4500
G01 X141.2178
G01 Y9.5000
G01 X95.0218
G01 Y9.5500
G01 X141.2178
G01 Y9.6000
G01 X95.0218
G01 Y9.6500
G01 X141.2178
G01 Y9.7000
G01 X95.0218
G01 Y9.7500
G01 X141.2178
G01 Y9.8000
G01 X95.0218
G01 Y9.8500
G01 X141.2178
G01 Y9.9000
G01 X95.0218
G01 Y9.9500
G01 X141.2178
G01 Y10.0000
G01 X95.0218
G01 Y10.0500
G01 X141.2178
G01 Y10.1000
G01 X95.0218
G01 Y10.1500
G01 X141.2178
G01 Y10.2000
G01 X95.0218
G01 Y10.2500
G01 X141.2178
G01 Y10.3000
G01 X95.0218
G01 Y10.3500
G01 X141.2178
G01 Y10.4000
G01 X95.0218
G01 Y10.4500
G01 X141.2178
G01 Y10.5000
G01 X95.0218
G01 Y10.5500
G01 X141.2178
G01 Y10.6000
G01 X95.0218
G01 Y10.6500
G01 X141.2178
G01 Y10.7000
G01 X95.0218
G01 Y10.7500
G01 X141.2178
G01 Y10.8000
G01 X95.0218
G01 Y10.8500
G01 X141.2178
G01 Y10.9000
G01 X95.0218
G01 Y10.9500
G01 X141.2178
G01 Y11.0000
G01 X95.0218
G01 Y11.0500
G01 X141.2178
G01 Y11.1000
G01 X95.0218
G01 Y11.1500
G01 X141.2178
G01 Y11.2000
G01 X95.0218
G01 Y11.2500
G01 X141.2178
G01 Y11.3000
G01 X95.0218
G01 Y11.3500
G01 X141.2178
G01 Y11.4000
G01 X95.0218
G01 Y11.4500
G01 X141.2178
G01 Y11.5000
G01 X95.0218
G01 Y11.5500
G01 X141.2178
G01 Y11.6000
G01 X95.0218
G01 Y11.6500
G01 X141.2178
G01 Y11.7000
G01 X95.0218
G01 Y11.7500
G01 X141.2178
G01 Y11.8000
G01 X95.0218
G01 Y11.8500
G01 X141.2178
G01 Y11.9000
G01 X95.0218
G01 Y11.9500
G01 X141.2178
G01 Y12.0000
G01 X95.0218
G01 Y12.0500
G01 X141.2178
G01 Y12.1000
G01 X95.0218
G01 Y12.1500
G01 X141.2178
G01 Y12.2000
G01 X95.0218
G01 Y12.2500
G01 X141.2178
G01 Y12.3000
G01 X95.0218
G01 Y12.3500
G01 X141.2178
G01 Y12.4000
G01 X95.0218
G01 Y12.4500
G01 X141.2178
G01 Y12.5000
G01 X95.0218
G01 Y12.5500
G01 X141.2178
G01 Y12.6000
G01 X95.0218
G01 Y12.6500
G01 X141.2178
G01 Y12.7000
G01 X95.0218
G01 Y12.7500
G01 X141.2178
G01 Y12.8000
G01 X95.0218
G01 Y12.8500
G01 X141.2178
G01 Y12.9000
G01 X95.0218
G01 Y12.9500
G01 X141.2178
G01 Y13.0000
G01 X95.0218
G01 Y13.0500
G01 X141.2178
G01 Y13.1000
G01 X95.0218
G01 Y13.1500
G01 X141.2178
G01 Y13.2000
G01 X95.0218
G01 Y13.2500
G01 X141.2178
G01 Y13.3000
G01 X95.0218
G01 Y13.3500
G01 X141.2178
G01 Y13.4000
G01 X95.0218
G01 Y13.4500
G01 X141.2178
G01 Y13.5000
G01 X95.0218
G01 Y13.5500
G01 X141.2178
G01 Y13.6000
G01 X95.0218
G01 Y13.6500
G01 X141.2178
G01 Y13.7000
G01 X95.0218
G01 Y13.7500
G01 X141.2178
G01 Y13.8000
G01 X95.0218
G01 Y13.8500
G01 X141.2178
G01 Y13.9000
G01 X95.0218
G01 Y13.9500
G01 X141.2178
G01 Y14.0000
G01 X95.0218
G01 Y14.0500
G01 X141.2178
G01 Y14.1000
G01 X95.0218
G01 Y14.1500
G01 X141.2178
G01 Y14.2000
G01 X95.0218
G01 Y14.2500
G01 X141.2178
G01 Y14.3000
G01 X95.0218
G01 Y14.3500
G01 X141.2178
G01 Y14.4000
G01 X95.0218
G01 Y14.4500
G01 X141.2178
G01 Y14.5000
G01 X95.0218
G01 Y14.5500
G01 X141.2178
G01 Y14.6000
G01 X95.0218
G01 Y14.6500
G01 X141.2178
G01 Y14.7000
G01 X95.0218
G01 Y14.7500
G01 X141.2178
G01 Y14.8000
G01 X95.0218
G01 Y14.8500
G01 X141.2178
G01 Y14.9000
G01 X95.0218
G01 Y14.9500
G01 X141.2178
G01 Y15.0000
G01 X95.0218
G01 Y15.0500
G01 X141.2178
G01 Y15.1000
G01 X95.0218
G01 Y15.1500
G01 X141.2178
G01 Y15.2000
G01 X95.0218
G01 Y15.2500
G01 X141.2178
G01 Y15.3000
G01 X95.0218
G01 Y15.3500
G01 X141.2178
G01 Y15.4000
G01 X95.0218
G01 Y15.4500
G01 X141.2178
G01 Y15.5000
G01 X95.0218
G01 Y15.5500
G01 X141.2178
G01 Y15.6000
G01 X95.0218
G01 Y15.6500
G01 X141.2178
G01 Y15.7000
G01 X95.0218
G01 Y15.7500
G01 X141.2178
G01 Y15.8000
G01 X95.0218
G01 Y15.8500
G01 X141.2178
G01 Y15.9000
G01 X95.0218
G01 Y15.9500
G01 X141.2178
G01 Y16.0000
G01 X95.0218
G01 Y16.0500
G01 X141.2178
G01 Y16.1000
G01 X95.0218
G01 Y16.1500
G01 X141.2178
G01 Y16.2000
G01 X95.0218
G01 Y16.2500
G01 X141.2178
G01 Y16.3000
G01 X95.0218
G01 Y16.3500
G01 X141.2178
G01 Y16.4000
G01 X95.0218
G01 Y16.4500
G01 X141.2178
G01 Y16.5000
G01 X95.0218
G01 Y16.5500
G01 X141.2178
G01 Y16.6000
G01 X95.0218
G01 Y16.6500
G01 X141.2178
G01 Y16.7000
G01 X95.0218
G01 Y16.7500
G01 X141.2178
G01 Y16.8000
G01 X95.0218
G01 Y16.8500
G01 X141.2178
G01 Y16.9000
G01 X95.0218
G01 Y16.9500
G01 X141.2178
G01 Y17.0000
G01 X95.0218
G01 Y17.0500
G01 X141.2178
G01 Y17.1000
G01 X95.0218
G01 Y17.1500
G01 X141.2178
G01 Y17.2000
G01 X95.0218
G01 Y17.2500
G01 X141.2178
G01 Y17.3000
G01 X95.0218
G01 Y17.3500
G01 X141.2178
G01 Y17.4000
G01 X95.0218
G01 Y17.4500
G01 X141.2178
G01 Y17.5000
G01 X95.0218
G01 Y17.5500
G01 X141.2178
G01 Y17.6000
G01 X95.0218
G01 Y17.6500
G01 X141.2178
G01 Y17.7000
G01 X95.0218
G01 Y17.7500
G01 X141.2178
G01 Y17.8000
G01 X95.0218
G01 Y17.8500
G01 X141.2178
G01 Y17.9000
G01 X95.0218
G01 Y17.9500
G01 X141.2178
G01 Y18.0000
G01 X95.0218
G01 Y18.0500
G01 X141.2178
G01 Y18.1000
G01 X95.0218
G01 Y18.1500
G01 X141.2178
G01 Y18.2000
G01 X95.0218
G01 Y18.2500
G01 X141.2178
G01 Y18.3000
G01 X95.0218
G01 Y18.3500
G01 X141.2178
G01 Y18.4000
G01 X95.0218
G01 Y18.4500
G01 X141.2178
G01 Y18.5000
G01 X95.0218
G01 Y18.5500
G01 X141.2178
G01 Y18.6000
G01 X95.0218
G01 Y18.6500
G01 X141.2178
G01 Y18.7000
G01 X95.0218
G01 Y18.7500
G01 X141.2178
G01 Y18.8000
G01 X95.0218
G01 Y18.8500
G01 X141.2178
G01 Y18.9000
G01 X95.0218
G01 Y18.9500
G01 X141.2178
G01 Y19.0000
G01 X95.0218
G01 Y19.0500
G01 X141.2178
G01 Y19.1000
G01 X95.0218
G01 Y19.1500
G01 X141.2178
G01 Y19.2000
G01 X95.0218
G01 Y19.2500
G01 X141.2178
G01 Y19.3000
G01 X95.0218
G01 Y19.3500
G01 X141.2178
G01 Y19.4000
G01 X95.0218
G01 Y19.4500
G01 X141.2178
G01 Y19.5000
G01 X95.0218
G01 Y19.5500
G01 X141.2178
G01 Y19.6000
G01 X95.0218
G01 Y19.6500
G01 X141.2178
G01 Y19.7000
G01 X95.0218
G01 Y19.7500
G01 X141.2178
G01 Y19.8000
G01 X95.0218
G01 Y19.8500
G01 X141.2178
G01 Y19.9000
G01 X95.0218
G01 Y19.9500
G01 X141.2178
G01 Y20.0000
G01 X95.0218
G01 Y20.0500
G01 X141.2178
G01 Y20.1000
G01 X95.0218
G01 Y20.1500
G01 X141.2178
G01 Y20.2000
G01 X95.0218
G01 Y20.2500
G01 X141.2178
G01 Y20.3000
G01 X95.0218
G01 Y20.3500
G01 X141.2178
G01 Y20.4000
G01 X95.0218
G01 Y20.4500
G01 X141.2178
G01 Y20.5000
G01 X95.0218
G01 Y20.5500
G01 X141.2178
G01 Y20.6000
G01 X95.0218
G01 Y20.6500
G01 X141.2178
G01 Y20.7000
G01 X95.0218
G01 Y20.7500
G01 X141.2178
G01 Y20.8000
G01 X95.0218
G01 Y20.8500
G01 X141.2178
G01 Y20.9000
G01 X95.0218
G01 Y20.9500
G01 X141.2178
G01 Y21.0000
G01 X95.0218
G01 Y21.0500
G01 X141.2178
G01 Y21.1000
G01 X95.0218
G01 Y21.1500
G01 X141.2178
G01 Y21.2000
G01 X95.0218
G01 Y21.2500
G01 X141.2178
G01 Y21.3000
G01 X95.0218
G01 Y21.3500
G01 X141.2178
G01 Y21.4000
G01 X95.0218
G01 Y21.4500
G01 X141.2178
G01 Y21.5000
G01 X95.0218
G01 Y21.5500
G01 X141.2178
G01 Y21.6000
G01 X95.0218
G01 Y21.6500
G01 X141.2178
G01 Y21.7000
G01 X95.0218
G01 Y21.7500
G01 X141.2178
G01 Y21.8000
G01 X95.0218
G01 Y21.8500
G01 X141.2178
G01 Y21.9000
G01 X95.0218
G01 Y21.9500
G01 X141.2178
G01 Y22.0000
G01 X95.0218
G01 Y22.0500
G01 X141.2178
G01 Y22.1000
G01 X95.0218
G01 Y22.1500
G01 X141.2178
G01 Y22.2000
G01 X95.0218
G01 Y22.2500
G01 X141.2178
G01 Y22.3000
G01 X95.0218
G01 Y22.3500
G01 X141.2178
G01 Y22.4000
G01 X95.0218
G01 Y22.4500
G01 X141.2178
G01 Y22.5000
G01 X95.0218
G01 Y22.5500
G01 X141.2178
G01 Y22.6000
G01 X95.0218
G01 Y22.6500
G01 X141.2178
G01 Y22.7000
G01 X95.0218
G01 Y22.7500
G01 X141.2178
G01 Y22.8000
G01 X95.0218
G01 Y22.8500
G01 X141.2178
G01 Y22.9000
G01 X95.0218
G01 Y22.9500
G01 X141.2178
G01 Y23.0000
G01 X95.0218
G01 Y23.0500
G01 X141.2178
G01 Y23.1000
G01 X95.0218
G01 Y23.1500
G01 X141.2178
G01 Y23.2000
G01 X95.0218
G01 Y23.2500
G01 X141.2178
G01 Y23.3000
G01 X95.0218
G01 Y23.3500
G01 X141.2178
G01 Y23.4000
G01 X95.0218
G01 Y23.4500
G01 X141.2178
G01 Y23.5000
G01 X95.0218
G01 Y23.5500
G01 X141.2178
G01 Y23.6000
G01 X95.0218
G01 Y23.6500
G01 X141.2178
G01 Y23.7000
G01 X95.0218
G01 Y23.7500
G01 X141.2178
G01 Y23.8000
G01 X95.0218
G01 Y23.8500
G01 X141.2178
G01 Y23.9000
G01 X95.0218
G01 Y23.9500
G01 X141.2178
G01 Y24.0000
G01 X95.0218
G01 Y24.0500
G01 X141.2178
G01 Y24.1000
G01 X95.0218
G01 Y24.1500
G01 X141.2178
G01 Y24.2000
G01 X95.0218
G01 Y24.2500
G01 X141.2178
G01 Y24.3000
G01 X95.0218
G01 Y24.3500
G01 X141.2178
G01 Y24.4000
G01 X95.0218
G01 Y24.4500
G01 X141.2178
G01 Y24.5000
G01 X95.0218
G01 Y24.5500
G01 X141.2178
G01 Y24.6000
G01 X95.0218
G01 Y24.6500
G01 X141.2178
G01 Y24.7000
G01 X95.0218
G01 Y24.7500
G01 X141.2178
G01 Y24.8000
G01 X95.0218
G01 Y24.8500
G01 X141.2178
G01 Y24.9000
G01 X95.0218
G01 Y24.9500
G01 X141.2178
G01 Y25.0000
G01 X95.0218
G01 Y25.0500
G01 X141.2178
G01 Y25.1000
G01 X95.0218
G01 Y25.1500
G01 X141.2178
G01 Y25.2000
G01 X95.0218
G01 Y25.2500
G01 X141.2178
G01 Y25.3000
G01 X95.0218
G01 Y25.3500
G01 X141.2178
G01 Y25.4000
G01 X95.0218
G01 Y25.4500
G01 X141.2178
G01 Y25.5000
G01 X95.0218
G01 Y25.5500
G01 X141.2178
G01 Y25.6000
G01 X95.0218
G01 Y25.6500
G01 X141.2178
G01 Y25.7000
G01 X95.0218
G01 Y25.7500
G01 X141.2178
G01 Y25.8000
G01 X95.0218
G01 Y25.8500
G01 X141.2178
G01 Y25.9000
G01 X95.0218
G01 Y25.9500
G01 X141.2178
G01 Y26.0000
G01 X95.0218
G01 Y26.0500
G01 X141.2178
G01 Y26.1000
G01 X95.0218
G01 Y26.1500
G01 X141.2178
G01 Y26.2000
G01 X95.0218
G01 Y26.2500
G01 X141.2178
G01 Y26.3000
G01 X95.0218
G01 Y26.3500
G01 X141.2178
G01 Y26.4000
G01 X95.0218
G01 Y26.4500
G01 X141.2178
G01 Y26.5000
G01 X95.0218
G01 Y26.5500
G01 X141.2178
G01 Y26.6000
G01 X95.0218
G01 Y26.6500
G01 X141.2178
G01 Y26.7000
G01 X95.0218
G01 Y26.7500
G01 X141.2178
G01 Y26.8000
G01 X95.0218
G01 Y26.8500
G01 X141.2178
G01 Y26.9000
G01 X95.0218
G01 Y26.9500
G01 X141.2178
G01 Y27.0000
G01 X95.0218
G01 Y27.0500
G01 X141.2178
G01 Y27.1000
G01 X95.0218
G01 Y27.1500
G01 X141.2178
G01 Y27.2000
G01 X95.0218
G01 Y27.2500
G01 X141.2178
G01 Y27.3000
G01 X95.0218
G01 Y27.3500
G01 X141.2178
G01 Y27.4000
G01 X95.0218
G01 Y27.4500
G01 X141.2178
G01 Y27.5000
G01 X95.0218
G01 Y27.5500
G01 X141.2178
G01 Y27.6000
G01 X95.0218
G01 Y27.6500
G01 X141.2178
G01 Y27.7000
G01 X95.0218
G01 Y27.7500
G01 X141.2178
G01 Y27.8000
G01 X95.0218
G01 Y27.8500
G01 X141.2178
G01 Y27.9000
G01 X95.0218
G01 Y27.9500
G01 X141.2178
G01 Y28.0000
G01 X95.0218
G01 Y28.0500
G01 X141.2178
G01 Y28.1000
G01 X95.0218
G01 Y28.1500
G01 X141.2178
G01 Y28.2000
G01 X95.0218
G01 Y28.2500
G01 X141.2178
G01 Y28.3000
G01 X95.0218
G01 Y28.3500
G01 X141.2178
G01 Y28.4000
G01 X95.0218
G01 Y28.4500
G01 X141.2178
G01 Y28.5000
G01 X95.0218
G01 Y28.5500
G01 X141.2178
G01 Y28.6000
G01 X95.0218
G01 Y28.6500
G01 X141.2178
G01 Y28.7000
G01 X95.0218
G01 Y28.7500
G01 X141.2178
G01 Y28.8000
G01 X95.0218
G01 Y28.8500
G01 X141.2178
G01 Y28.9000
G01 X95.0218
G01 Y28.9500
G01 X141.2178
G01 Y29.0000
G01 X95.0218
G01 Y29.0500
G01 X141.2178
G01 Y29.1000
G01 X95.0218
G01 Y29.1500
G01 X141.2178
G01 Y29.2000
G01 X95.0218
G01 Y29.2500
G01 X141.2178
G01 Y29.3000
G01 X95.0218
G01 Y29.3500
G01 X141.2178
G01 Y29.4000
G01 X95.0218
G01 Y29.4500
G01 X141.2178
G01 Y29.5000
G01 X95.0218
G01 Y29.5500
G01 X141.2178
G01 Y29.6000
G01 X95.0218
G01 Y29.6500
G01 X141.2178
G01 Y29.7000
G01 X95.0218
G01 Y29.7500
G01 X141.2178
G01 Y29.8000
G01 X95.0218
G01 Y29.8500
G01 X141.2178
G01 Y29.9000
G01 X95.0218
G01 Y29.9500
G01 X141.2178
G01 Y30.0000
G01 X95.0218
G01 Y30.0500
G01 X141.2178
G01 Y30.1000
G01 X95.0218
G01 Y30.1500
G01 X141.2178
G01 Y30.2000
G01 X95.0218
G01 Y30.2500
G01 X141.2178
G01 Y30.3000
G01 X95.0218
G01 Y30.3500
G01 X141.2178
G01 Y30.4000
G01 X95.0218
G01 Y30.4500
G01 X141.2178
G01 Y30.5000
G01 X95.0218
G01 Y30.5500
G01 X141.2178
G01 Y30.6000
G01 X95.0218
G01 Y30.6500
G01 X141.2178
G01 Y30.7000
G01 X95.0218
G01 Y30.7500
G01 X141.2178
G01 Y30.8000
G01 X95.0218
G01 Y30.8500
G01 X141.2178
G01 Y30.9000
G01 X95.0218
G01 Y30.9500
G01 X141.2178
G01 Y31.0000
G01 X95.0218
G01 Y31.0500
G01 X141.2178
G01 Y31.1000
G01 X95.0218
G01 Y31.1500
G01 X141.2178
G01 Y31.2000
G01 X95.0218
G01 Y31.2500
G01 X141.2178
G01 Y31.3000
G01 X95.0218
G01 Y31.3500
G01 X141.2178
G01 Y31.4000
G01 X95.0218
G01 Y31.4500
G01 X141.2178
G01 Y31.5000
G01 X95.0218
G01 Y31.5500
G01 X141.2178
G01 Y31.6000
G01 X95.0218
G01 Y31.6500
G01 X141.2178
G01 Y31.7000
G01 X95.0218
G01 Y31.7500
G01 X141.2178
G01 Y31.8000
G01 X95.0218
G01 Y31.8500
G01 X141.2178
G01 Y31.9000
G01 X95.0218
G01 Y31.9500
G01 X141.2178
G01 Y32.0000
G01 X95.0218
G01 Y32.0500
G01 X141.2178
G01 Y32.1000
G01 X95.0218
G01 Y32.1500
G01 X141.2178
G01 Y32.2000
G01 X95.0218
G01 Y32.2500
G01 X141.2178
G01 Y32.3000
G01 X95.0218
G01 Y32.3500
G01 X141.2178
G01 Y32.4000
G01 X95.0218
G01 Y32.4500
G01 X141.2178
G01 Y32.5000
G01 X95.0218
G01 Y32.5500
G01 X141.2178
G01 Y32.6000
G01 X95.0218
G01 Y32.6500
G01 X141.2178
G01 Y32.7000
G01 X95.0218
G01 Y32.7500
G01 X141.2178
G01 Y32.8000
G01 X95.0218
G01 Y32.8500
G01 X141.2178
G01 Y32.9000
G01 X95.0218
G01 Y32.9500
G01 X141.2178
G01 Y33.0000
G01 X95.0218
G01 Y33.0500
G01 X141.2178
G01 Y33.1000
G01 X95.0218
G01 Y33.1500
G01 X141.2178
G01 Y33.2000
G01 X95.0218
G01 Y33.2500
G01 X141.2178
G01 Y33.3000
G01 X95.0218
G01 Y33.3500
G01 X141.2178
G01 Y33.4000
G01 X95.0218
G01 Y33.4500
G01 X141.2178
G01 Y33.5000
G01 X95.0218
G01 Y33.5500
G01 X141.2178
G01 Y33.6000
G01 X95.0218
G01 Y33.6500
G01 X141.2178
G01 Y33.7000
G01 X95.0218
G01 Y33.7500
G01 X141.2178
G01 Y33.8000
G01 X95.0218
G01 Y33.8500
G01 X141.2178
G01 Y33.9000
G01 X95.0218
G01 Y33.9500
G01 X141.2178
G01 Y34.0000
G01 X95.0218
G01 Y34.0500
G01 X141.2178
G01 Y34.1000
G01 X95.0218
G01 Y34.1500
G01 X141.2178
G01 Y34.2000
G01 X95.0218
G01 Y34.2500
G01 X141.2178
G01 Y34.3000
G01 X95.0218
G01 Y34.3500
G01 X141.2178
G01 Y34.4000
G01 X95.0218
G01 Y34.4500
G01 X141.2178
G01 Y34.5000
G01 X95.0218
G01 Y34.5500
G01 X141.2178
G01 Y34.6000
G01 X95.0218
G01 Y34.6500
G01 X141.2178
G01 Y34.7000
G01 X95.0218
G01 Y34.7500
G01 X141.2178
G01 Y34.8000
G01 X95.0218
G01 Y34.8500
G01 X141.2178
G01 Y34.9000
G01 X95.0218
G01 Y34.9500
G01 X141.2178
G01 Y35.0000
G01 X95.0218
G01 Y35.0500
G01 X141.2178
G01 Y35.1000
G01 X95.0218
G01 Y35.1500
G01 X141.2178
G01 Y35.2000
G01 X95.0218
G01 Y35.2500
G01 X141.2178
G01 Y35.3000
G01 X95.0218
G01 Y35.3500
G01 X141.2178
G01 Y35.4000
G01 X95.0218
G01 Y35.4500
G01 X141.2178
G01 Y35.5000
G01 X95.0218
G01 Y35.5500
G01 X141.2178
G01 Y35.6000
G01 X95.0218
G01 Y35.6500
G01 X141.2178
G01 Y35.7000
G01 X95.0218
G01 Y35.7500
G01 X141.2178
G01 Y35.8000
G01 X95.0218
G01 Y35.8500
G01 X141.2178
G01 Y35.9000
G01 X95.0218
G01 Y35.9500
G01 X141.2178
G01 Y36.0000
G01 X95.0218
G01 Y36.0500
G01 X141.2178
G01 Y36.1000
G01 X95.0218
G01 Y36.1500
G01 X141.2178
G01 Y36.2000
G01 X95.0218
G01 Y36.2500
G01 X141.2178
G01 Y36.3000
G01 X95.0218
G01 Y36.3500
G01 X141.2178
G01 Y36.4000
G01 X95.0218
G01 Y36.4500
G01 X141.2178
G01 Y36.5000
G01 X95.0218
G01 Y36.5500
G01 X141.2178
G01 Y36.6000
G01 X95.0218
G01 Y36.6500
G01 X141.2178
G01 Y36.7000
G01 X95.0218
G01 Y36.7500
G01 X141.2178
G01 Y36.8000
G01 X95.0218
G01 Y36.8500
G01 X141.2178
G01 Y36.9000
G01 X95.0218
G01 Y36.9500
G01 X141.2178
G01 Y37.0000
G01 X95.0218
G01 Y37.0500
G01 X141.2178
G01 Y37.1000
G01 X95.0218
G01 Y37.1500
G01 X141.2178
G01 Y37.2000
G01 X95.0218
G01 Y37.2500
G01 X141.2178
G01 Y37.3000
G01 X95.0218
G01 Y37.3500
G01 X141.2178
G01 Y37.4000
G01 X95.0218
G01 Y37.4500
G01 X141.2178
G01 Y37.5000
G01 X95.0218
G01 Y37.5500
G01 X141.2178
G01 Y37.6000
G01 X95.0218
G01 Y37.6500
G01 X141.2178
G01 Y37.7000
G01 X95.0218
G01 Y37.7500
G01 X141.2178
G01 Y37.8000
G01 X95.0218
G01 Y37.8500
G01 X141.2178
G01 Y37.9000
G01 X95.0218
G01 Y37.9500
G01 X141.2178
G01 Y38.0000
G01 X95.0218
G01 Y38.0500
G01 X141.2178
G01 Y38.1000
G01 X95.0218
G01 Y38.1500
G01 X141.2178
G01 Y38.2000
G01 X95.0218
G01 Y38.2500
G01 X141.2178
G01 Y38.3000
G01 X95.0218
G01 Y38.3500
G01 X141.2178
G01 Y38.4000
G01 X95.0218
G01 Y38.4500
G01 X141.2178
G01 Y38.5000
G01 X95.0218
G01 Y38.5500
G01 X141.2178
G01 Y38.6000
G01 X95.0218
G01 Y38.6500
G01 X141.2178
G01 Y38.7000
G01 X95.0218
G01 Y38.7500
G01 X141.2178
G01 Y38.8000
G01 X95.0218
G01 Y38.8500
G01 X141.2178
G01 Y38.9000
G01 X95.0218
G01 Y38.9500
G01 X141.2178
G01 Y39.0000
G01 X95.0218
G01 Y39.0500
G01 X141.2178
G01 Y39.1000
G01 X95.0218
G01 Y39.1500
G01 X141.2178
G01 Y39.2000
G01 X95.0218
G01 Y39.2500
G01 X141.2178
G01 Y39.3000
G01 X95.0218
G01 Y39.3500
G01 X141.2178
G01 Y39.4000
G01 X95.0218
G01 Y39.4500
G01 X141.2178
G01 Y39.5000
G01 X95.0218
G01 Y39.5500
G01 X141.2178
G01 Y39.6000
G01 X95.0218
G01 Y39.6500
G01 X141.2178
G01 Y39.7000
G01 X95.0218
G01 Y39.7500
G01 X141.2178
G01 Y39.8000
G01 X95.0218
G01 Y39.8500
G01 X141.2178
G01 Y39.9000
G01 X95.0218
G01 Y39.9500
G01 X141.2178
G01 Y40.0000
G01 X95.0218
G01 Y40.0500
G01 X141.2178
G01 Y40.1000
G01 X95.0218
G01 Y40.1500
G01 X141.2178
G01 Y40.2000
G01 X95.0218
G01 Y40.2500
G01 X141.2178
G01 Y40.3000
G01 X95.0218
G01 Y40.3500
G01 X141.2178
G01 Y40.4000
G01 X95.0218
G01 Y40.4500
G01 X141.2178
G01 Y40.5000
G01 X95.0218
G01 Y40.5500
G01 X141.2178
G01 Y40.6000
G01 X95.0218
G01 Y40.6500
G01 X141.2178
G01 Y40.7000
G01 X95.0218
G01 Y40.7500
G01 X141.2178
G01 Y40.8000
G01 X95.0218
G01 Y40.8500
G01 X141.2178
G01 Y40.9000
G01 X95.0218
G01 Y40.9500
G01 X141.2178
G01 Y41.0000
G01 X95.0218
G01 Y41.0500
G01 X141.2178
G01 Y41.1000
G01 X95.0218
G01 Y41.1500
G01 X141.2178
G01 Y41.2000
G01 X95.0218
G01 Y41.2500
G01 X141.2178
G01 Y41.3000
G01 X95.0218
G01 Y41.3500
G01 X141.2178
G01 Y41.4000
G01 X95.0218
G01 Y41.4500
G01 X141.2178
G01 Y41.5000
G01 X95.0218
G01 Y41.5500
G01 X141.2178
G01 Y41.6000
G01 X95.0218
G01 Y41.6500
G01 X141.2178
G01 Y41.7000
G01 X95.0218
G01 Y41.7500
G01 X141.2178
G01 Y41.8000
G01 X95.0218
G01 Y41.8500
G01 X141.2178
G01 Y41.9000
G01 X95.0218
G01 Y41.9500
G01 X141.2178
G01 Y42.0000
G01 X95.0218
G01 Y42.0500
G01 X141.2178
G01 Y42.1000
G01 X95.0218
G01 Y42.1500
G01 X141.2178
G01 Y42.2000
G01 X95.0218
G01 Y42.2500
G01 X141.2178
G01 Y42.3000
G01 X95.0218
G01 Y42.3500
G01 X141.2178
G01 Y42.4000
G01 X95.0218
G01 Y42.4500
G01 X141.2178
G01 Y42.5000
G01 X95.0218
G01 Y42.5500
G01 X141.2178
G01 Y42.6000
G01 X95.0218
G01 Y42.6500
G01 X141.2178
G01 Y42.7000
G01 X95.0218
G01 Y42.7500
G01 X141.2178
G01 Y42.8000
G01 X95.0218
G01 Y42.8500
G01 X141.2178
G01 Y42.9000
G01 X95.0218
G01 Y42.9500
G01 X141.2178
G01 Y43.0000
G01 X95.0218
G01 Y43.0500
G01 X141.2178
G01 Y43.1000
G01 X95.0218
G01 Y43.1500
G01 X141.2178
G01 Y43.2000
G01 X95.0218
G01 Y43.2500
G01 X141.2178
G01 Y43.3000
G01 X95.0218
G01 Y43.3500
G01 X141.2178
G01 Y43.4000
G01 X95.0218
G01 Y43.4500
G01 X141.2178
G01 Y43.5000
G01 X95.0218
G01 Y43.5500
G01 X141.2178
G01 Y43.6000
G01 X95.0218
G01 Y43.6500
G01 X141.2178
G01 Y43.7000
G01 X95.0218
G01 Y43.7500
G01 X141.2178
G01 Y43.8000
G01 X95.0218
G01 Y43.8500
G01 X141.2178
G01 Y43.9000
G01 X95.0218
G01 Y43.9500
G01 X141.2178
G01 Y44.0000
G01 X95.0218
G01 Y44.0500
G01 X141.2178
G01 Y44.1000
G01 X95.0218
G01 Y44.1500
G01 X141.2178
G01 Y44.2000
G01 X95.0218
G01 Y44.2500
G01 X141.2178
G01 Y44.3000
G01 X95.0218
G01 Y44.3500
G01 X141.2178
G01 Y44.4000
G01 X95.0218
G01 Y44.4500
G01 X141.2178
G01 Y44.5000
G01 X95.0218
G01 Y44.5500
G01 X141.2178
G01 Y44.6000
G01 X95.0218
G01 Y44.6500
G01 X141.2178
G01 Y44.7000
G01 X95.0218
G01 Y44.7500
G01 X141.2178
G01 Y44.8000
G01 X95.0218
G01 Y44.8500
G01 X141.2178
G01 Y44.9000
G01 X95.0218
G01 Y44.9500
G01 X141.2178
G01 Y45.0000
G01 X95.0218
G01 Y45.0500
G01 X141.2178
G01 Y45.1000
G01 X95.0218
G01 Y45.1500
G01 X141.2178
G01 Y45.2000
G01 X95.0218
G01 Y45.2500
G01 X141.2178
G01 Y45.3000
G01 X95.0218
G01 Y45.3500
G01 X141.2178
G01 Y45.4000
G01 X95.0218
G01 Y45.4500
G01 X141.2178
G01 Y45.5000
G01 X95.0218
G01 Y45.5500
G01 X141.2178
G01 Y45.6000
G01 X95.0218
G01 Y45.6500
G01 X141.2178
G01 Y45.7000
G01 X95.0218
G01 Y45.7500
G01 X141.2178
G01 Y45.8000
G01 X95.0218
G01 Y45.8500
G01 X141.2178
G01 Y45.9000
G01 X95.0218
G01 Y45.9500
G01 X141.2178
G01 Y46.0000
G01 X95.0218
G01 Y46.0500
G01 X141.2178
G01 Y46.1000
G01 X95.0218
G01 Y46.1500
G01 X141.2178
G01 Y46.2000
G01 X95.0218
G01 Y46.2500
G01 X141.2178
G01 Y46.3000
G01 X95.0218
G01 Y46.3500
G01 X141.2178
G01 Y46.4000
G01 X95.0218
G01 Y46.4500
G01 X141.2178
G01 Y46.5000
G01 X95.0218
G01 Y46.5500
G01 X141.2178
G01 Y46.6000
G01 X95.0218
G01 Y46.6500
G01 X141.2178
G01 Y46.7000
G01 X95.0218
G01 Y46.7500
G01 X141.2178
G01 Y46.8000
G01 X95.0218
G01 Y46.8500
G01 X141.2178
G01 Y46.9000
G01 X95.0218
G01 Y46.9500
G01 X141.2178
G01 Y47.0000
G01 X95.0218
G01 Y47.0500
G01 X141.2178
G01 Y47.1000
G01 X95.0218
G01 Y47.1500
G01 X141.2178
G01 Y47.2000
G01 X95.0218
G01 Y47.2500
G01 X141.2178
G01 Y47.3000
G01 X95.0218
G01 Y47.3500
G01 X141.2178
G01 Y47.4000
G01 X95.0218
G01 Y47.4500
G01 X141.2178
G01 Y47.5000
G01 X95.0218
G01 Y47.5500
G01 X141.2178
G01 Y47.6000
G01 X95.0218
G01 Y47.6500
G01 X141.2178
G01 Y47.7000
G01 X95.0218
G01 Y47.7500
G01 X141.2178
G01 Y47.8000
G01 X95.0218
G01 Y47.8500
G01 X141.2178
G01 Y47.9000
G01 X95.0218
G01 Y47.9500
G01 X141.2178
G01 Y48.0000
G01 X95.0218
G01 Y48.0500
G01 X141.2178
G01 X141.5348 Y47.9328
G01 Y1.5850
G01 X94.7048
G01 Y48.4150
G01 X141.5348
G01 Y47.9328
G01 X141.2178 Y48.0500
G01 X135.5465 Z-3.5000 F1000
G01 X141.2178 Z-4.0000
G01 X95.0218 F1200
G01 Y48.0000
G01 X141.2178
G01 Y47.9500
G01 X95.0218
G01 Y47.9000
G01 X141.2178
G01 Y47.8500
G01 X95.0218
G01 Y47.8000
G01 X141.2178
G01 Y47.7500
G01 X95.0218
G01 Y47.7000
G01 X141.2178
G01 Y47.6500
G01 X95.0218
G01 Y47.6000
G01 X141.2178
G01 Y47.5500
G01 X95.0218
G01 Y47.5000
G01 X141.2178
G01 Y47.4500
G01 X95.0218
G01 Y47.4000
G01 X141.2178
G01 Y47.3500
G01 X95.0218
G01 Y47.3000
G01 X141.2178
G01 Y47.2500
G01 X95.0218
G01 Y47.2000
G01 X141.2178
G01 Y47.1500
G01 X95.0218
G01 Y47.1000
G01 X141.2178
G01 Y47.0500
G01 X95.0218
G01 Y47.0000
G01 X141.2178
G01 Y46.9500
G01 X95.0218
G01 Y46.9000
G01 X141.2178
G01 Y46.8500
G01 X95.0218
G01 Y46.8000
G01 X141.2178
G01 Y46.7500
G01 X95.0218
G01 Y46.7000
G01 X141.2178
G01 Y46.6500
G01 X95.0218
G01 Y46.6000
G01 X141.2178
G01 Y46.5500
G01 X95.0218
G01 Y46.5000
G01 X141.2178
G01 Y46.4500
G01 X95.0218
G01 Y46.4000
G01 X141.2178
G01 Y46.3500
G01 X95.0218
G01 Y46.3000
G01 X141.2178
G01 Y46.2500
G01 X95.0218
G01 Y46.2000
G01 X141.2178
G01 Y46.1500
G01 X95.0218
G01 Y46.1000
G01 X141.2178
G01 Y46.0500
G01 X95.0218
G01 Y46.0000
G01 X141.2178
G01 Y45.9500
G01 X95.0218
G01 Y45.9000
G01 X141.2178
G01 Y45.8500
G01 X95.0218
G01 Y45.8000
G01 X141.2178
G01 Y45.7500
G01 X95.0218
G01 Y45.7000
G01 X141.2178
G01 Y45.6500
G01 X95.0218
G01 Y45.6000
G01 X141.2178
G01 Y45.5500
G01 X95.0218
G01 Y45.5000
G01 X141.2178
G01 Y45.4500
G01 X95.0218
G01 Y45.4000
G01 X141.2178
G01 Y45.3500
G01 X95.0218
G01 Y45.3000
G01 X141.2178
G01 Y45.2500
G01 X95.0218
G01 Y45.2000
G01 X141.2178
G01 Y45.1500
G01 X95.0218
G01 Y45.1000
G01 X141.2178
G01 Y45.0500
G01 X95.0218
G01 Y45.0000
G01 X141.2178
G01 Y44.9500
G01 X95.0218
G01 Y44.9000
G01 X141.2178
G01 Y44.8500
G01 X95.0218
G01 Y44.8000
G01 X141.2178
G01 Y44.7500
G01 X95.0218
G01 Y44.7000
G01 X141.2178
G01 Y44.6500
G01 X95.0218
G01 Y44.6000
G01 X141.2178
G01 Y44.5500
G01 X95.0218
G01 Y44.5000
G01 X141.2178
G01 Y44.4500
G01 X95.0218
G01 Y44.4000
G01 X141.2178
G01 Y44.3500
G01 X95.0218
G01 Y44.3000
G01 X141.2178
G01 Y44.2500
G01 X95.0218
G01 Y44.2000
G01 X141.2178
G01 Y44.1500
G01 X95.0218
G01 Y44.1000
G01 X141.2178
G01 Y44.0500
G01 X95.0218
G01 Y44.0000
G01 X141.2178
G01 Y43.9500
G01 X95.0218
G01 Y43.9000
G01 X141.2178
G01 Y43.8500
G01 X95.0218
G01 Y43.8000
G01 X141.2178
G01 Y43.7500
G01 X95.0218
G01 Y43.7000
G01 X141.2178
G01 Y43.6500
G01 X95.0218
G01 Y43.6000
G01 X141.2178
G01 Y43.5500
G01 X95.0218
G01 Y43.5000
G01 X141.2178
G01 Y43.4500
G01 X95.0218
G01 Y43.4000
G01 X141.2178
G01 Y43.3500
G01 X95.0218
G01 Y43.3000
G01 X141.2178
G01 Y43.2500
G01 X95.0218
G01 Y43.2000
G01 X141.2178
G01 Y43.1500
G01 X95.0218
G01 Y43.1000
G01 X141.2178
G01 Y43.0500
G01 X95.0218
G01 Y43.0000
G01 X141.2178
G01 Y42.9500
G01 X95.0218
G01 Y42.9000
G01 X141.2178
G01 Y42.8500
G01 X95.0218
G01 Y42.8000
G01 X141.2178
G01 Y42.7500
G01 X95.0218
G01 Y42.7000
G01 X141.2178
G01 Y42.6500
G01 X95.0218
G01 Y42.6000
G01 X141.2178
G01 Y42.5500
G01 X95.0218
G01 Y42.5000
G01 X141.2178
G01 Y42.4500
G01 X95.0218
G01 Y42.4000
G01 X141.2178
G01 Y42.3500
G01 X95.0218
G01 Y42.3000
G01 X141.2178
G01 Y42.2500
G01 X95.0218
G01 Y42.2000
G01 X141.2178
G01 Y42.1500
G01 X95.0218
G01 Y42.1000
G01 X141.2178
G01 Y42.0500
G01 X95.0218
G01 Y42.0000
G01 X141.2178
G01 Y41.9500
G01 X95.0218
G01 Y41.9000
G01 X141.2178
G01 Y41.8500
G01 X95.0218
G01 Y41.8000
G01 X141.2178
G01 Y41.7500
G01 X95.0218
G01 Y41.7000
G01 X141.2178
G01 Y41.6500
G01 X95.0218
G01 Y41.6000
G01 X141.2178
G01 Y41.5500
G01 X95.0218
G01 Y41.5000
G01 X141.2178
G01 Y41.4500
G01 X95.0218
G01 Y41.4000
G01 X141.2178
G01 Y41.3500
G01 X95.0218
G01 Y41.3000
G01 X141.2178
G01 Y41.2500
G01 X95.0218
G01 Y41.2000
G01 X141.2178
G01 Y41.1500
G01 X95.0218
G01 Y41.1000
G01 X141.2178
G01 Y41.0500
G01 X95.0218
G01 Y41.0000
G01 X141.2178
G01 Y40.9500
G01 X95.0218
G01 Y40.9000
G01 X141.2178
G01 Y40.8500
G01 X95.0218
G01 Y40.8000
G01 X141.2178
G01 Y40.7500
G01 X95.0218
G01 Y40.7000
G01 X141.2178
G01 Y40.6500
G01 X95.0218
G01 Y40.6000
G01 X141.2178
G01 Y40.5500
G01 X95.0218
G01 Y40.5000
G01 X141.2178
G01 Y40.4500
G01 X95.0218
G01 Y40.4000
G01 X141.2178
G01 Y40.3500
G01 X95.0218
G01 Y40.3000
G01 X141.2178
G01 Y40.2500
G01 X95.0218
G01 Y40.2000
G01 X141.2178
G01 Y40.1500
G01 X95.0218
G01 Y40.1000
G01 X141.2178
G01 Y40.0500
G01 X95.0218
G01 Y40.0000
G01 X141.2178
G01 Y39.9500
G01 X95.0218
G01 Y39.9000
G01 X141.2178
G01 Y39.8500
G01 X95.0218
G01 Y39.8000
G01 X141.2178
G01 Y39.7500
G01 X95.0218
G01 Y39.7000
G01 X141.2178
G01 Y39.6500
G01 X95.0218
G01 Y39.6000
G01 X141.2178
G01 Y39.5500
G01 X95.0218
G01 Y39.5000
G01 X141.2178
G01 Y39.4500
G01 X95.0218
G01 Y39.4000
G01 X141.2178
G01 Y39.3500
G01 X95.0218
G01 Y39.3000
G01 X141.2178
G01 Y39.2500
G01 X95.0218
G01 Y39.2000
G01 X141.2178
G01 Y39.1500
G01 X95.0218
G01 Y39.1000
G01 X141.2178
G01 Y39.0500
G01 X95.0218
G01 Y39.0000
G01 X141.2178
G01 Y38.9500
G01 X95.0218
G01 Y38.9000
G01 X141.2178
G01 Y38.8500
G01 X95.0218
G01 Y38.8000
G01 X141.2178
G01 Y38.7500
G01 X95.0218
G01 Y38.7000
G01 X141.2178
G01 Y38.6500
G01 X95.0218
G01 Y38.6000
G01 X141.2178
G01 Y38.5500
G01 X95.0218
G01 Y38.5000
G01 X141.2178
G01 Y38.4500
G01 X95.0218
G01 Y38.4000
G01 X141.2178
G01 Y38.3500
G01 X95.0218
G01 Y38.3000
G01 X141.2178
G01 Y38.2500
G01 X95.0218
G01 Y38.2000
G01 X141.2178
G01 Y38.1500
G01 X95.0218
G01 Y38.1000
G01 X141.2178
G01 Y38.0500
G01 X95.0218
G01 Y38.0000
G01 X141.2178
G01 Y37.9500
G01 X95.0218
G01 Y37.9000
G01 X141.2178
G01 Y37.8500
G01 X95.0218
G01 Y37.8000
G01 X141.2178
G01 Y37.7500
G01 X95.0218
G01 Y37.7000
G01 X141.2178
G01 Y37.6500
G01 X95.0218
G01 Y37.6000
G01 X141.2178
G01 Y37.5500
G01 X95.0218
G01 Y37.5000
G01 X141.2178
G01 Y37.4500
G01 X95.0218
G01 Y37.4000
G01 X141.2178
G01 Y37.3500
G01 X95.0218
G01 Y37.3000
G01 X141.2178
G01 Y37.2500
G01 X95.0218
G01 Y37.2000
G01 X141.2178
G01 Y37.1500
G01 X95.0218
G01 Y37.1000
G01 X141.2178
G01 Y37.0500
G01 X95.0218
G01 Y37.0000
G01 X141.2178
G01 Y36.9500
G01 X95.0218
G01 Y36.9000
G01 X141.2178
G01 Y36.8500
G01 X95.0218
G01 Y36.8000
G01 X141.2178
G01 Y36.7500
G01 X95.0218
G01 Y36.7000
G01 X141.2178
G01 Y36.6500
G01 X95.0218
G01 Y36.6000
G01 X141.2178
G01 Y36.5500
G01 X95.0218
G01 Y36.5000
G01 X141.2178
G01 Y36.4500
G01 X95.0218
G01 Y36.4000
G01 X141.2178
G01 Y36.3500
G01 X95.0218
G01 Y36.3000
G01 X141.2178
G01 Y36.2500
G01 X95.0218
G01 Y36.2000
G01 X141.2178
G01 Y36.1500
G01 X95.0218
G01 Y36.1000
G01 X141.2178
G01 Y36.0500
G01 X95.0218
G01 Y36.0000
G01 X141.2178
G01 Y35.9500
G01 X95.0218
G01 Y35.9000
G01 X141.2178
G01 Y35.8500
G01 X95.0218
G01 Y35.8000
G01 X141.2178
G01 Y35.7500
G01 X95.0218
G01 Y35.7000
G01 X141.2178
G01 Y35.6500
G01 X95.0218
G01 Y35.6000
G01 X141.2178
G01 Y35.5500
G01 X95.0218
G01 Y35.5000
G01 X141.2178
G01 Y35.4500
G01 X95.0218
G01 Y35.4000
G01 X141.2178
G01 Y35.3500
G01 X95.0218
G01 Y35.3000
G01 X141.2178
G01 Y35.2500
G01 X95.0218
G01 Y35.2000
G01 X141.2178
G01 Y35.1500
G01 X95.0218
G01 Y35.1000
G01 X141.2178
G01 Y35.0500
G01 X95.0218
G01 Y35.0000
G01 X141.2178
G01 Y34.9500
G01 X95.0218
G01 Y34.9000
G01 X141.2178
G01 Y34.8500
G01 X95.0218
G01 Y34.8000
G01 X141.2178
G01 Y34.7500
G01 X95.0218
G01 Y34.7000
G01 X141.2178
G01 Y34.6500
G01 X95.0218
G01 Y34.6000
G01 X141.2178
G01 Y34.5500
G01 X95.0218
G01 Y34.5000
G01 X141.2178
G01 Y34.4500
G01 X95.0218
G01 Y34.4000
G01 X141.2178
G01 Y34.3500
G01 X95.0218
G01 Y34.3000
G01 X141.2178
G01 Y34.2500
G01 X95.0218
G01 Y34.2000
G01 X141.2178
G01 Y34.1500
G01 X95.0218
G01 Y34.1000
G01 X141.2178
G01 Y34.0500
G01 X95.0218
G01 Y34.0000
G01 X141.2178
G01 Y33.9500
G01 X95.0218
G01 Y33.9000
G01 X141.2178
G01 Y33.8500
G01 X95.0218
G01 Y33.8000
G01 X141.2178
G01 Y33.7500
G01 X95.0218
G01 Y33.7000
G01 X141.2178
G01 Y33.6500
G01 X95.0218
G01 Y33.6000
G01 X141.2178
G01 Y33.5500
G01 X95.0218
G01 Y33.5000
G01 X141.2178
G01 Y33.4500
G01 X95.0218
G01 Y33.4000
G01 X141.2178
G01 Y33.3500
G01 X95.0218
G01 Y33.3000
G01 X141.2178
G01 Y33.2500
G01 X95.0218
G01 Y33.2000
G01 X141.2178
G01 Y33.1500
G01 X95.0218
G01 Y33.1000
G01 X141.2178
G01 Y33.0500
G01 X95.0218
G01 Y33.0000
G01 X141.2178
G01 Y32.9500
G01 X95.0218
G01 Y32.9000
G01 X141.2178
G01 Y32.8500
G01 X95.0218
G01 Y32.8000
G01 X141.2178
G01 Y32.7500
G01 X95.0218
G01 Y32.7000
G01 X141.2178
G01 Y32.6500
G01 X95.0218
G01 Y32.6000
G01 X141.2178
G01 Y32.5500
G01 X95.0218
G01 Y32.5000
G01 X141.2178
G01 Y32.4500
G01 X95.0218
G01 Y32.4000
G01 X141.2178
G01 Y32.3500
G01 X95.0218
G01 Y32.3000
G01 X141.2178
G01 Y32.2500
G01 X95.0218
G01 Y32.2000
G01 X141.2178
G01 Y32.1500
G01 X95.0218
G01 Y32.1000
G01 X141.2178
G01 Y32.0500
G01 X95.0218
G01 Y32.0000
G01 X141.2178
G01 Y31.9500
G01 X95.0218
G01 Y31.9000
G01 X141.2178
G01 Y31.8500
G01 X95.0218
G01 Y31.8000
G01 X141.2178
G01 Y31.7500
G01 X95.0218
G01 Y31.7000
G01 X141.2178
G01 Y31.6500
G01 X95.0218
G01 Y31.6000
G01 X141.2178
G01 Y31.5500
G01 X95.0218
G01 Y31.5000
G01 X141.2178
G01 Y31.4500
G01 X95.0218
G01 Y31.4000
G01 X141.2178
G01 Y31.3500
G01 X95.0218
G01 Y31.3000
G01 X141.2178
G01 Y31.2500
G01 X95.0218
G01 Y31.2000
G01 X141.2178
G01 Y31.1500
G01 X95.0218
G01 Y31.1000
G01 X141.2178
G01 Y31.0500
G01 X95.0218
G01 Y31.0000
G01 X141.2178
G01 Y30.9500
G01 X95.0218
G01 Y30.9000
G01 X141.2178
G01 Y30.8500
G01 X95.0218
G01 Y30.8000
G01 X141.2178
G01 Y30.7500
G01 X95.0218
G01 Y30.7000
G01 X141.2178
G01 Y30.6500
G01 X95.0218
G01 Y30.6000
G01 X141.2178
G01 Y30.5500
G01 X95.0218
G01 Y30.5000
G01 X141.2178
G01 Y30.4500
G01 X95.0218
G01 Y30.4000
G01 X141.2178
G01 Y30.3500
G01 X95.0218
G01 Y30.3000
G01 X141.2178
G01 Y30.2500
G01 X95.0218
G01 Y30.2000
G01 X141.2178
G01 Y30.1500
G01 X95.0218
G01 Y30.1000
G01 X141.2178
G01 Y30.0500
G01 X95.0218
G01 Y30.0000
G01 X141.2178
G01 Y29.9500
G01 X95.0218
G01 Y29.9000
G01 X141.2178
G01 Y29.8500
G01 X95.0218
G01 Y29.8000
G01 X141.2178
G01 Y29.7500
G01 X95.0218
G01 Y29.7000
G01 X141.2178
G01 Y29.6500
G01 X95.0218
G01 Y29.6000
G01 X141.2178
G01 Y29.5500
G01 X95.0218
G01 Y29.5000
G01 X141.2178
G01 Y29.4500
G01 X95.0218
G01 Y29.4000
G01 X141.2178
G01 Y29.3500
G01 X95.0218
G01 Y29.3000
G01 X141.2178
G01 Y29.2500
G01 X95.0218
G01 Y29.2000
G01 X141.2178
G01 Y29.1500
G01 X95.0218
G01 Y29.1000
G01 X141.2178
G01 Y29.0500
G01 X95.0218
G01 Y29.0000
G01 X141.2178
G01 Y28.9500
G01 X95.0218
G01 Y28.9000
G01 X141.2178
G01 Y28.8500
G01 X95.0218
G01 Y28.8000
G01 X141.2178
G01 Y28.7500
G01 X95.0218
G01 Y28.7000
G01 X141.2178
G01 Y28.6500
G01 X95.0218
G01 Y28.6000
G01 X141.2178
G01 Y28.5500
G01 X95.0218
G01 Y28.5000
G01 X141.2178
G01 Y28.4500
G01 X95.0218
G01 Y28.4000
G01 X141.2178
G01 Y28.3500
G01 X95.0218
G01 Y28.3000
G01 X141.2178
G01 Y28.2500
G01 X95.0218
G01 Y28.2000
G01 X141.2178
G01 Y28.1500
G01 X95.0218
G01 Y28.1000
G01 X141.2178
G01 Y28.0500
G01 X95.0218
G01 Y28.0000
G01 X141.2178
G01 Y27.9500
G01 X95.0218
G01 Y27.9000
G01 X141.2178
G01 Y27.8500
G01 X95.0218
G01 Y27.8000
G01 X141.2178
G01 Y27.7500
G01 X95.0218
G01 Y27.7000
G01 X141.2178
G01 Y27.6500
G01 X95.0218
G01 Y27.6000
G01 X141.2178
G01 Y27.5500
G01 X95.0218
G01 Y27.5000
G01 X141.2178
G01 Y27.4500
G01 X95.0218
G01 Y27.4000
G01 X141.2178
G01 Y27.3500
G01 X95.0218
G01 Y27.3000
G01 X141.2178
G01 Y27.2500
G01 X95.0218
G01 Y27.2000
G01 X141.2178
G01 Y27.1500
G01 X95.0218
G01 Y27.1000
G01 X141.2178
G01 Y27.0500
G01 X95.0218
G01 Y27.0000
G01 X141.2178
G01 Y26.9500
G01 X95.0218
G01 Y26.9000
G01 X141.2178
G01 Y26.8500
G01 X95.0218
G01 Y26.8000
G01 X141.2178
G01 Y26.7500
G01 X95.0218
G01 Y26.7000
G01 X141.2178
G01 Y26.6500
G01 X95.0218
G01 Y26.6000
G01 X141.2178
G01 Y26.5500
G01 X95.0218
G01 Y26.5000
G01 X141.2178
G01 Y26.4500
G01 X95.0218
G01 Y26.4000
G01 X141.2178
G01 Y26.3500
G01 X95.0218
G01 Y26.3000
G01 X141.2178
G01 Y26.2500
G01 X95.0218
G01 Y26.2000
G01 X141.2178
G01 Y26.1500
G01 X95.0218
G01 Y26.1000
G01 X141.2178
G01 Y26.0500
G01 X95.0218
G01 Y26.0000
G01 X141.2178
G01 Y25.9500
G01 X95.0218
G01 Y25.9000
G01 X141.2178
G01 Y25.8500
G01 X95.0218
G01 Y25.8000
G01 X141.2178
G01 Y25.7500
G01 X95.0218
G01 Y25.7000
G01 X141.2178
G01 Y25.6500
G01 X95.0218
G01 Y25.6000
G01 X141.2178
G01 Y25.5500
G01 X95.0218
G01 Y25.5000
G01 X141.2178
G01 Y25.4500
G01 X95.0218
G01 Y25.4000
G01 X141.2178
G01 Y25.3500
G01 X95.0218
G01 Y25.3000
G01 X141.2178
G01 Y25.2500
G01 X95.0218
G01 Y25.2000
G01 X141.2178
G01 Y25.1500
G01 X95.0218
G01 Y25.1000
G01 X141.2178
G01 Y25.0500
G01 X95.0218
G01 Y25.0000
G01 X141.2178
G01 Y24.9500
G01 X95.0218
G01 Y24.9000
G01 X141.2178
G01 Y24.8500
G01 X95.0218
G01 Y24.8000
G01 X141.2178
G01 Y24.7500
G01 X95.0218
G01 Y24.7000
G01 X141.2178
G01 Y24.6500
G01 X95.0218
G01 Y24.6000
G01 X141.2178
G01 Y24.5500
G01 X95.0218
G01 Y24.5000
G01 X141.2178
G01 Y24.4500
G01 X95.0218
G01 Y24.4000
G01 X141.2178
G01 Y24.3500
G01 X95.0218
G01 Y24.3000
G01 X141.2178
G01 Y24.2500
G01 X95.0218
G01 Y24.2000
G01 X141.2178
G01 Y24.1500
G01 X95.0218
G01 Y24.1000
G01 X141.2178
G01 Y24.0500
G01 X95.0218
G01 Y24.0000
G01 X141.2178
G01 Y23.9500
G01 X95.0218
G01 Y23.9000
G01 X141.2178
G01 Y23.8500
G01 X95.0218
G01 Y23.8000
G01 X141.2178
G01 Y23.7500
G01 X95.0218
G01 Y23.7000
G01 X141.2178
G01 Y23.6500
G01 X95.0218
G01 Y23.6000
G01 X141.2178
G01 Y23.5500
G01 X95.0218
G01 Y23.5000
G01 X141.2178
G01 Y23.4500
G01 X95.0218
G01 Y23.4000
G01 X141.2178
G01 Y23.3500
G01 X95.0218
G01 Y23.3000
G01 X141.2178
G01 Y23.2500
G01 X95.0218
G01 Y23.2000
G01 X141.2178
G01 Y23.1500
G01 X95.0218
G01 Y23.1000
G01 X141.2178
G01 Y23.0500
G01 X95.0218
G01 Y23.0000
G01 X141.2178
G01 Y22.9500
G01 X95.0218
G01 Y22.9000
G01 X141.2178
G01 Y22.8500
G01 X95.0218
G01 Y22.8000
G01 X141.2178
G01 Y22.7500
G01 X95.0218
G01 Y22.7000
G01 X141.2178
G01 Y22.6500
G01 X95.0218
G01 Y22.6000
G01 X141.2178
G01 Y22.5500
G01 X95.0218
G01 Y22.5000
G01 X141.2178
G01 Y22.4500
G01 X95.0218
G01 Y22.4000
G01 X141.2178
G01 Y22.3500
G01 X95.0218
G01 Y22.3000
G01 X141.2178
G01 Y22.2500
G01 X95.0218
G01 Y22.2000
G01 X141.2178
G01 Y22.1500
G01 X95.0218
G01 Y22.1000
G01 X141.2178
G01 Y22.0500
G01 X95.0218
G01 Y22.0000
G01 X141.2178
G01 Y21.9500
G01 X95.0218
G01 Y21.9000
G01 X141.2178
G01 Y21.8500
G01 X95.0218
G01 Y21.8000
G01 X141.2178
G01 Y21.7500
G01 X95.0218
G01 Y21.7000
G01 X141.2178
G01 Y21.6500
G01 X95.0218
G01 Y21.6000
G01 X141.2178
G01 Y21.5500
G01 X95.0218
G01 Y21.5000
G01 X141.2178
G01 Y21.4500
G01 X95.0218
G01 Y21.4000
G01 X141.2178
G01 Y21.3500
G01 X95.0218
G01 Y21.3000
G01 X141.2178
G01 Y21.2500
G01 X95.0218
G01 Y21.2000
G01 X141.2178
G01 Y21.1500
G01 X95.0218
G01 Y21.1000
G01 X141.2178
G01 Y21.0500
G01 X95.0218
G01 Y21.0000
G01 X141.2178
G01 Y20.9500
G01 X95.0218
G01 Y20.9000
G01 X141.2178
G01 Y20.8500
G01 X95.0218
G01 Y20.8000
G01 X141.2178
G01 Y20.7500
G01 X95.0218
G01 Y20.7000
G01 X141.2178
G01 Y20.6500
G01 X95.0218
G01 Y20.6000
G01 X141.2178
G01 Y20.5500
G01 X95.0218
G01 Y20.5000
G01 X141.2178
G01 Y20.4500
G01 X95.0218
G01 Y20.4000
G01 X141.2178
G01 Y20.3500
G01 X95.0218
G01 Y20.3000
G01 X141.2178
G01 Y20.2500
G01 X95.0218
G01 Y20.2000
G01 X141.2178
G01 Y20.1500
G01 X95.0218
G01 Y20.1000
G01 X141.2178
G01 Y20.0500
G01 X95.0218
G01 Y20.0000
G01 X141.2178
G01 Y19.9500
G01 X95.0218
G01 Y19.9000
G01 X141.2178
G01 Y19.8500
G01 X95.0218
G01 Y19.8000
G01 X141.2178
G01 Y19.7500
G01 X95.0218
G01 Y19.7000
G01 X141.2178
G01 Y19.6500
G01 X95.0218
G01 Y19.6000
G01 X141.2178
G01 Y19.5500
G01 X95.0218
G01 Y19.5000
G01 X141.2178
G01 Y19.4500
G01 X95.0218
G01 Y19.4000
G01 X141.2178
G01 Y19.3500
G01 X95.0218
G01 Y19.3000
G01 X141.2178
G01 Y19.2500
G01 X95.0218
G01 Y19.2000
G01 X141.2178
G01 Y19.1500
G01 X95.0218
G01 Y19.1000
G01 X141.2178
G01 Y19.0500
G01 X95.0218
G01 Y19.0000
G01 X141.2178
G01 Y18.9500
G01 X95.0218
G01 Y18.9000
G01 X141.2178
G01 Y18.8500
G01 X95.0218
G01 Y18.8000
G01 X141.2178
G01 Y18.7500
G01 X95.0218
G01 Y18.7000
G01 X141.2178
G01 Y18.6500
G01 X95.0218
G01 Y18.6000
G01 X141.2178
G01 Y18.5500
G01 X95.0218
G01 Y18.5000
G01 X141.2178
G01 Y18.4500
G01 X95.0218
G01 Y18.4000
G01 X141.2178
G01 Y18.3500
G01 X95.0218
G01 Y18.3000
G01 X141.2178
G01 Y18.2500
G01 X95.0218
G01 Y18.2000
G01 X141.2178
G01 Y18.1500
G01 X95.0218
G01 Y18.1000
G01 X141.2178
G01 Y18.0500
G01 X95.0218
G01 Y18.0000
G01 X141.2178
G01 Y17.9500
G01 X95.0218
G01 Y17.9000
G01 X141.2178
G01 Y17.8500
G01 X95.0218
G01 Y17.8000
G01 X141.2178
G01 Y17.7500
G01 X95.0218
G01 Y17.7000
G01 X141.2178
G01 Y17.6500
G01 X95.0218
G01 Y17.6000
G01 X141.2178
G01 Y17.5500
G01 X95.0218
G01 Y17.5000
G01 X141.2178
G01 Y17.4500
G01 X95.0218
G01 Y17.4000
G01 X141.2178
G01 Y17.3500
G01 X95.0218
G01 Y17.3000
G01 X141.2178
G01 Y17.2500
G01 X95.0218
G01 Y17.2000
G01 X141.2178
G01 Y17.1500
G01 X95.0218
G01 Y17.1000
G01 X141.2178
G01 Y17.0500
G01 X95.0218
G01 Y17.0000
G01 X141.2178
G01 Y16.9500
G01 X95.0218
G01 Y16.9000
G01 X141.2178
G01 Y16.8500
G01 X95.0218
G01 Y16.8000
G01 X141.2178
G01 Y16.7500
G01 X95.0218
G01 Y16.7000
G01 X141.2178
G01 Y16.6500
G01 X95.0218
G01 Y16.6000
G01 X141.2178
G01 Y16.5500
G01 X95.0218
G01 Y16.5000
G01 X141.2178
G01 Y16.4500
G01 X95.0218
G01 Y16.4000
G01 X141.2178
G01 Y16.3500
G01 X95.0218
G01 Y16.3000
G01 X141.2178
G01 Y16.2500
G01 X95.0218
G01 Y16.2000
G01 X141.2178
G01 Y16.1500
G01 X95.0218
G01 Y16.1000
G01 X141.2178
G01 Y16.0500
G01 X95.0218
G01 Y16.0000
G01 X141.2178
G01 Y15.9500
G01 X95.0218
G01 Y15.9000
G01 X141.2178
G01 Y15.8500
G01 X95.0218
G01 Y15.8000
G01 X141.2178
G01 Y15.7500
G01 X95.0218
G01 Y15.7000
G01 X141.2178
G01 Y15.6500
G01 X95.0218
G01 Y15.6000
G01 X141.2178
G01 Y15.5500
G01 X95.0218
G01 Y15.5000
G01 X141.2178
G01 Y15.4500
G01 X95.0218
G01 Y15.4000
G01 X141.2178
G01 Y15.3500
G01 X95.0218
G01 Y15.3000
G01 X141.2178
G01 Y15.2500
G01 X95.0218
G01 Y15.2000
G01 X141.2178
G01 Y15.1500
G01 X95.0218
G01 Y15.1000
G01 X141.2178
G01 Y15.0500
G01 X95.0218
G01 Y15.0000
G01 X141.2178
G01 Y14.9500
G01 X95.0218
G01 Y14.9000
G01 X141.2178
G01 Y14.8500
G01 X95.0218
G01 Y14.8000
G01 X141.2178
G01 Y14.7500
G01 X95.0218
G01 Y14.7000
G01 X141.2178
G01 Y14.6500
G01 X95.0218
G01 Y14.6000
G01 X141.2178
G01 Y14.5500
G01 X95.0218
G01 Y14.5000
G01 X141.2178
G01 Y14.4500
G01 X95.0218
G01 Y14.4000
G01 X141.2178
G01 Y14.3500
G01 X95.0218
G01 Y14.3000
G01 X141.2178
G01 Y14.2500
G01 X95.0218
G01 Y14.2000
G01 X141.2178
G01 Y14.1500
G01 X95.0218
G01 Y14.1000
G01 X141.2178
G01 Y14.0500
G01 X95.0218
G01 Y14.0000
G01 X141.2178
G01 Y13.9500
G01 X95.0218
G01 Y13.9000
G01 X141.2178
G01 Y13.8500
G01 X95.0218
G01 Y13.8000
G01 X141.2178
G01 Y13.7500
G01 X95.0218
G01 Y13.7000
G01 X141.2178
G01 Y13.6500
G01 X95.0218
G01 Y13.6000
G01 X141.2178
G01 Y13.5500
G01 X95.0218
G01 Y13.5000
G01 X141.2178
G01 Y13.4500
G01 X95.0218
G01 Y13.4000
G01 X141.2178
G01 Y13.3500
G01 X95.0218
G01 Y13.3000
G01 X141.2178
G01 Y13.2500
G01 X95.0218
G01 Y13.2000
G01 X141.2178
G01 Y13.1500
G01 X95.0218
G01 Y13.1000
G01 X141.2178
G01 Y13.0500
G01 X95.0218
G01 Y13.0000
G01 X141.2178
G01 Y12.9500
G01 X95.0218
G01 Y12.9000
G01 X141.2178
G01 Y12.8500
G01 X95.0218
G01 Y12.8000
G01 X141.2178
G01 Y12.7500
G01 X95.0218
G01 Y12.7000
G01 X141.2178
G01 Y12.6500
G01 X95.0218
G01 Y12.6000
G01 X141.2178
G01 Y12.5500
G01 X95.0218
G01 Y12.5000
G01 X141.2178
G01 Y12.4500
G01 X95.0218
G01 Y12.4000
G01 X141.2178
G01 Y12.3500
G01 X95.0218
G01 Y12.3000
G01 X141.2178
G01 Y12.2500
G01 X95.0218
G01 Y12.2000
G01 X141.2178
G01 Y12.1500
G01 X95.0218
G01 Y12.1000
G01 X141.2178
G01 Y12.0500
G01 X95.0218
G01 Y12.0000
G01 X141.2178
G01 Y11.9500
G01 X95.0218
G01 Y11.9000
G01 X141.2178
G01 Y11.8500
G01 X95.0218
G01 Y11.8000
G01 X141.2178
G01 Y11.7500
G01 X95.0218
G01 Y11.7000
G01 X141.2178
G01 Y11.6500
G01 X95.0218
G01 Y11.6000
G01 X141.2178
G01 Y11.5500
G01 X95.0218
G01 Y11.5000
G01 X141.2178
G01 Y11.4500
G01 X95.0218
G01 Y11.4000
G01 X141.2178
G01 Y11.3500
G01 X95.0218
G01 Y11.3000
G01 X141.2178
G01 Y11.2500
G01 X95.0218
G01 Y11.2000
G01 X141.2178
G01 Y11.1500
G01 X95.0218
G01 Y11.1000
G01 X141.2178
G01 Y11.0500
G01 X95.0218
G01 Y11.0000
G01 X141.2178
G01 Y10.9500
G01 X95.0218
G01 Y10.9000
G01 X141.2178
G01 Y10.8500
G01 X95.0218
G01 Y10.8000
G01 X141.2178
G01 Y10.7500
G01 X95.0218
G01 Y10.7000
G01 X141.2178
G01 Y10.6500
G01 X95.0218
G01 Y10.6000
G01 X141.2178
G01 Y10.5500
G01 X95.0218
G01 Y10.5000
G01 X141.2178
G01 Y10.4500
G01 X95.0218
G01 Y10.4000
G01 X141.2178
G01 Y10.3500
G01 X95.0218
G01 Y10.3000
G01 X141.2178
G01 Y10.2500
G01 X95.0218
G01 Y10.2000
G01 X141.2178
G01 Y10.1500
G01 X95.0218
G01 Y10.1000
G01 X141.2178
G01 Y10.0500
G01 X95.0218
G01 Y10.0000
G01 X141.2178
G01 Y9.9500
G01 X95.0218
G01 Y9.9000
G01 X141.2178
G01 Y9.8500
G01 X95.0218
G01 Y9.8000
G01 X141.2178
G01 Y9.7500
G01 X95.0218
G01 Y9.7000
G01 X141.2178
G01 Y9.6500
G01 X95.0218
G01 Y9.6000
G01 X141.2178
G01 Y9.5500
G01 X95.0218
G01 Y9.5000
G01 X141.2178
G01 Y9.4500
G01 X95.0218
G01 Y9.4000
G01 X141.2178
G01 Y9.3500
G01 X95.0218
G01 Y9.3000
G01 X141.2178
G01 Y9.2500
G01 X95.0218
G01 Y9.2000
G01 X141.2178
G01 Y9.1500
G01 X95.0218
G01 Y9.1000
G01 X141.2178
G01 Y9.0500
G01 X95.0218
G01 Y9.0000
G01 X141.2178
G01 Y8.9500
G01 X95.0218
G01 Y8.9000
G01 X141.2178
G01 Y8.8500
G01 X95.0218
G01 Y8.8000
G01 X141.2178
G01 Y8.7500
G01 X95.0218
G01 Y8.7000
G01 X141.2178
G01 Y8.6500
G01 X95.0218
G01 Y8.6000
G01 X141.2178
G01 Y8.5500
G01 X95.0218
G01 Y8.5000
G01 X141.2178
G01 Y8.4500
G01 X95.0218
G01 Y8.4000
G01 X141.2178
G01 Y8.3500
G01 X95.0218
G01 Y8.3000
G01 X141.2178
G01 Y8.2500
G01 X95.0218
G01 Y8.2000
G01 X141.2178
G01 Y8.1500
G01 X95.0218
G01 Y8.1000
G01 X141.2178
G01 Y8.0500
G01 X95.0218
G01 Y8.0000
G01 X141.2178
G01 Y7.9500
G01 X95.0218
G01 Y7.9000
G01 X141.2178
G01 Y7.8500
G01 X95.0218
G01 Y7.8000
G01 X141.2178
G01 Y7.7500
G01 X95.0218
G01 Y7.7000
G01 X141.2178
G01 Y7.6500
G01 X95.0218
G01 Y7.6000
G01 X141.2178
G01 Y7.5500
G01 X95.0218
G01 Y7.5000
G01 X141.2178
G01 Y7.4500
G01 X95.0218
G01 Y7.4000
G01 X141.2178
G01 Y7.3500
G01 X95.0218
G01 Y7.3000
G01 X141.2178
G01 Y7.2500
G01 X95.0218
G01 Y7.2000
G01 X141.2178
G01 Y7.1500
G01 X95.0218
G01 Y7.1000
G01 X141.2178
G01 Y7.0500
G01 X95.0218
G01 Y7.0000
G01 X141.2178
G01 Y6.9500
G01 X95.0218
G01 Y6.9000
G01 X141.2178
G01 Y6.8500
G01 X95.0218
G01 Y6.8000
G01 X141.2178
G01 Y6.7500
G01 X95.0218
G01 Y6.7000
G01 X141.2178
G01 Y6.6500
G01 X95.0218
G01 Y6.6000
G01 X141.2178
G01 Y6.5500
G01 X95.0218
G01 Y6.5000
G01 X141.2178
G01 Y6.4500
G01 X95.0218
G01 Y6.4000
G01 X141.2178
G01 Y6.3500
G01 X95.0218
G01 Y6.3000
G01 X141.2178
G01 Y6.2500
G01 X95.0218
G01 Y6.2000
G01 X141.2178
G01 Y6.1500
G01 X95.0218
G01 Y6.1000
G01 X141.2178
G01 Y6.0500
G01 X95.0218
G01 Y6.0000
G01 X141.2178
G01 Y5.9500
G01 X95.0218
G01 Y5.9000
G01 X141.2178
G01 Y5.8500
G01 X95.0218
G01 Y5.8000
G01 X141.2178
G01 Y5.7500
G01 X95.0218
G01 Y5.7000
G01 X141.2178
G01 Y5.6500
G01 X95.0218
G01 Y5.6000
G01 X141.2178
G01 Y5.5500
G01 X95.0218
G01 Y5.5000
G01 X141.2178
G01 Y5.4500
G01 X95.0218
G01 Y5.4000
G01 X141.2178
G01 Y5.3500
G01 X95.0218
G01 Y5.3000
G01 X141.2178
G01 Y5.2500
G01 X95.0218
G01 Y5.2000
G01 X141.2178
G01 Y5.1500
G01 X95.0218
G01 Y5.1000
G01 X141.2178
G01 Y5.0500
G01 X95.0218
G01 Y5.0000
G01 X141.2178
G01 Y4.9500
G01 X95.0218
G01 Y4.9000
G01 X141.2178
G01 Y4.8500
G01 X95.0218
G01 Y4.8000
G01 X141.2178
G01 Y4.7500
G01 X95.0218
G01 Y4.7000
G01 X141.2178
G01 Y4.6500
G01 X95.0218
G01 Y4.6000
G01 X141.2178
G01 Y4.5500
G01 X95.0218
G01 Y4.5000
G01 X141.2178
G01 Y4.4500
G01 X95.0218
G01 Y4.4000
G01 X141.2178
G01 Y4.3500
G01 X95.0218
G01 Y4.3000
G01 X141.2178
G01 Y4.2500
G01 X95.0218
G01 Y4.2000
G01 X141.2178
G01 Y4.1500
G01 X95.0218
G01 Y4.1000
G01 X141.2178
G01 Y4.0500
G01 X95.0218
G01 Y4.0000
G01 X141.2178
G01 Y3.9500
G01 X95.0218
G01 Y3.9000
G01 X141.2178
G01 Y3.8500
G01 X95.0218
G01 Y3.8000
G01 X141.2178
G01 Y3.7500
G01 X95.0218
G01 Y3.7000
G01 X141.2178
G01 Y3.6500
G01 X95.0218
G01 Y3.6000
G01 X141.2178
G01 Y3.5500
G01 X95.0218
G01 Y3.5000
G01 X141.2178
G01 Y3.4500
G01 X95.0218
G01 Y3.4000
G01 X141.2178
G01 Y3.3500
G01 X95.0218
G01 Y3.3000
G01 X141.2178
G01 Y3.2500
G01 X95.0218
G01 Y3.2000
G01 X141.2178
G01 Y3.1500
G01 X95.0218
G01 Y3.1000
G01 X141.2178
G01 Y3.0500
G01 X95.0218
G01 Y3.0000
G01 X141.2178
G01 Y2.9500
G01 X95.0218
G01 Y2.9000
G01 X141.2178
G01 Y2.8500
G01 X95.0218
G01 Y2.8000
G01 X141.2178
G01 Y2.7500
G01 X95.0218
G01 Y2.7000
G01 X141.2178
G01 Y2.6500
G01 X95.0218
G01 Y2.6000
G01 X141.2178
G01 Y2.5500
G01 X95.0218
G01 Y2.5000
G01 X141.2178
G01 Y2.4500
G01 X95.0218
G01 Y2.4000
G01 X141.2178
G01 Y2.3500
G01 X95.0218
G01 Y2.3000
G01 X141.2178
G01 Y2.2500
G01 X95.0218
G01 Y2.2000
G01 X141.2178
G01 Y2.1500
G01 X95.0218
G01 Y2.1000
G01 X141.2178
G01 Y2.0500
G01 X95.0218
G01 Y2.0000
G01 X141.2178
G01 Y1.9500
G01 X95.0218
G01 X94.7048 Y2.0672
G01 Y48.4150
G01 X141.5348
G01 Y1.5850
G01 X94.7048
G01 Y2.0672
G01 X95.0218 Y1.9500
G01 X100.6930 Z-4.5000 F1000
G01 X95.0218 Z-5.0000
G01 X141.2178 F1200
G01 Y2.0000
G01 X95.0218
G01 Y2.0500
G01 X141.2178
G01 Y2.1000
G01 X95.0218
G01 Y2.1500
G01 X141.2178
G01 Y2.2000
G01 X95.0218
G01 Y2.2500
G01 X141.2178
G01 Y2.3000
G01 X95.0218
G01 Y2.3500
G01 X141.2178
G01 Y2.4000
G01 X95.0218
G01 Y2.4500
G01 X141.2178
G01 Y2.5000
G01 X95.0218
G01 Y2.5500
G01 X141.2178
G01 Y2.6000
G01 X95.0218
G01 Y2.6500
G01 X141.2178
G01 Y2.7000
G01 X95.0218
G01 Y2.7500
G01 X141.2178
G01 Y2.8000
G01 X95.0218
G01 Y2.8500
G01 X141.2178
G01 Y2.9000
G01 X95.0218
G01 Y2.9500
G01 X141.2178
G01 Y3.0000
G01 X95.0218
G01 Y3.0500
G01 X141.2178
G01 Y3.1000
G01 X95.0218
G01 Y3.1500
G01 X141.2178
G01 Y3.2000
G01 X95.0218
G01 Y3.2500
G01 X141.2178
G01 Y3.3000
G01 X95.0218
G01 Y3.3500
G01 X141.2178
G01 Y3.4000
G01 X95.0218
G01 Y3.4500
G01 X141.2178
G01 Y3.5000
G01 X95.0218
G01 Y3.5500
G01 X141.2178
G01 Y3.6000
G01 X95.0218
G01 Y3.6500
G01 X141.2178
G01 Y3.7000
G01 X95.0218
G01 Y3.7500
G01 X141.2178
G01 Y3.8000
G01 X95.0218
G01 Y3.8500
G01 X141.2178
G01 Y3.9000
G01 X95.0218
G01 Y3.9500
G01 X141.2178
G01 Y4.0000
G01 X95.0218
G01 Y4.0500
G01 X141.2178
G01 Y4.1000
G01 X95.0218
G01 Y4.1500
G01 X141.2178
G01 Y4.2000
G01 X95.0218
G01 Y4.2500
G01 X141.2178
G01 Y4.3000
G01 X95.0218
G01 Y4.3500
G01 X141.2178
G01 Y4.4000
G01 X95.0218
G01 Y4.4500
G01 X141.2178
G01 Y4.5000
G01 X95.0218
G01 Y4.5500
G01 X141.2178
G01 Y4.6000
G01 X95.0218
G01 Y4.6500
G01 X141.2178
G01 Y4.7000
G01 X95.0218
G01 Y4.7500
G01 X141.2178
G01 Y4.8000
G01 X95.0218
G01 Y4.8500
G01 X141.2178
G01 Y4.9000
G01 X95.0218
G01 Y4.9500
G01 X141.2178
G01 Y5.0000
G01 X95.0218
G01 Y5.0500
G01 X141.2178
G01 Y5.1000
G01 X95.0218
G01 Y5.1500
G01 X141.2178
G01 Y5.2000
G01 X95.0218
G01 Y5.2500
G01 X141.2178
G01 Y5.3000
G01 X95.0218
G01 Y5.3500
G01 X141.2178
G01 Y5.4000
G01 X95.0218
G01 Y5.4500
G01 X141.2178
G01 Y5.5000
G01 X95.0218
G01 Y5.5500
G01 X141.2178
G01 Y5.6000
G01 X95.0218
