(Projekt Tisch-Verschraubungen)
(Erstellt mit Estlcam Version 11 Build 11,245)
(Laufzeit ca. 00:10:47 Stunden)

(Benötigte Werkzeuge:)
(Alu 2 Schneider)

M03 S27000
G00 Z5.0000


(Nr. 1 Ausschnitt: Ausschnitt 1)
G00 X47.2412 Y76.0728
G00 Z0.5000
G01 Z0.0000 F1000 S27000
G02 X45.6527 Y78.3236 Z-0.2500 I1.7588 J2.9272
G03 X47.2412 Y76.0728 Z-0.5000 I3.3473 J0.6764
G02 X47.3444 Y81.9868 I1.7588 J2.9272
G02 X52.4144 Y78.9404 I1.6556 J-2.9868
G02 X47.2412 Y76.0728 I-3.4144 J0.0596
G02 X45.6527 Y78.3236 Z-0.7500 I1.7588 J2.9272
G03 X47.2412 Y76.0728 Z-1.0000 I3.3473 J0.6764
G02 X47.3444 Y81.9868 I1.7588 J2.9272
G02 X52.4144 Y78.9404 I1.6556 J-2.9868
G02 X47.2412 Y76.0728 I-3.4144 J0.0596
G02 X45.6527 Y78.3236 Z-1.2500 I1.7588 J2.9272
G03 X47.2412 Y76.0728 Z-1.5000 I3.3473 J0.6764
G02 X47.3444 Y81.9868 I1.7588 J2.9272
G02 X52.4144 Y78.9404 I1.6556 J-2.9868
G02 X47.2412 Y76.0728 I-3.4144 J0.0596
G02 X45.6527 Y78.3236 Z-1.7500 I1.7588 J2.9272
G03 X47.2412 Y76.0728 Z-2.0000 I3.3473 J0.6764
G02 X47.3444 Y81.9868 I1.7588 J2.9272
G02 X52.4144 Y78.9404 I1.6556 J-2.9868
G02 X47.2412 Y76.0728 I-3.4144 J0.0596
G02 X45.6527 Y78.3236 Z-2.2500 I1.7588 J2.9272
G03 X47.2412 Y76.0728 Z-2.5000 I3.3473 J0.6764
G02 X47.3444 Y81.9868 I1.7588 J2.9272
G02 X52.4144 Y78.9404 I1.6556 J-2.9868
G02 X47.2412 Y76.0728 I-3.4144 J0.0596
G02 X45.6527 Y78.3236 Z-2.7500 I1.7588 J2.9272
G03 X47.2412 Y76.0728 Z-3.0000 I3.3473 J0.6764
G02 X47.3444 Y81.9868 I1.7588 J2.9272
G02 X52.4144 Y78.9404 I1.6556 J-2.9868
G02 X47.2412 Y76.0728 I-3.4144 J0.0596
G02 X45.6527 Y78.3236 Z-3.2500 I1.7588 J2.9272
G03 X47.2412 Y76.0728 Z-3.5000 I3.3473 J0.6764
G02 X47.3444 Y81.9868 I1.7588 J2.9272
G02 X52.4144 Y78.9404 I1.6556 J-2.9868
G02 X47.2412 Y76.0728 I-3.4144 J0.0596
G02 X45.6527 Y78.3236 Z-3.7500 I1.7588 J2.9272
G03 X47.2412 Y76.0728 Z-4.0000 I3.3473 J0.6764
G02 X47.3444 Y81.9868 I1.7588 J2.9272
G02 X52.4144 Y78.9404 I1.6556 J-2.9868
G02 X47.2412 Y76.0728 I-3.4144 J0.0596
G02 X45.6527 Y78.3236 Z-4.2500 I1.7588 J2.9272
G03 X47.2412 Y76.0728 Z-4.5000 I3.3473 J0.6764
G02 X47.3444 Y81.9868 I1.7588 J2.9272
G02 X52.4144 Y78.9404 I1.6556 J-2.9868
G02 X47.2412 Y76.0728 I-3.4144 J0.0596
G02 X45.6527 Y78.3236 Z-4.7500 I1.7588 J2.9272
G03 X47.2412 Y76.0728 Z-5.0000 I3.3473 J0.6764
G02 X47.3444 Y81.9868 I1.7588 J2.9272
G02 X52.4144 Y78.9404 I1.6556 J-2.9868
G02 X47.2412 Y76.0728 I-3.4144 J0.0596
G02 X45.6527 Y78.3236 Z-5.2500 I1.7588 J2.9272
G03 X47.2412 Y76.0728 Z-5.5000 I3.3473 J0.6764
G02 X47.3444 Y81.9868 I1.7588 J2.9272
G02 X52.4144 Y78.9404 I1.6556 J-2.9868
G02 X47.2412 Y76.0728 I-3.4144 J0.0596
G02 X45.6527 Y78.3236 Z-5.7500 I1.7588 J2.9272
G03 X47.2412 Y76.0728 Z-6.0000 I3.3473 J0.6764
G02 X47.3444 Y81.9868 I1.7588 J2.9272
G02 X52.4144 Y78.9404 I1.6556 J-2.9868
G02 X47.2412 Y76.0728 I-3.4144 J0.0596
G00 Z5.0000


(Nr. 2 Ausschnitt: Ausschnitt 32)
G00 X48.5178 Y78.1649 Z5.0000
G00 Z0.5000
G01 Z0.0000 F1000
G02 Y79.8352 Z-0.1781 I0.4822 J0.8351
G02 X49.3057 Y79.9146 Z-0.2500 I0.4822 J-0.8351
G03 X48.5178 Y79.8352 Z-0.3219 I-0.3057 J-0.9146
G03 Y78.1649 Z-0.5000 I0.4822 J-0.8351
G02 Y79.8352 I0.4822 J0.8351
G02 X49.9643 Y79.0000 I0.4822 J-0.8351
G02 X48.5178 Y78.1649 I-0.9643 J0.0000
G02 Y79.8352 Z-0.6781 I0.4822 J0.8351
G02 X49.3057 Y79.9146 Z-0.7500 I0.4822 J-0.8351
G03 X48.5178 Y79.8352 Z-0.8219 I-0.3057 J-0.9146
G03 Y78.1649 Z-1.0000 I0.4822 J-0.8351
G02 Y79.8352 I0.4822 J0.8351
G02 X49.9643 Y79.0000 I0.4822 J-0.8351
G02 X48.5178 Y78.1649 I-0.9643 J0.0000
G02 Y79.8352 Z-1.1781 I0.4822 J0.8351
G02 X49.3057 Y79.9146 Z-1.2500 I0.4822 J-0.8351
G03 X48.5178 Y79.8352 Z-1.3219 I-0.3057 J-0.9146
G03 Y78.1649 Z-1.5000 I0.4822 J-0.8351
G02 Y79.8352 I0.4822 J0.8351
G02 X49.9643 Y79.0000 I0.4822 J-0.8351
G02 X48.5178 Y78.1649 I-0.9643 J0.0000
G02 Y79.8352 Z-1.6781 I0.4822 J0.8351
G02 X49.3057 Y79.9146 Z-1.7500 I0.4822 J-0.8351
G03 X48.5178 Y79.8352 Z-1.8219 I-0.3057 J-0.9146
G03 Y78.1649 Z-2.0000 I0.4822 J-0.8351
G02 Y79.8352 I0.4822 J0.8351
G02 X49.9643 Y79.0000 I0.4822 J-0.8351
G02 X48.5178 Y78.1649 I-0.9643 J0.0000
G02 Y79.8352 Z-2.1781 I0.4822 J0.8351
G02 X49.3057 Y79.9146 Z-2.2500 I0.4822 J-0.8351
G03 X48.5178 Y79.8352 Z-2.3219 I-0.3057 J-0.9146
G03 Y78.1649 Z-2.5000 I0.4822 J-0.8351
G02 Y79.8352 I0.4822 J0.8351
G02 X49.9643 Y79.0000 I0.4822 J-0.8351
G02 X48.5178 Y78.1649 I-0.9643 J0.0000
G02 Y79.8352 Z-2.6781 I0.4822 J0.8351
G02 X49.3057 Y79.9146 Z-2.7500 I0.4822 J-0.8351
G03 X48.5178 Y79.8352 Z-2.8219 I-0.3057 J-0.9146
G03 Y78.1649 Z-3.0000 I0.4822 J-0.8351
G02 Y79.8352 I0.4822 J0.8351
G02 X49.9643 Y79.0000 I0.4822 J-0.8351
G02 X48.5178 Y78.1649 I-0.9643 J0.0000
G02 Y79.8352 Z-3.1781 I0.4822 J0.8351
G02 X49.3057 Y79.9146 Z-3.2500 I0.4822 J-0.8351
G03 X48.5178 Y79.8352 Z-3.3219 I-0.3057 J-0.9146
G03 Y78.1649 Z-3.5000 I0.4822 J-0.8351
G02 Y79.8352 I0.4822 J0.8351
G02 X49.9643 Y79.0000 I0.4822 J-0.8351
G02 X48.5178 Y78.1649 I-0.9643 J0.0000
G02 Y79.8352 Z-3.6781 I0.4822 J0.8351
G02 X49.3057 Y79.9146 Z-3.7500 I0.4822 J-0.8351
G03 X48.5178 Y79.8352 Z-3.8219 I-0.3057 J-0.9146
G03 Y78.1649 Z-4.0000 I0.4822 J-0.8351
G02 Y79.8352 I0.4822 J0.8351
G02 X49.9643 Y79.0000 I0.4822 J-0.8351
G02 X48.5178 Y78.1649 I-0.9643 J0.0000
G02 Y79.8352 Z-4.1781 I0.4822 J0.8351
G02 X49.3057 Y79.9146 Z-4.2500 I0.4822 J-0.8351
G03 X48.5178 Y79.8352 Z-4.3219 I-0.3057 J-0.9146
G03 Y78.1649 Z-4.5000 I0.4822 J-0.8351
G02 Y79.8352 I0.4822 J0.8351
G02 X49.9643 Y79.0000 I0.4822 J-0.8351
G02 X48.5178 Y78.1649 I-0.9643 J0.0000
G02 Y79.8352 Z-4.6781 I0.4822 J0.8351
G02 X49.3057 Y79.9146 Z-4.7500 I0.4822 J-0.8351
G03 X48.5178 Y79.8352 Z-4.8219 I-0.3057 J-0.9146
G03 Y78.1649 Z-5.0000 I0.4822 J-0.8351
G02 Y79.8352 I0.4822 J0.8351
G02 X49.9643 Y79.0000 I0.4822 J-0.8351
G02 X48.5178 Y78.1649 I-0.9643 J0.0000
G02 Y79.8352 Z-5.1781 I0.4822 J0.8351
G02 X49.3057 Y79.9146 Z-5.2500 I0.4822 J-0.8351
G03 X48.5178 Y79.8352 Z-5.3219 I-0.3057 J-0.9146
G03 Y78.1649 Z-5.5000 I0.4822 J-0.8351
G02 Y79.8352 I0.4822 J0.8351
G02 X49.9643 Y79.0000 I0.4822 J-0.8351
G02 X48.5178 Y78.1649 I-0.9643 J0.0000
G02 Y79.8352 Z-5.6781 I0.4822 J0.8351
G02 X49.3057 Y79.9146 Z-5.7500 I0.4822 J-0.8351
G03 X48.5178 Y79.8352 Z-5.8219 I-0.3057 J-0.9146
G03 Y78.1649 Z-6.0000 I0.4822 J-0.8351
G02 Y79.8352 I0.4822 J0.8351
G02 X49.9643 Y79.0000 I0.4822 J-0.8351
G02 X48.5178 Y78.1649 I-0.9643 J0.0000
G02 Y79.8352 Z-6.1781 I0.4822 J0.8351
G02 X49.3057 Y79.9146 Z-6.2500 I0.4822 J-0.8351
G03 X48.5178 Y79.8352 Z-6.3219 I-0.3057 J-0.9146
G03 Y78.1649 Z-6.5000 I0.4822 J-0.8351
G02 Y79.8352 I0.4822 J0.8351
G02 X49.9643 Y79.0000 I0.4822 J-0.8351
G02 X48.5178 Y78.1649 I-0.9643 J0.0000
G02 Y79.8352 Z-6.6781 I0.4822 J0.8351
G02 X49.3057 Y79.9146 Z-6.7500 I0.4822 J-0.8351
G03 X48.5178 Y79.8352 Z-6.8219 I-0.3057 J-0.9146
G03 Y78.1649 Z-7.0000 I0.4822 J-0.8351
G02 Y79.8352 I0.4822 J0.8351
G02 X49.9643 Y79.0000 I0.4822 J-0.8351
G02 X48.5178 Y78.1649 I-0.9643 J0.0000
G02 Y79.8352 Z-7.1781 I0.4822 J0.8351
G02 X49.3057 Y79.9146 Z-7.2500 I0.4822 J-0.8351
G03 X48.5178 Y79.8352 Z-7.3219 I-0.3057 J-0.9146
G03 Y78.1649 Z-7.5000 I0.4822 J-0.8351
G02 Y79.8352 I0.4822 J0.8351
G02 X49.9643 Y79.0000 I0.4822 J-0.8351
G02 X48.5178 Y78.1649 I-0.9643 J0.0000
G02 Y79.8352 Z-7.6781 I0.4822 J0.8351
G02 X49.3057 Y79.9146 Z-7.7500 I0.4822 J-0.8351
G03 X48.5178 Y79.8352 Z-7.8219 I-0.3057 J-0.9146
G03 Y78.1649 Z-8.0000 I0.4822 J-0.8351
G02 Y79.8352 I0.4822 J0.8351
G02 X49.9643 Y79.0000 I0.4822 J-0.8351
G02 X48.5178 Y78.1649 I-0.9643 J0.0000
G02 Y79.8352 Z-8.1781 I0.4822 J0.8351
G02 X49.3057 Y79.9146 Z-8.2500 I0.4822 J-0.8351
G03 X48.5178 Y79.8352 Z-8.3219 I-0.3057 J-0.9146
G03 Y78.1649 Z-8.5000 I0.4822 J-0.8351
G02 Y79.8352 I0.4822 J0.8351
G02 X49.9643 Y79.0000 I0.4822 J-0.8351
G02 X48.5178 Y78.1649 I-0.9643 J0.0000
G02 Y79.8352 Z-8.6781 I0.4822 J0.8351
G02 X49.3057 Y79.9146 Z-8.7500 I0.4822 J-0.8351
G03 X48.5178 Y79.8352 Z-8.8219 I-0.3057 J-0.9146
G03 Y78.1649 Z-9.0000 I0.4822 J-0.8351
G02 Y79.8352 I0.4822 J0.8351
G02 X49.9643 Y79.0000 I0.4822 J-0.8351
G02 X48.5178 Y78.1649 I-0.9643 J0.0000
G02 Y79.8352 Z-9.1781 I0.4822 J0.8351
G02 X49.3057 Y79.9146 Z-9.2500 I0.4822 J-0.8351
G03 X48.5178 Y79.8352 Z-9.3219 I-0.3057 J-0.9146
G03 Y78.1649 Z-9.5000 I0.4822 J-0.8351
G02 Y79.8352 I0.4822 J0.8351
G02 X49.9643 Y79.0000 I0.4822 J-0.8351
G02 X48.5178 Y78.1649 I-0.9643 J0.0000
G02 Y79.8352 Z-9.6781 I0.4822 J0.8351
G02 X49.3057 Y79.9146 Z-9.7500 I0.4822 J-0.8351
G03 X48.5178 Y79.8352 Z-9.8219 I-0.3057 J-0.9146
G03 Y78.1649 Z-10.0000 I0.4822 J-0.8351
G02 Y79.8352 I0.4822 J0.8351
G02 X49.9643 Y79.0000 I0.4822 J-0.8351
G02 X48.5178 Y78.1649 I-0.9643 J0.0000
G00 Z5.0000


(Nr. 3 Ausschnitt: Ausschnitt 2)
G00 X256.7522 Y77.9447 Z5.0000
G00 Z0.5000
G01 Z0.0000 F1000
G02 X257.0300 Y80.6856 Z-0.2500 I3.2478 J1.0553
G03 X256.7522 Y77.9447 Z-0.5000 I2.9700 J-1.6856
G02 X260.7100 Y82.3403 I3.2478 J1.0553
G02 X262.5378 Y76.7150 I-0.7100 J-3.3403
G02 X256.7522 Y77.9447 I-2.5378 J2.2850
G02 X257.0300 Y80.6856 Z-0.7500 I3.2478 J1.0553
G03 X256.7522 Y77.9447 Z-1.0000 I2.9700 J-1.6856
G02 X260.7100 Y82.3403 I3.2478 J1.0553
G02 X262.5378 Y76.7150 I-0.7100 J-3.3403
G02 X256.7522 Y77.9447 I-2.5378 J2.2850
G02 X257.0300 Y80.6856 Z-1.2500 I3.2478 J1.0553
G03 X256.7522 Y77.9447 Z-1.5000 I2.9700 J-1.6856
G02 X260.7100 Y82.3403 I3.2478 J1.0553
G02 X262.5378 Y76.7150 I-0.7100 J-3.3403
G02 X256.7522 Y77.9447 I-2.5378 J2.2850
G02 X257.0300 Y80.6856 Z-1.7500 I3.2478 J1.0553
G03 X256.7522 Y77.9447 Z-2.0000 I2.9700 J-1.6856
G02 X260.7100 Y82.3403 I3.2478 J1.0553
G02 X262.5378 Y76.7150 I-0.7100 J-3.3403
G02 X256.7522 Y77.9447 I-2.5378 J2.2850
G02 X257.0300 Y80.6856 Z-2.2500 I3.2478 J1.0553
G03 X256.7522 Y77.9447 Z-2.5000 I2.9700 J-1.6856
G02 X260.7100 Y82.3403 I3.2478 J1.0553
G02 X262.5378 Y76.7150 I-0.7100 J-3.3403
G02 X256.7522 Y77.9447 I-2.5378 J2.2850
G02 X257.0300 Y80.6856 Z-2.7500 I3.2478 J1.0553
G03 X256.7522 Y77.9447 Z-3.0000 I2.9700 J-1.6856
G02 X260.7100 Y82.3403 I3.2478 J1.0553
G02 X262.5378 Y76.7150 I-0.7100 J-3.3403
G02 X256.7522 Y77.9447 I-2.5378 J2.2850
G02 X257.0300 Y80.6856 Z-3.2500 I3.2478 J1.0553
G03 X256.7522 Y77.9447 Z-3.5000 I2.9700 J-1.6856
G02 X260.7100 Y82.3403 I3.2478 J1.0553
G02 X262.5378 Y76.7150 I-0.7100 J-3.3403
G02 X256.7522 Y77.9447 I-2.5378 J2.2850
G02 X257.0300 Y80.6856 Z-3.7500 I3.2478 J1.0553
G03 X256.7522 Y77.9447 Z-4.0000 I2.9700 J-1.6856
G02 X260.7100 Y82.3403 I3.2478 J1.0553
G02 X262.5378 Y76.7150 I-0.7100 J-3.3403
G02 X256.7522 Y77.9447 I-2.5378 J2.2850
G02 X257.0300 Y80.6856 Z-4.2500 I3.2478 J1.0553
G03 X256.7522 Y77.9447 Z-4.5000 I2.9700 J-1.6856
G02 X260.7100 Y82.3403 I3.2478 J1.0553
G02 X262.5378 Y76.7150 I-0.7100 J-3.3403
G02 X256.7522 Y77.9447 I-2.5378 J2.2850
G02 X257.0300 Y80.6856 Z-4.7500 I3.2478 J1.0553
G03 X256.7522 Y77.9447 Z-5.0000 I2.9700 J-1.6856
G02 X260.7100 Y82.3403 I3.2478 J1.0553
G02 X262.5378 Y76.7150 I-0.7100 J-3.3403
G02 X256.7522 Y77.9447 I-2.5378 J2.2850
G02 X257.0300 Y80.6856 Z-5.2500 I3.2478 J1.0553
G03 X256.7522 Y77.9447 Z-5.5000 I2.9700 J-1.6856
G02 X260.7100 Y82.3403 I3.2478 J1.0553
G02 X262.5378 Y76.7150 I-0.7100 J-3.3403
G02 X256.7522 Y77.9447 I-2.5378 J2.2850
G02 X257.0300 Y80.6856 Z-5.7500 I3.2478 J1.0553
G03 X256.7522 Y77.9447 Z-6.0000 I2.9700 J-1.6856
G02 X260.7100 Y82.3403 I3.2478 J1.0553
G02 X262.5378 Y76.7150 I-0.7100 J-3.3403
G02 X256.7522 Y77.9447 I-2.5378 J2.2850
G00 Z5.0000


(Nr. 4 Ausschnitt: Ausschnitt 31)
G00 X259.0938 Y78.6702 Z5.0000
G00 Z0.5000
G01 Z0.0000 F1000
G02 X260.1675 Y79.9497 Z-0.1781 I0.9062 J0.3298
G02 X260.8221 Y79.5042 Z-0.2500 I-0.1675 J-0.9497
G03 X260.1675 Y79.9497 Z-0.3219 I-0.8221 J-0.5041
G03 X259.0938 Y78.6702 Z-0.5000 I-0.1675 J-0.9497
G02 X260.1675 Y79.9497 I0.9062 J0.3298
G02 X260.7387 Y78.3802 I-0.1675 J-0.9497
G02 X259.0938 Y78.6702 I-0.7387 J0.6199
G02 X260.1675 Y79.9497 Z-0.6781 I0.9062 J0.3298
G02 X260.8221 Y79.5042 Z-0.7500 I-0.1675 J-0.9497
G03 X260.1675 Y79.9497 Z-0.8219 I-0.8221 J-0.5041
G03 X259.0938 Y78.6702 Z-1.0000 I-0.1675 J-0.9497
G02 X260.1675 Y79.9497 I0.9062 J0.3298
G02 X260.7387 Y78.3802 I-0.1675 J-0.9497
G02 X259.0938 Y78.6702 I-0.7387 J0.6199
G02 X260.1675 Y79.9497 Z-1.1781 I0.9062 J0.3298
G02 X260.8221 Y79.5042 Z-1.2500 I-0.1675 J-0.9497
G03 X260.1675 Y79.9497 Z-1.3219 I-0.8221 J-0.5041
G03 X259.0938 Y78.6702 Z-1.5000 I-0.1675 J-0.9497
G02 X260.1675 Y79.9497 I0.9062 J0.3298
G02 X260.7387 Y78.3802 I-0.1675 J-0.9497
G02 X259.0938 Y78.6702 I-0.7387 J0.6199
G02 X260.1675 Y79.9497 Z-1.6781 I0.9062 J0.3298
G02 X260.8221 Y79.5042 Z-1.7500 I-0.1675 J-0.9497
G03 X260.1675 Y79.9497 Z-1.8219 I-0.8221 J-0.5041
G03 X259.0938 Y78.6702 Z-2.0000 I-0.1675 J-0.9497
G02 X260.1675 Y79.9497 I0.9062 J0.3298
G02 X260.7387 Y78.3802 I-0.1675 J-0.9497
G02 X259.0938 Y78.6702 I-0.7387 J0.6199
G02 X260.1675 Y79.9497 Z-2.1781 I0.9062 J0.3298
G02 X260.8221 Y79.5042 Z-2.2500 I-0.1675 J-0.9497
G03 X260.1675 Y79.9497 Z-2.3219 I-0.8221 J-0.5041
G03 X259.0938 Y78.6702 Z-2.5000 I-0.1675 J-0.9497
G02 X260.1675 Y79.9497 I0.9062 J0.3298
G02 X260.7387 Y78.3802 I-0.1675 J-0.9497
G02 X259.0938 Y78.6702 I-0.7387 J0.6199
G02 X260.1675 Y79.9497 Z-2.6781 I0.9062 J0.3298
G02 X260.8221 Y79.5042 Z-2.7500 I-0.1675 J-0.9497
G03 X260.1675 Y79.9497 Z-2.8219 I-0.8221 J-0.5041
G03 X259.0938 Y78.6702 Z-3.0000 I-0.1675 J-0.9497
G02 X260.1675 Y79.9497 I0.9062 J0.3298
G02 X260.7387 Y78.3802 I-0.1675 J-0.9497
G02 X259.0938 Y78.6702 I-0.7387 J0.6199
G02 X260.1675 Y79.9497 Z-3.1781 I0.9062 J0.3298
G02 X260.8221 Y79.5042 Z-3.2500 I-0.1675 J-0.9497
G03 X260.1675 Y79.9497 Z-3.3219 I-0.8221 J-0.5041
G03 X259.0938 Y78.6702 Z-3.5000 I-0.1675 J-0.9497
G02 X260.1675 Y79.9497 I0.9062 J0.3298
G02 X260.7387 Y78.3802 I-0.1675 J-0.9497
G02 X259.0938 Y78.6702 I-0.7387 J0.6199
G02 X260.1675 Y79.9497 Z-3.6781 I0.9062 J0.3298
G02 X260.8221 Y79.5042 Z-3.7500 I-0.1675 J-0.9497
G03 X260.1675 Y79.9497 Z-3.8219 I-0.8221 J-0.5041
G03 X259.0938 Y78.6702 Z-4.0000 I-0.1675 J-0.9497
G02 X260.1675 Y79.9497 I0.9062 J0.3298
G02 X260.7387 Y78.3802 I-0.1675 J-0.9497
G02 X259.0938 Y78.6702 I-0.7387 J0.6199
G02 X260.1675 Y79.9497 Z-4.1781 I0.9062 J0.3298
G02 X260.8221 Y79.5042 Z-4.2500 I-0.1675 J-0.9497
G03 X260.1675 Y79.9497 Z-4.3219 I-0.8221 J-0.5041
G03 X259.0938 Y78.6702 Z-4.5000 I-0.1675 J-0.9497
G02 X260.1675 Y79.9497 I0.9062 J0.3298
G02 X260.7387 Y78.3802 I-0.1675 J-0.9497
G02 X259.0938 Y78.6702 I-0.7387 J0.6199
G02 X260.1675 Y79.9497 Z-4.6781 I0.9062 J0.3298
G02 X260.8221 Y79.5042 Z-4.7500 I-0.1675 J-0.9497
G03 X260.1675 Y79.9497 Z-4.8219 I-0.8221 J-0.5041
G03 X259.0938 Y78.6702 Z-5.0000 I-0.1675 J-0.9497
G02 X260.1675 Y79.9497 I0.9062 J0.3298
G02 X260.7387 Y78.3802 I-0.1675 J-0.9497
G02 X259.0938 Y78.6702 I-0.7387 J0.6199
G02 X260.1675 Y79.9497 Z-5.1781 I0.9062 J0.3298
G02 X260.8221 Y79.5042 Z-5.2500 I-0.1675 J-0.9497
G03 X260.1675 Y79.9497 Z-5.3219 I-0.8221 J-0.5041
G03 X259.0938 Y78.6702 Z-5.5000 I-0.1675 J-0.9497
G02 X260.1675 Y79.9497 I0.9062 J0.3298
G02 X260.7387 Y78.3802 I-0.1675 J-0.9497
G02 X259.0938 Y78.6702 I-0.7387 J0.6199
G02 X260.1675 Y79.9497 Z-5.6781 I0.9062 J0.3298
G02 X260.8221 Y79.5042 Z-5.7500 I-0.1675 J-0.9497
G03 X260.1675 Y79.9497 Z-5.8219 I-0.8221 J-0.5041
G03 X259.0938 Y78.6702 Z-6.0000 I-0.1675 J-0.9497
G02 X260.1675 Y79.9497 I0.9062 J0.3298
G02 X260.7387 Y78.3802 I-0.1675 J-0.9497
G02 X259.0938 Y78.6702 I-0.7387 J0.6199
G02 X260.1675 Y79.9497 Z-6.1781 I0.9062 J0.3298
G02 X260.8221 Y79.5042 Z-6.2500 I-0.1675 J-0.9497
G03 X260.1675 Y79.9497 Z-6.3219 I-0.8221 J-0.5041
G03 X259.0938 Y78.6702 Z-6.5000 I-0.1675 J-0.9497
G02 X260.1675 Y79.9497 I0.9062 J0.3298
G02 X260.7387 Y78.3802 I-0.1675 J-0.9497
G02 X259.0938 Y78.6702 I-0.7387 J0.6199
G02 X260.1675 Y79.9497 Z-6.6781 I0.9062 J0.3298
G02 X260.8221 Y79.5042 Z-6.7500 I-0.1675 J-0.9497
G03 X260.1675 Y79.9497 Z-6.8219 I-0.8221 J-0.5041
G03 X259.0938 Y78.6702 Z-7.0000 I-0.1675 J-0.9497
G02 X260.1675 Y79.9497 I0.9062 J0.3298
G02 X260.7387 Y78.3802 I-0.1675 J-0.9497
G02 X259.0938 Y78.6702 I-0.7387 J0.6199
G02 X260.1675 Y79.9497 Z-7.1781 I0.9062 J0.3298
G02 X260.8221 Y79.5042 Z-7.2500 I-0.1675 J-0.9497
G03 X260.1675 Y79.9497 Z-7.3219 I-0.8221 J-0.5041
G03 X259.0938 Y78.6702 Z-7.5000 I-0.1675 J-0.9497
G02 X260.1675 Y79.9497 I0.9062 J0.3298
G02 X260.7387 Y78.3802 I-0.1675 J-0.9497
G02 X259.0938 Y78.6702 I-0.7387 J0.6199
G02 X260.1675 Y79.9497 Z-7.6781 I0.9062 J0.3298
G02 X260.8221 Y79.5042 Z-7.7500 I-0.1675 J-0.9497
G03 X260.1675 Y79.9497 Z-7.8219 I-0.8221 J-0.5041
G03 X259.0938 Y78.6702 Z-8.0000 I-0.1675 J-0.9497
G02 X260.1675 Y79.9497 I0.9062 J0.3298
G02 X260.7387 Y78.3802 I-0.1675 J-0.9497
G02 X259.0938 Y78.6702 I-0.7387 J0.6199
G02 X260.1675 Y79.9497 Z-8.1781 I0.9062 J0.3298
G02 X260.8221 Y79.5042 Z-8.2500 I-0.1675 J-0.9497
G03 X260.1675 Y79.9497 Z-8.3219 I-0.8221 J-0.5041
G03 X259.0938 Y78.6702 Z-8.5000 I-0.1675 J-0.9497
G02 X260.1675 Y79.9497 I0.9062 J0.3298
G02 X260.7387 Y78.3802 I-0.1675 J-0.9497
G02 X259.0938 Y78.6702 I-0.7387 J0.6199
G02 X260.1675 Y79.9497 Z-8.6781 I0.9062 J0.3298
G02 X260.8221 Y79.5042 Z-8.7500 I-0.1675 J-0.9497
G03 X260.1675 Y79.9497 Z-8.8219 I-0.8221 J-0.5041
G03 X259.0938 Y78.6702 Z-9.0000 I-0.1675 J-0.9497
G02 X260.1675 Y79.9497 I0.9062 J0.3298
G02 X260.7387 Y78.3802 I-0.1675 J-0.9497
G02 X259.0938 Y78.6702 I-0.7387 J0.6199
G02 X260.1675 Y79.9497 Z-9.1781 I0.9062 J0.3298
G02 X260.8221 Y79.5042 Z-9.2500 I-0.1675 J-0.9497
G03 X260.1675 Y79.9497 Z-9.3219 I-0.8221 J-0.5041
G03 X259.0938 Y78.6702 Z-9.5000 I-0.1675 J-0.9497
G02 X260.1675 Y79.9497 I0.9062 J0.3298
G02 X260.7387 Y78.3802 I-0.1675 J-0.9497
G02 X259.0938 Y78.6702 I-0.7387 J0.6199
G02 X260.1675 Y79.9497 Z-9.6781 I0.9062 J0.3298
G02 X260.8221 Y79.5042 Z-9.7500 I-0.1675 J-0.9497
G03 X260.1675 Y79.9497 Z-9.8219 I-0.8221 J-0.5041
G03 X259.0938 Y78.6702 Z-10.0000 I-0.1675 J-0.9497
G02 X260.1675 Y79.9497 I0.9062 J0.3298
G02 X260.7387 Y78.3802 I-0.1675 J-0.9497
G02 X259.0938 Y78.6702 I-0.7387 J0.6199
G00 Z5.0000


(Nr. 5 Ausschnitt: Ausschnitt 3)
G00 X456.6478 Y78.3484 Z5.0000
G00 Z0.5000
G01 Z0.0000 F1000
G02 X457.2576 Y81.0349 Z-0.2500 I3.3522 J0.6516
G03 X456.6478 Y78.3484 Z-0.5000 I2.7424 J-2.0349
G02 X461.1118 Y82.2289 I3.3522 J0.6516
G02 X462.2404 Y76.4227 I-1.1118 J-3.2289
G02 X456.6478 Y78.3484 I-2.2404 J2.5773
G02 X457.2576 Y81.0349 Z-0.7500 I3.3522 J0.6516
G03 X456.6478 Y78.3484 Z-1.0000 I2.7424 J-2.0349
G02 X461.1118 Y82.2289 I3.3522 J0.6516
G02 X462.2404 Y76.4227 I-1.1118 J-3.2289
G02 X456.6478 Y78.3484 I-2.2404 J2.5773
G02 X457.2576 Y81.0349 Z-1.2500 I3.3522 J0.6516
G03 X456.6478 Y78.3484 Z-1.5000 I2.7424 J-2.0349
G02 X461.1118 Y82.2289 I3.3522 J0.6516
G02 X462.2404 Y76.4227 I-1.1118 J-3.2289
G02 X456.6478 Y78.3484 I-2.2404 J2.5773
G02 X457.2576 Y81.0349 Z-1.7500 I3.3522 J0.6516
G03 X456.6478 Y78.3484 Z-2.0000 I2.7424 J-2.0349
G02 X461.1118 Y82.2289 I3.3522 J0.6516
G02 X462.2404 Y76.4227 I-1.1118 J-3.2289
G02 X456.6478 Y78.3484 I-2.2404 J2.5773
G02 X457.2576 Y81.0349 Z-2.2500 I3.3522 J0.6516
G03 X456.6478 Y78.3484 Z-2.5000 I2.7424 J-2.0349
G02 X461.1118 Y82.2289 I3.3522 J0.6516
G02 X462.2404 Y76.4227 I-1.1118 J-3.2289
G02 X456.6478 Y78.3484 I-2.2404 J2.5773
G02 X457.2576 Y81.0349 Z-2.7500 I3.3522 J0.6516
G03 X456.6478 Y78.3484 Z-3.0000 I2.7424 J-2.0349
G02 X461.1118 Y82.2289 I3.3522 J0.6516
G02 X462.2404 Y76.4227 I-1.1118 J-3.2289
G02 X456.6478 Y78.3484 I-2.2404 J2.5773
G02 X457.2576 Y81.0349 Z-3.2500 I3.3522 J0.6516
G03 X456.6478 Y78.3484 Z-3.5000 I2.7424 J-2.0349
G02 X461.1118 Y82.2289 I3.3522 J0.6516
G02 X462.2404 Y76.4227 I-1.1118 J-3.2289
G02 X456.6478 Y78.3484 I-2.2404 J2.5773
G02 X457.2576 Y81.0349 Z-3.7500 I3.3522 J0.6516
G03 X456.6478 Y78.3484 Z-4.0000 I2.7424 J-2.0349
G02 X461.1118 Y82.2289 I3.3522 J0.6516
G02 X462.2404 Y76.4227 I-1.1118 J-3.2289
G02 X456.6478 Y78.3484 I-2.2404 J2.5773
G02 X457.2576 Y81.0349 Z-4.2500 I3.3522 J0.6516
G03 X456.6478 Y78.3484 Z-4.5000 I2.7424 J-2.0349
G02 X461.1118 Y82.2289 I3.3522 J0.6516
G02 X462.2404 Y76.4227 I-1.1118 J-3.2289
G02 X456.6478 Y78.3484 I-2.2404 J2.5773
G02 X457.2576 Y81.0349 Z-4.7500 I3.3522 J0.6516
G03 X456.6478 Y78.3484 Z-5.0000 I2.7424 J-2.0349
G02 X461.1118 Y82.2289 I3.3522 J0.6516
G02 X462.2404 Y76.4227 I-1.1118 J-3.2289
G02 X456.6478 Y78.3484 I-2.2404 J2.5773
G02 X457.2576 Y81.0349 Z-5.2500 I3.3522 J0.6516
G03 X456.6478 Y78.3484 Z-5.5000 I2.7424 J-2.0349
G02 X461.1118 Y82.2289 I3.3522 J0.6516
G02 X462.2404 Y76.4227 I-1.1118 J-3.2289
G02 X456.6478 Y78.3484 I-2.2404 J2.5773
G02 X457.2576 Y81.0349 Z-5.7500 I3.3522 J0.6516
G03 X456.6478 Y78.3484 Z-6.0000 I2.7424 J-2.0349
G02 X461.1118 Y82.2289 I3.3522 J0.6516
G02 X462.2404 Y76.4227 I-1.1118 J-3.2289
G02 X456.6478 Y78.3484 I-2.2404 J2.5773
G00 Z5.0000


(Nr. 6 Ausschnitt: Ausschnitt 30)
G00 X459.0617 Y78.7776 Z5.0000
G00 Z0.5000
G01 Z0.0000 F1000
G02 X460.2766 Y79.9238 Z-0.1781 I0.9383 J0.2224
G02 X460.8750 Y79.4053 Z-0.2500 I-0.2766 J-0.9238
G03 X460.2766 Y79.9238 Z-0.3219 I-0.8750 J-0.4053
G03 X459.0617 Y78.7776 Z-0.5000 I-0.2766 J-0.9238
G02 X460.2766 Y79.9238 I0.9383 J0.2224
G02 X460.6618 Y78.2986 I-0.2766 J-0.9238
G02 X459.0617 Y78.7776 I-0.6618 J0.7014
G02 X460.2766 Y79.9238 Z-0.6781 I0.9383 J0.2224
G02 X460.8750 Y79.4053 Z-0.7500 I-0.2766 J-0.9238
G03 X460.2766 Y79.9238 Z-0.8219 I-0.8750 J-0.4053
G03 X459.0617 Y78.7776 Z-1.0000 I-0.2766 J-0.9238
G02 X460.2766 Y79.9238 I0.9383 J0.2224
G02 X460.6618 Y78.2986 I-0.2766 J-0.9238
G02 X459.0617 Y78.7776 I-0.6618 J0.7014
G02 X460.2766 Y79.9238 Z-1.1781 I0.9383 J0.2224
G02 X460.8750 Y79.4053 Z-1.2500 I-0.2766 J-0.9238
G03 X460.2766 Y79.9238 Z-1.3219 I-0.8750 J-0.4053
G03 X459.0617 Y78.7776 Z-1.5000 I-0.2766 J-0.9238
G02 X460.2766 Y79.9238 I0.9383 J0.2224
G02 X460.6618 Y78.2986 I-0.2766 J-0.9238
G02 X459.0617 Y78.7776 I-0.6618 J0.7014
G02 X460.2766 Y79.9238 Z-1.6781 I0.9383 J0.2224
G02 X460.8750 Y79.4053 Z-1.7500 I-0.2766 J-0.9238
G03 X460.2766 Y79.9238 Z-1.8219 I-0.8750 J-0.4053
G03 X459.0617 Y78.7776 Z-2.0000 I-0.2766 J-0.9238
G02 X460.2766 Y79.9238 I0.9383 J0.2224
G02 X460.6618 Y78.2986 I-0.2766 J-0.9238
G02 X459.0617 Y78.7776 I-0.6618 J0.7014
G02 X460.2766 Y79.9238 Z-2.1781 I0.9383 J0.2224
G02 X460.8750 Y79.4053 Z-2.2500 I-0.2766 J-0.9238
G03 X460.2766 Y79.9238 Z-2.3219 I-0.8750 J-0.4053
G03 X459.0617 Y78.7776 Z-2.5000 I-0.2766 J-0.9238
G02 X460.2766 Y79.9238 I0.9383 J0.2224
G02 X460.6618 Y78.2986 I-0.2766 J-0.9238
G02 X459.0617 Y78.7776 I-0.6618 J0.7014
G02 X460.2766 Y79.9238 Z-2.6781 I0.9383 J0.2224
G02 X460.8750 Y79.4053 Z-2.7500 I-0.2766 J-0.9238
G03 X460.2766 Y79.9238 Z-2.8219 I-0.8750 J-0.4053
G03 X459.0617 Y78.7776 Z-3.0000 I-0.2766 J-0.9238
G02 X460.2766 Y79.9238 I0.9383 J0.2224
G02 X460.6618 Y78.2986 I-0.2766 J-0.9238
G02 X459.0617 Y78.7776 I-0.6618 J0.7014
G02 X460.2766 Y79.9238 Z-3.1781 I0.9383 J0.2224
G02 X460.8750 Y79.4053 Z-3.2500 I-0.2766 J-0.9238
G03 X460.2766 Y79.9238 Z-3.3219 I-0.8750 J-0.4053
G03 X459.0617 Y78.7776 Z-3.5000 I-0.2766 J-0.9238
G02 X460.2766 Y79.9238 I0.9383 J0.2224
G02 X460.6618 Y78.2986 I-0.2766 J-0.9238
G02 X459.0617 Y78.7776 I-0.6618 J0.7014
G02 X460.2766 Y79.9238 Z-3.6781 I0.9383 J0.2224
G02 X460.8750 Y79.4053 Z-3.7500 I-0.2766 J-0.9238
G03 X460.2766 Y79.9238 Z-3.8219 I-0.8750 J-0.4053
G03 X459.0617 Y78.7776 Z-4.0000 I-0.2766 J-0.9238
G02 X460.2766 Y79.9238 I0.9383 J0.2224
G02 X460.6618 Y78.2986 I-0.2766 J-0.9238
G02 X459.0617 Y78.7776 I-0.6618 J0.7014
G02 X460.2766 Y79.9238 Z-4.1781 I0.9383 J0.2224
G02 X460.8750 Y79.4053 Z-4.2500 I-0.2766 J-0.9238
G03 X460.2766 Y79.9238 Z-4.3219 I-0.8750 J-0.4053
G03 X459.0617 Y78.7776 Z-4.5000 I-0.2766 J-0.9238
G02 X460.2766 Y79.9238 I0.9383 J0.2224
G02 X460.6618 Y78.2986 I-0.2766 J-0.9238
G02 X459.0617 Y78.7776 I-0.6618 J0.7014
G02 X460.2766 Y79.9238 Z-4.6781 I0.9383 J0.2224
G02 X460.8750 Y79.4053 Z-4.7500 I-0.2766 J-0.9238
G03 X460.2766 Y79.9238 Z-4.8219 I-0.8750 J-0.4053
G03 X459.0617 Y78.7776 Z-5.0000 I-0.2766 J-0.9238
G02 X460.2766 Y79.9238 I0.9383 J0.2224
G02 X460.6618 Y78.2986 I-0.2766 J-0.9238
G02 X459.0617 Y78.7776 I-0.6618 J0.7014
G02 X460.2766 Y79.9238 Z-5.1781 I0.9383 J0.2224
G02 X460.8750 Y79.4053 Z-5.2500 I-0.2766 J-0.9238
G03 X460.2766 Y79.9238 Z-5.3219 I-0.8750 J-0.4053
G03 X459.0617 Y78.7776 Z-5.5000 I-0.2766 J-0.9238
G02 X460.2766 Y79.9238 I0.9383 J0.2224
G02 X460.6618 Y78.2986 I-0.2766 J-0.9238
G02 X459.0617 Y78.7776 I-0.6618 J0.7014
G02 X460.2766 Y79.9238 Z-5.6781 I0.9383 J0.2224
G02 X460.8750 Y79.4053 Z-5.7500 I-0.2766 J-0.9238
G03 X460.2766 Y79.9238 Z-5.8219 I-0.8750 J-0.4053
G03 X459.0617 Y78.7776 Z-6.0000 I-0.2766 J-0.9238
G02 X460.2766 Y79.9238 I0.9383 J0.2224
G02 X460.6618 Y78.2986 I-0.2766 J-0.9238
G02 X459.0617 Y78.7776 I-0.6618 J0.7014
G02 X460.2766 Y79.9238 Z-6.1781 I0.9383 J0.2224
G02 X460.8750 Y79.4053 Z-6.2500 I-0.2766 J-0.9238
G03 X460.2766 Y79.9238 Z-6.3219 I-0.8750 J-0.4053
G03 X459.0617 Y78.7776 Z-6.5000 I-0.2766 J-0.9238
G02 X460.2766 Y79.9238 I0.9383 J0.2224
G02 X460.6618 Y78.2986 I-0.2766 J-0.9238
G02 X459.0617 Y78.7776 I-0.6618 J0.7014
G02 X460.2766 Y79.9238 Z-6.6781 I0.9383 J0.2224
G02 X460.8750 Y79.4053 Z-6.7500 I-0.2766 J-0.9238
G03 X460.2766 Y79.9238 Z-6.8219 I-0.8750 J-0.4053
G03 X459.0617 Y78.7776 Z-7.0000 I-0.2766 J-0.9238
G02 X460.2766 Y79.9238 I0.9383 J0.2224
G02 X460.6618 Y78.2986 I-0.2766 J-0.9238
G02 X459.0617 Y78.7776 I-0.6618 J0.7014
G02 X460.2766 Y79.9238 Z-7.1781 I0.9383 J0.2224
G02 X460.8750 Y79.4053 Z-7.2500 I-0.2766 J-0.9238
G03 X460.2766 Y79.9238 Z-7.3219 I-0.8750 J-0.4053
G03 X459.0617 Y78.7776 Z-7.5000 I-0.2766 J-0.9238
G02 X460.2766 Y79.9238 I0.9383 J0.2224
G02 X460.6618 Y78.2986 I-0.2766 J-0.9238
G02 X459.0617 Y78.7776 I-0.6618 J0.7014
G02 X460.2766 Y79.9238 Z-7.6781 I0.9383 J0.2224
G02 X460.8750 Y79.4053 Z-7.7500 I-0.2766 J-0.9238
G03 X460.2766 Y79.9238 Z-7.8219 I-0.8750 J-0.4053
G03 X459.0617 Y78.7776 Z-8.0000 I-0.2766 J-0.9238
G02 X460.2766 Y79.9238 I0.9383 J0.2224
G02 X460.6618 Y78.2986 I-0.2766 J-0.9238
G02 X459.0617 Y78.7776 I-0.6618 J0.7014
G02 X460.2766 Y79.9238 Z-8.1781 I0.9383 J0.2224
G02 X460.8750 Y79.4053 Z-8.2500 I-0.2766 J-0.9238
G03 X460.2766 Y79.9238 Z-8.3219 I-0.8750 J-0.4053
G03 X459.0617 Y78.7776 Z-8.5000 I-0.2766 J-0.9238
G02 X460.2766 Y79.9238 I0.9383 J0.2224
G02 X460.6618 Y78.2986 I-0.2766 J-0.9238
G02 X459.0617 Y78.7776 I-0.6618 J0.7014
G02 X460.2766 Y79.9238 Z-8.6781 I0.9383 J0.2224
G02 X460.8750 Y79.4053 Z-8.7500 I-0.2766 J-0.9238
G03 X460.2766 Y79.9238 Z-8.8219 I-0.8750 J-0.4053
G03 X459.0617 Y78.7776 Z-9.0000 I-0.2766 J-0.9238
G02 X460.2766 Y79.9238 I0.9383 J0.2224
G02 X460.6618 Y78.2986 I-0.2766 J-0.9238
G02 X459.0617 Y78.7776 I-0.6618 J0.7014
G02 X460.2766 Y79.9238 Z-9.1781 I0.9383 J0.2224
G02 X460.8750 Y79.4053 Z-9.2500 I-0.2766 J-0.9238
G03 X460.2766 Y79.9238 Z-9.3219 I-0.8750 J-0.4053
G03 X459.0617 Y78.7776 Z-9.5000 I-0.2766 J-0.9238
G02 X460.2766 Y79.9238 I0.9383 J0.2224
G02 X460.6618 Y78.2986 I-0.2766 J-0.9238
G02 X459.0617 Y78.7776 I-0.6618 J0.7014
G02 X460.2766 Y79.9238 Z-9.6781 I0.9383 J0.2224
G02 X460.8750 Y79.4053 Z-9.7500 I-0.2766 J-0.9238
G03 X460.2766 Y79.9238 Z-9.8219 I-0.8750 J-0.4053
G03 X459.0617 Y78.7776 Z-10.0000 I-0.2766 J-0.9238
G02 X460.2766 Y79.9238 I0.9383 J0.2224
G02 X460.6618 Y78.2986 I-0.2766 J-0.9238
G02 X459.0617 Y78.7776 I-0.6618 J0.7014
G00 Z5.0000


(Nr. 7 Ausschnitt: Ausschnitt 4)
G00 X651.6183 Y78.5247 Z5.0000
G00 Z0.5000
G01 Z0.0000 F1000
G02 X652.3678 Y81.1757 Z-0.2500 I3.3817 J0.4753
G03 X651.6183 Y78.5247 Z-0.5000 I2.6322 J-2.1757
G02 X656.2793 Y82.1663 I3.3817 J0.4753
G02 X657.1024 Y76.3090 I-1.2793 J-3.1663
G02 X651.6183 Y78.5247 I-2.1024 J2.6910
G02 X652.3678 Y81.1757 Z-0.7500 I3.3817 J0.4753
G03 X651.6183 Y78.5247 Z-1.0000 I2.6322 J-2.1757
G02 X656.2793 Y82.1663 I3.3817 J0.4753
G02 X657.1024 Y76.3090 I-1.2793 J-3.1663
G02 X651.6183 Y78.5247 I-2.1024 J2.6910
G02 X652.3678 Y81.1757 Z-1.2500 I3.3817 J0.4753
G03 X651.6183 Y78.5247 Z-1.5000 I2.6322 J-2.1757
G02 X656.2793 Y82.1663 I3.3817 J0.4753
G02 X657.1024 Y76.3090 I-1.2793 J-3.1663
G02 X651.6183 Y78.5247 I-2.1024 J2.6910
G02 X652.3678 Y81.1757 Z-1.7500 I3.3817 J0.4753
G03 X651.6183 Y78.5247 Z-2.0000 I2.6322 J-2.1757
G02 X656.2793 Y82.1663 I3.3817 J0.4753
G02 X657.1024 Y76.3090 I-1.2793 J-3.1663
G02 X651.6183 Y78.5247 I-2.1024 J2.6910
G02 X652.3678 Y81.1757 Z-2.2500 I3.3817 J0.4753
G03 X651.6183 Y78.5247 Z-2.5000 I2.6322 J-2.1757
G02 X656.2793 Y82.1663 I3.3817 J0.4753
G02 X657.1024 Y76.3090 I-1.2793 J-3.1663
G02 X651.6183 Y78.5247 I-2.1024 J2.6910
G02 X652.3678 Y81.1757 Z-2.7500 I3.3817 J0.4753
G03 X651.6183 Y78.5247 Z-3.0000 I2.6322 J-2.1757
G02 X656.2793 Y82.1663 I3.3817 J0.4753
G02 X657.1024 Y76.3090 I-1.2793 J-3.1663
G02 X651.6183 Y78.5247 I-2.1024 J2.6910
G02 X652.3678 Y81.1757 Z-3.2500 I3.3817 J0.4753
G03 X651.6183 Y78.5247 Z-3.5000 I2.6322 J-2.1757
G02 X656.2793 Y82.1663 I3.3817 J0.4753
G02 X657.1024 Y76.3090 I-1.2793 J-3.1663
G02 X651.6183 Y78.5247 I-2.1024 J2.6910
G02 X652.3678 Y81.1757 Z-3.7500 I3.3817 J0.4753
G03 X651.6183 Y78.5247 Z-4.0000 I2.6322 J-2.1757
G02 X656.2793 Y82.1663 I3.3817 J0.4753
G02 X657.1024 Y76.3090 I-1.2793 J-3.1663
G02 X651.6183 Y78.5247 I-2.1024 J2.6910
G02 X652.3678 Y81.1757 Z-4.2500 I3.3817 J0.4753
G03 X651.6183 Y78.5247 Z-4.5000 I2.6322 J-2.1757
G02 X656.2793 Y82.1663 I3.3817 J0.4753
G02 X657.1024 Y76.3090 I-1.2793 J-3.1663
G02 X651.6183 Y78.5247 I-2.1024 J2.6910
G02 X652.3678 Y81.1757 Z-4.7500 I3.3817 J0.4753
G03 X651.6183 Y78.5247 Z-5.0000 I2.6322 J-2.1757
G02 X656.2793 Y82.1663 I3.3817 J0.4753
G02 X657.1024 Y76.3090 I-1.2793 J-3.1663
G02 X651.6183 Y78.5247 I-2.1024 J2.6910
G02 X652.3678 Y81.1757 Z-5.2500 I3.3817 J0.4753
G03 X651.6183 Y78.5247 Z-5.5000 I2.6322 J-2.1757
G02 X656.2793 Y82.1663 I3.3817 J0.4753
G02 X657.1024 Y76.3090 I-1.2793 J-3.1663
G02 X651.6183 Y78.5247 I-2.1024 J2.6910
G02 X652.3678 Y81.1757 Z-5.7500 I3.3817 J0.4753
G03 X651.6183 Y78.5247 Z-6.0000 I2.6322 J-2.1757
G02 X656.2793 Y82.1663 I3.3817 J0.4753
G02 X657.1024 Y76.3090 I-1.2793 J-3.1663
G02 X651.6183 Y78.5247 I-2.1024 J2.6910
G00 Z5.0000


(Nr. 8 Ausschnitt: Ausschnitt 29)
G00 X654.0503 Y78.8326 Z5.0000
G00 Z0.5000
G01 Z0.0000 F1000
G02 X655.3298 Y79.9062 Z-0.1781 I0.9497 J0.1675
G02 X655.8971 Y79.3538 Z-0.2500 I-0.3298 J-0.9062
G03 X655.3298 Y79.9062 Z-0.3219 I-0.8971 J-0.3537
G03 X654.0503 Y78.8326 Z-0.5000 I-0.3298 J-0.9062
G02 X655.3298 Y79.9062 I0.9497 J0.1675
G02 X655.6199 Y78.2613 I-0.3298 J-0.9062
G02 X654.0503 Y78.8326 I-0.6199 J0.7387
G02 X655.3298 Y79.9062 Z-0.6781 I0.9497 J0.1675
G02 X655.8971 Y79.3538 Z-0.7500 I-0.3298 J-0.9062
G03 X655.3298 Y79.9062 Z-0.8219 I-0.8971 J-0.3537
G03 X654.0503 Y78.8326 Z-1.0000 I-0.3298 J-0.9062
G02 X655.3298 Y79.9062 I0.9497 J0.1675
G02 X655.6199 Y78.2613 I-0.3298 J-0.9062
G02 X654.0503 Y78.8326 I-0.6199 J0.7387
G02 X655.3298 Y79.9062 Z-1.1781 I0.9497 J0.1675
G02 X655.8971 Y79.3538 Z-1.2500 I-0.3298 J-0.9062
G03 X655.3298 Y79.9062 Z-1.3219 I-0.8971 J-0.3537
G03 X654.0503 Y78.8326 Z-1.5000 I-0.3298 J-0.9062
G02 X655.3298 Y79.9062 I0.9497 J0.1675
G02 X655.6199 Y78.2613 I-0.3298 J-0.9062
G02 X654.0503 Y78.8326 I-0.6199 J0.7387
G02 X655.3298 Y79.9062 Z-1.6781 I0.9497 J0.1675
G02 X655.8971 Y79.3538 Z-1.7500 I-0.3298 J-0.9062
G03 X655.3298 Y79.9062 Z-1.8219 I-0.8971 J-0.3537
G03 X654.0503 Y78.8326 Z-2.0000 I-0.3298 J-0.9062
G02 X655.3298 Y79.9062 I0.9497 J0.1675
G02 X655.6199 Y78.2613 I-0.3298 J-0.9062
G02 X654.0503 Y78.8326 I-0.6199 J0.7387
G02 X655.3298 Y79.9062 Z-2.1781 I0.9497 J0.1675
G02 X655.8971 Y79.3538 Z-2.2500 I-0.3298 J-0.9062
G03 X655.3298 Y79.9062 Z-2.3219 I-0.8971 J-0.3537
G03 X654.0503 Y78.8326 Z-2.5000 I-0.3298 J-0.9062
G02 X655.3298 Y79.9062 I0.9497 J0.1675
G02 X655.6199 Y78.2613 I-0.3298 J-0.9062
G02 X654.0503 Y78.8326 I-0.6199 J0.7387
G02 X655.3298 Y79.9062 Z-2.6781 I0.9497 J0.1675
G02 X655.8971 Y79.3538 Z-2.7500 I-0.3298 J-0.9062
G03 X655.3298 Y79.9062 Z-2.8219 I-0.8971 J-0.3537
G03 X654.0503 Y78.8326 Z-3.0000 I-0.3298 J-0.9062
G02 X655.3298 Y79.9062 I0.9497 J0.1675
G02 X655.6199 Y78.2613 I-0.3298 J-0.9062
G02 X654.0503 Y78.8326 I-0.6199 J0.7387
G02 X655.3298 Y79.9062 Z-3.1781 I0.9497 J0.1675
G02 X655.8971 Y79.3538 Z-3.2500 I-0.3298 J-0.9062
G03 X655.3298 Y79.9062 Z-3.3219 I-0.8971 J-0.3537
G03 X654.0503 Y78.8326 Z-3.5000 I-0.3298 J-0.9062
G02 X655.3298 Y79.9062 I0.9497 J0.1675
G02 X655.6199 Y78.2613 I-0.3298 J-0.9062
G02 X654.0503 Y78.8326 I-0.6199 J0.7387
G02 X655.3298 Y79.9062 Z-3.6781 I0.9497 J0.1675
G02 X655.8971 Y79.3538 Z-3.7500 I-0.3298 J-0.9062
G03 X655.3298 Y79.9062 Z-3.8219 I-0.8971 J-0.3537
G03 X654.0503 Y78.8326 Z-4.0000 I-0.3298 J-0.9062
G02 X655.3298 Y79.9062 I0.9497 J0.1675
G02 X655.6199 Y78.2613 I-0.3298 J-0.9062
G02 X654.0503 Y78.8326 I-0.6199 J0.7387
G02 X655.3298 Y79.9062 Z-4.1781 I0.9497 J0.1675
G02 X655.8971 Y79.3538 Z-4.2500 I-0.3298 J-0.9062
G03 X655.3298 Y79.9062 Z-4.3219 I-0.8971 J-0.3537
G03 X654.0503 Y78.8326 Z-4.5000 I-0.3298 J-0.9062
G02 X655.3298 Y79.9062 I0.9497 J0.1675
G02 X655.6199 Y78.2613 I-0.3298 J-0.9062
G02 X654.0503 Y78.8326 I-0.6199 J0.7387
G02 X655.3298 Y79.9062 Z-4.6781 I0.9497 J0.1675
G02 X655.8971 Y79.3538 Z-4.7500 I-0.3298 J-0.9062
G03 X655.3298 Y79.9062 Z-4.8219 I-0.8971 J-0.3537
G03 X654.0503 Y78.8326 Z-5.0000 I-0.3298 J-0.9062
G02 X655.3298 Y79.9062 I0.9497 J0.1675
G02 X655.6199 Y78.2613 I-0.3298 J-0.9062
G02 X654.0503 Y78.8326 I-0.6199 J0.7387
G02 X655.3298 Y79.9062 Z-5.1781 I0.9497 J0.1675
G02 X655.8971 Y79.3538 Z-5.2500 I-0.3298 J-0.9062
G03 X655.3298 Y79.9062 Z-5.3219 I-0.8971 J-0.3537
G03 X654.0503 Y78.8326 Z-5.5000 I-0.3298 J-0.9062
G02 X655.3298 Y79.9062 I0.9497 J0.1675
G02 X655.6199 Y78.2613 I-0.3298 J-0.9062
G02 X654.0503 Y78.8326 I-0.6199 J0.7387
G02 X655.3298 Y79.9062 Z-5.6781 I0.9497 J0.1675
G02 X655.8971 Y79.3538 Z-5.7500 I-0.3298 J-0.9062
G03 X655.3298 Y79.9062 Z-5.8219 I-0.8971 J-0.3537
G03 X654.0503 Y78.8326 Z-6.0000 I-0.3298 J-0.9062
G02 X655.3298 Y79.9062 I0.9497 J0.1675
G02 X655.6199 Y78.2613 I-0.3298 J-0.9062
G02 X654.0503 Y78.8326 I-0.6199 J0.7387
G02 X655.3298 Y79.9062 Z-6.1781 I0.9497 J0.1675
G02 X655.8971 Y79.3538 Z-6.2500 I-0.3298 J-0.9062
G03 X655.3298 Y79.9062 Z-6.3219 I-0.8971 J-0.3537
G03 X654.0503 Y78.8326 Z-6.5000 I-0.3298 J-0.9062
G02 X655.3298 Y79.9062 I0.9497 J0.1675
G02 X655.6199 Y78.2613 I-0.3298 J-0.9062
G02 X654.0503 Y78.8326 I-0.6199 J0.7387
G02 X655.3298 Y79.9062 Z-6.6781 I0.9497 J0.1675
G02 X655.8971 Y79.3538 Z-6.7500 I-0.3298 J-0.9062
G03 X655.3298 Y79.9062 Z-6.8219 I-0.8971 J-0.3537
G03 X654.0503 Y78.8326 Z-7.0000 I-0.3298 J-0.9062
G02 X655.3298 Y79.9062 I0.9497 J0.1675
G02 X655.6199 Y78.2613 I-0.3298 J-0.9062
G02 X654.0503 Y78.8326 I-0.6199 J0.7387
G02 X655.3298 Y79.9062 Z-7.1781 I0.9497 J0.1675
G02 X655.8971 Y79.3538 Z-7.2500 I-0.3298 J-0.9062
G03 X655.3298 Y79.9062 Z-7.3219 I-0.8971 J-0.3537
G03 X654.0503 Y78.8326 Z-7.5000 I-0.3298 J-0.9062
G02 X655.3298 Y79.9062 I0.9497 J0.1675
G02 X655.6199 Y78.2613 I-0.3298 J-0.9062
G02 X654.0503 Y78.8326 I-0.6199 J0.7387
G02 X655.3298 Y79.9062 Z-7.6781 I0.9497 J0.1675
G02 X655.8971 Y79.3538 Z-7.7500 I-0.3298 J-0.9062
G03 X655.3298 Y79.9062 Z-7.8219 I-0.8971 J-0.3537
G03 X654.0503 Y78.8326 Z-8.0000 I-0.3298 J-0.9062
G02 X655.3298 Y79.9062 I0.9497 J0.1675
G02 X655.6199 Y78.2613 I-0.3298 J-0.9062
G02 X654.0503 Y78.8326 I-0.6199 J0.7387
G02 X655.3298 Y79.9062 Z-8.1781 I0.9497 J0.1675
G02 X655.8971 Y79.3538 Z-8.2500 I-0.3298 J-0.9062
G03 X655.3298 Y79.9062 Z-8.3219 I-0.8971 J-0.3537
G03 X654.0503 Y78.8326 Z-8.5000 I-0.3298 J-0.9062
G02 X655.3298 Y79.9062 I0.9497 J0.1675
G02 X655.6199 Y78.2613 I-0.3298 J-0.9062
G02 X654.0503 Y78.8326 I-0.6199 J0.7387
G02 X655.3298 Y79.9062 Z-8.6781 I0.9497 J0.1675
G02 X655.8971 Y79.3538 Z-8.7500 I-0.3298 J-0.9062
G03 X655.3298 Y79.9062 Z-8.8219 I-0.8971 J-0.3537
G03 X654.0503 Y78.8326 Z-9.0000 I-0.3298 J-0.9062
G02 X655.3298 Y79.9062 I0.9497 J0.1675
G02 X655.6199 Y78.2613 I-0.3298 J-0.9062
G02 X654.0503 Y78.8326 I-0.6199 J0.7387
G02 X655.3298 Y79.9062 Z-9.1781 I0.9497 J0.1675
G02 X655.8971 Y79.3538 Z-9.2500 I-0.3298 J-0.9062
G03 X655.3298 Y79.9062 Z-9.3219 I-0.8971 J-0.3537
G03 X654.0503 Y78.8326 Z-9.5000 I-0.3298 J-0.9062
G02 X655.3298 Y79.9062 I0.9497 J0.1675
G02 X655.6199 Y78.2613 I-0.3298 J-0.9062
G02 X654.0503 Y78.8326 I-0.6199 J0.7387
G02 X655.3298 Y79.9062 Z-9.6781 I0.9497 J0.1675
G02 X655.8971 Y79.3538 Z-9.7500 I-0.3298 J-0.9062
G03 X655.3298 Y79.9062 Z-9.8219 I-0.8971 J-0.3537
G03 X654.0503 Y78.8326 Z-10.0000 I-0.3298 J-0.9062
G02 X655.3298 Y79.9062 I0.9497 J0.1675
G02 X655.6199 Y78.2613 I-0.3298 J-0.9062
G02 X654.0503 Y78.8326 I-0.6199 J0.7387
G00 Z5.0000


(Nr. 9 Ausschnitt: Ausschnitt 8)
G00 X652.2373 Y452.9928 Z5.0000
G00 Z0.5000
G01 Z0.0000 F1000
G02 X651.6545 Y455.6853 Z-0.2500 I2.7627 J2.0073
G03 X652.2373 Y452.9928 Z-0.5000 I3.3455 J-0.6853
G02 X654.6430 Y458.3962 I2.7627 J2.0073
G02 X658.1197 Y453.6110 I0.3570 J-3.3962
G02 X652.2373 Y452.9928 I-3.1197 J1.3890
G02 X651.6545 Y455.6853 Z-0.7500 I2.7627 J2.0073
G03 X652.2373 Y452.9928 Z-1.0000 I3.3455 J-0.6853
G02 X654.6430 Y458.3962 I2.7627 J2.0073
G02 X658.1197 Y453.6110 I0.3570 J-3.3962
G02 X652.2373 Y452.9928 I-3.1197 J1.3890
G02 X651.6545 Y455.6853 Z-1.2500 I2.7627 J2.0073
G03 X652.2373 Y452.9928 Z-1.5000 I3.3455 J-0.6853
G02 X654.6430 Y458.3962 I2.7627 J2.0073
G02 X658.1197 Y453.6110 I0.3570 J-3.3962
G02 X652.2373 Y452.9928 I-3.1197 J1.3890
G02 X651.6545 Y455.6853 Z-1.7500 I2.7627 J2.0073
G03 X652.2373 Y452.9928 Z-2.0000 I3.3455 J-0.6853
G02 X654.6430 Y458.3962 I2.7627 J2.0073
G02 X658.1197 Y453.6110 I0.3570 J-3.3962
G02 X652.2373 Y452.9928 I-3.1197 J1.3890
G02 X651.6545 Y455.6853 Z-2.2500 I2.7627 J2.0073
G03 X652.2373 Y452.9928 Z-2.5000 I3.3455 J-0.6853
G02 X654.6430 Y458.3962 I2.7627 J2.0073
G02 X658.1197 Y453.6110 I0.3570 J-3.3962
G02 X652.2373 Y452.9928 I-3.1197 J1.3890
G02 X651.6545 Y455.6853 Z-2.7500 I2.7627 J2.0073
G03 X652.2373 Y452.9928 Z-3.0000 I3.3455 J-0.6853
G02 X654.6430 Y458.3962 I2.7627 J2.0073
G02 X658.1197 Y453.6110 I0.3570 J-3.3962
G02 X652.2373 Y452.9928 I-3.1197 J1.3890
G02 X651.6545 Y455.6853 Z-3.2500 I2.7627 J2.0073
G03 X652.2373 Y452.9928 Z-3.5000 I3.3455 J-0.6853
G02 X654.6430 Y458.3962 I2.7627 J2.0073
G02 X658.1197 Y453.6110 I0.3570 J-3.3962
G02 X652.2373 Y452.9928 I-3.1197 J1.3890
G02 X651.6545 Y455.6853 Z-3.7500 I2.7627 J2.0073
G03 X652.2373 Y452.9928 Z-4.0000 I3.3455 J-0.6853
G02 X654.6430 Y458.3962 I2.7627 J2.0073
G02 X658.1197 Y453.6110 I0.3570 J-3.3962
G02 X652.2373 Y452.9928 I-3.1197 J1.3890
G02 X651.6545 Y455.6853 Z-4.2500 I2.7627 J2.0073
G03 X652.2373 Y452.9928 Z-4.5000 I3.3455 J-0.6853
G02 X654.6430 Y458.3962 I2.7627 J2.0073
G02 X658.1197 Y453.6110 I0.3570 J-3.3962
G02 X652.2373 Y452.9928 I-3.1197 J1.3890
G02 X651.6545 Y455.6853 Z-4.7500 I2.7627 J2.0073
G03 X652.2373 Y452.9928 Z-5.0000 I3.3455 J-0.6853
G02 X654.6430 Y458.3962 I2.7627 J2.0073
G02 X658.1197 Y453.6110 I0.3570 J-3.3962
G02 X652.2373 Y452.9928 I-3.1197 J1.3890
G02 X651.6545 Y455.6853 Z-5.2500 I2.7627 J2.0073
G03 X652.2373 Y452.9928 Z-5.5000 I3.3455 J-0.6853
G02 X654.6430 Y458.3962 I2.7627 J2.0073
G02 X658.1197 Y453.6110 I0.3570 J-3.3962
G02 X652.2373 Y452.9928 I-3.1197 J1.3890
G02 X651.6545 Y455.6853 Z-5.7500 I2.7627 J2.0073
G03 X652.2373 Y452.9928 Z-6.0000 I3.3455 J-0.6853
G02 X654.6430 Y458.3962 I2.7627 J2.0073
G02 X658.1197 Y453.6110 I0.3570 J-3.3962
G02 X652.2373 Y452.9928 I-3.1197 J1.3890
G00 Z5.0000


(Nr. 10 Ausschnitt: Ausschnitt 28)
G00 X654.2265 Y454.4242 Z5.0000
G00 Z0.5000
G01 Z0.0000 F1000
G02 X654.8880 Y455.9578 Z-0.1781 I0.7735 J0.5759
G02 X655.6429 Y455.7188 Z-0.2500 I0.1120 J-0.9578
G03 X654.8880 Y455.9578 Z-0.3219 I-0.6429 J-0.7187
G03 X654.2265 Y454.4242 Z-0.5000 I0.1120 J-0.9578
G02 X654.8880 Y455.9578 I0.7735 J0.5759
G02 X655.8855 Y454.6181 I0.1120 J-0.9578
G02 X654.2265 Y454.4242 I-0.8855 J0.3820
G02 X654.8880 Y455.9578 Z-0.6781 I0.7735 J0.5759
G02 X655.6429 Y455.7188 Z-0.7500 I0.1120 J-0.9578
G03 X654.8880 Y455.9578 Z-0.8219 I-0.6429 J-0.7187
G03 X654.2265 Y454.4242 Z-1.0000 I0.1120 J-0.9578
G02 X654.8880 Y455.9578 I0.7735 J0.5759
G02 X655.8855 Y454.6181 I0.1120 J-0.9578
G02 X654.2265 Y454.4242 I-0.8855 J0.3820
G02 X654.8880 Y455.9578 Z-1.1781 I0.7735 J0.5759
G02 X655.6429 Y455.7188 Z-1.2500 I0.1120 J-0.9578
G03 X654.8880 Y455.9578 Z-1.3219 I-0.6429 J-0.7187
G03 X654.2265 Y454.4242 Z-1.5000 I0.1120 J-0.9578
G02 X654.8880 Y455.9578 I0.7735 J0.5759
G02 X655.8855 Y454.6181 I0.1120 J-0.9578
G02 X654.2265 Y454.4242 I-0.8855 J0.3820
G02 X654.8880 Y455.9578 Z-1.6781 I0.7735 J0.5759
G02 X655.6429 Y455.7188 Z-1.7500 I0.1120 J-0.9578
G03 X654.8880 Y455.9578 Z-1.8219 I-0.6429 J-0.7187
G03 X654.2265 Y454.4242 Z-2.0000 I0.1120 J-0.9578
G02 X654.8880 Y455.9578 I0.7735 J0.5759
G02 X655.8855 Y454.6181 I0.1120 J-0.9578
G02 X654.2265 Y454.4242 I-0.8855 J0.3820
G02 X654.8880 Y455.9578 Z-2.1781 I0.7735 J0.5759
G02 X655.6429 Y455.7188 Z-2.2500 I0.1120 J-0.9578
G03 X654.8880 Y455.9578 Z-2.3219 I-0.6429 J-0.7187
G03 X654.2265 Y454.4242 Z-2.5000 I0.1120 J-0.9578
G02 X654.8880 Y455.9578 I0.7735 J0.5759
G02 X655.8855 Y454.6181 I0.1120 J-0.9578
G02 X654.2265 Y454.4242 I-0.8855 J0.3820
G02 X654.8880 Y455.9578 Z-2.6781 I0.7735 J0.5759
G02 X655.6429 Y455.7188 Z-2.7500 I0.1120 J-0.9578
G03 X654.8880 Y455.9578 Z-2.8219 I-0.6429 J-0.7187
G03 X654.2265 Y454.4242 Z-3.0000 I0.1120 J-0.9578
G02 X654.8880 Y455.9578 I0.7735 J0.5759
G02 X655.8855 Y454.6181 I0.1120 J-0.9578
G02 X654.2265 Y454.4242 I-0.8855 J0.3820
G02 X654.8880 Y455.9578 Z-3.1781 I0.7735 J0.5759
G02 X655.6429 Y455.7188 Z-3.2500 I0.1120 J-0.9578
G03 X654.8880 Y455.9578 Z-3.3219 I-0.6429 J-0.7187
G03 X654.2265 Y454.4242 Z-3.5000 I0.1120 J-0.9578
G02 X654.8880 Y455.9578 I0.7735 J0.5759
G02 X655.8855 Y454.6181 I0.1120 J-0.9578
G02 X654.2265 Y454.4242 I-0.8855 J0.3820
G02 X654.8880 Y455.9578 Z-3.6781 I0.7735 J0.5759
G02 X655.6429 Y455.7188 Z-3.7500 I0.1120 J-0.9578
G03 X654.8880 Y455.9578 Z-3.8219 I-0.6429 J-0.7187
G03 X654.2265 Y454.4242 Z-4.0000 I0.1120 J-0.9578
G02 X654.8880 Y455.9578 I0.7735 J0.5759
G02 X655.8855 Y454.6181 I0.1120 J-0.9578
G02 X654.2265 Y454.4242 I-0.8855 J0.3820
G02 X654.8880 Y455.9578 Z-4.1781 I0.7735 J0.5759
G02 X655.6429 Y455.7188 Z-4.2500 I0.1120 J-0.9578
G03 X654.8880 Y455.9578 Z-4.3219 I-0.6429 J-0.7187
G03 X654.2265 Y454.4242 Z-4.5000 I0.1120 J-0.9578
G02 X654.8880 Y455.9578 I0.7735 J0.5759
G02 X655.8855 Y454.6181 I0.1120 J-0.9578
G02 X654.2265 Y454.4242 I-0.8855 J0.3820
G02 X654.8880 Y455.9578 Z-4.6781 I0.7735 J0.5759
G02 X655.6429 Y455.7188 Z-4.7500 I0.1120 J-0.9578
G03 X654.8880 Y455.9578 Z-4.8219 I-0.6429 J-0.7187
G03 X654.2265 Y454.4242 Z-5.0000 I0.1120 J-0.9578
G02 X654.8880 Y455.9578 I0.7735 J0.5759
G02 X655.8855 Y454.6181 I0.1120 J-0.9578
G02 X654.2265 Y454.4242 I-0.8855 J0.3820
G02 X654.8880 Y455.9578 Z-5.1781 I0.7735 J0.5759
G02 X655.6429 Y455.7188 Z-5.2500 I0.1120 J-0.9578
G03 X654.8880 Y455.9578 Z-5.3219 I-0.6429 J-0.7187
G03 X654.2265 Y454.4242 Z-5.5000 I0.1120 J-0.9578
G02 X654.8880 Y455.9578 I0.7735 J0.5759
G02 X655.8855 Y454.6181 I0.1120 J-0.9578
G02 X654.2265 Y454.4242 I-0.8855 J0.3820
G02 X654.8880 Y455.9578 Z-5.6781 I0.7735 J0.5759
G02 X655.6429 Y455.7188 Z-5.7500 I0.1120 J-0.9578
G03 X654.8880 Y455.9578 Z-5.8219 I-0.6429 J-0.7187
G03 X654.2265 Y454.4242 Z-6.0000 I0.1120 J-0.9578
G02 X654.8880 Y455.9578 I0.7735 J0.5759
G02 X655.8855 Y454.6181 I0.1120 J-0.9578
G02 X654.2265 Y454.4242 I-0.8855 J0.3820
G02 X654.8880 Y455.9578 Z-6.1781 I0.7735 J0.5759
G02 X655.6429 Y455.7188 Z-6.2500 I0.1120 J-0.9578
G03 X654.8880 Y455.9578 Z-6.3219 I-0.6429 J-0.7187
G03 X654.2265 Y454.4242 Z-6.5000 I0.1120 J-0.9578
G02 X654.8880 Y455.9578 I0.7735 J0.5759
G02 X655.8855 Y454.6181 I0.1120 J-0.9578
G02 X654.2265 Y454.4242 I-0.8855 J0.3820
G02 X654.8880 Y455.9578 Z-6.6781 I0.7735 J0.5759
G02 X655.6429 Y455.7188 Z-6.7500 I0.1120 J-0.9578
G03 X654.8880 Y455.9578 Z-6.8219 I-0.6429 J-0.7187
G03 X654.2265 Y454.4242 Z-7.0000 I0.1120 J-0.9578
G02 X654.8880 Y455.9578 I0.7735 J0.5759
G02 X655.8855 Y454.6181 I0.1120 J-0.9578
G02 X654.2265 Y454.4242 I-0.8855 J0.3820
G02 X654.8880 Y455.9578 Z-7.1781 I0.7735 J0.5759
G02 X655.6429 Y455.7188 Z-7.2500 I0.1120 J-0.9578
G03 X654.8880 Y455.9578 Z-7.3219 I-0.6429 J-0.7187
G03 X654.2265 Y454.4242 Z-7.5000 I0.1120 J-0.9578
G02 X654.8880 Y455.9578 I0.7735 J0.5759
G02 X655.8855 Y454.6181 I0.1120 J-0.9578
G02 X654.2265 Y454.4242 I-0.8855 J0.3820
G02 X654.8880 Y455.9578 Z-7.6781 I0.7735 J0.5759
G02 X655.6429 Y455.7188 Z-7.7500 I0.1120 J-0.9578
G03 X654.8880 Y455.9578 Z-7.8219 I-0.6429 J-0.7187
G03 X654.2265 Y454.4242 Z-8.0000 I0.1120 J-0.9578
G02 X654.8880 Y455.9578 I0.7735 J0.5759
G02 X655.8855 Y454.6181 I0.1120 J-0.9578
G02 X654.2265 Y454.4242 I-0.8855 J0.3820
G02 X654.8880 Y455.9578 Z-8.1781 I0.7735 J0.5759
G02 X655.6429 Y455.7188 Z-8.2500 I0.1120 J-0.9578
G03 X654.8880 Y455.9578 Z-8.3219 I-0.6429 J-0.7187
G03 X654.2265 Y454.4242 Z-8.5000 I0.1120 J-0.9578
G02 X654.8880 Y455.9578 I0.7735 J0.5759
G02 X655.8855 Y454.6181 I0.1120 J-0.9578
G02 X654.2265 Y454.4242 I-0.8855 J0.3820
G02 X654.8880 Y455.9578 Z-8.6781 I0.7735 J0.5759
G02 X655.6429 Y455.7188 Z-8.7500 I0.1120 J-0.9578
G03 X654.8880 Y455.9578 Z-8.8219 I-0.6429 J-0.7187
G03 X654.2265 Y454.4242 Z-9.0000 I0.1120 J-0.9578
G02 X654.8880 Y455.9578 I0.7735 J0.5759
G02 X655.8855 Y454.6181 I0.1120 J-0.9578
G02 X654.2265 Y454.4242 I-0.8855 J0.3820
G02 X654.8880 Y455.9578 Z-9.1781 I0.7735 J0.5759
G02 X655.6429 Y455.7188 Z-9.2500 I0.1120 J-0.9578
G03 X654.8880 Y455.9578 Z-9.3219 I-0.6429 J-0.7187
G03 X654.2265 Y454.4242 Z-9.5000 I0.1120 J-0.9578
G02 X654.8880 Y455.9578 I0.7735 J0.5759
G02 X655.8855 Y454.6181 I0.1120 J-0.9578
G02 X654.2265 Y454.4242 I-0.8855 J0.3820
G02 X654.8880 Y455.9578 Z-9.6781 I0.7735 J0.5759
G02 X655.6429 Y455.7188 Z-9.7500 I0.1120 J-0.9578
G03 X654.8880 Y455.9578 Z-9.8219 I-0.6429 J-0.7187
G03 X654.2265 Y454.4242 Z-10.0000 I0.1120 J-0.9578
G02 X654.8880 Y455.9578 I0.7735 J0.5759
G02 X655.8855 Y454.6181 I0.1120 J-0.9578
G02 X654.2265 Y454.4242 I-0.8855 J0.3820
G00 Z5.0000


(Nr. 11 Ausschnitt: Ausschnitt 27)
G00 X459.3382 Y454.2986 Z5.0000
G00 Z0.5000
G01 Z0.0000 F1000
G02 X459.7234 Y455.9238 Z-0.1781 I0.6618 J0.7014
G02 X460.5084 Y455.8195 Z-0.2500 I0.2766 J-0.9238
G03 X459.7234 Y455.9238 Z-0.3219 I-0.5084 J-0.8195
G03 X459.3382 Y454.2986 Z-0.5000 I0.2766 J-0.9238
G02 X459.7234 Y455.9238 I0.6618 J0.7014
G02 X460.9383 Y454.7776 I0.2766 J-0.9238
G02 X459.3382 Y454.2986 I-0.9383 J0.2224
G02 X459.7234 Y455.9238 Z-0.6781 I0.6618 J0.7014
G02 X460.5084 Y455.8195 Z-0.7500 I0.2766 J-0.9238
G03 X459.7234 Y455.9238 Z-0.8219 I-0.5084 J-0.8195
G03 X459.3382 Y454.2986 Z-1.0000 I0.2766 J-0.9238
G02 X459.7234 Y455.9238 I0.6618 J0.7014
G02 X460.9383 Y454.7776 I0.2766 J-0.9238
G02 X459.3382 Y454.2986 I-0.9383 J0.2224
G02 X459.7234 Y455.9238 Z-1.1781 I0.6618 J0.7014
G02 X460.5084 Y455.8195 Z-1.2500 I0.2766 J-0.9238
G03 X459.7234 Y455.9238 Z-1.3219 I-0.5084 J-0.8195
G03 X459.3382 Y454.2986 Z-1.5000 I0.2766 J-0.9238
G02 X459.7234 Y455.9238 I0.6618 J0.7014
G02 X460.9383 Y454.7776 I0.2766 J-0.9238
G02 X459.3382 Y454.2986 I-0.9383 J0.2224
G02 X459.7234 Y455.9238 Z-1.6781 I0.6618 J0.7014
G02 X460.5084 Y455.8195 Z-1.7500 I0.2766 J-0.9238
G03 X459.7234 Y455.9238 Z-1.8219 I-0.5084 J-0.8195
G03 X459.3382 Y454.2986 Z-2.0000 I0.2766 J-0.9238
G02 X459.7234 Y455.9238 I0.6618 J0.7014
G02 X460.9383 Y454.7776 I0.2766 J-0.9238
G02 X459.3382 Y454.2986 I-0.9383 J0.2224
G02 X459.7234 Y455.9238 Z-2.1781 I0.6618 J0.7014
G02 X460.5084 Y455.8195 Z-2.2500 I0.2766 J-0.9238
G03 X459.7234 Y455.9238 Z-2.3219 I-0.5084 J-0.8195
G03 X459.3382 Y454.2986 Z-2.5000 I0.2766 J-0.9238
G02 X459.7234 Y455.9238 I0.6618 J0.7014
G02 X460.9383 Y454.7776 I0.2766 J-0.9238
G02 X459.3382 Y454.2986 I-0.9383 J0.2224
G02 X459.7234 Y455.9238 Z-2.6781 I0.6618 J0.7014
G02 X460.5084 Y455.8195 Z-2.7500 I0.2766 J-0.9238
G03 X459.7234 Y455.9238 Z-2.8219 I-0.5084 J-0.8195
G03 X459.3382 Y454.2986 Z-3.0000 I0.2766 J-0.9238
G02 X459.7234 Y455.9238 I0.6618 J0.7014
G02 X460.9383 Y454.7776 I0.2766 J-0.9238
G02 X459.3382 Y454.2986 I-0.9383 J0.2224
G02 X459.7234 Y455.9238 Z-3.1781 I0.6618 J0.7014
G02 X460.5084 Y455.8195 Z-3.2500 I0.2766 J-0.9238
G03 X459.7234 Y455.9238 Z-3.3219 I-0.5084 J-0.8195
G03 X459.3382 Y454.2986 Z-3.5000 I0.2766 J-0.9238
G02 X459.7234 Y455.9238 I0.6618 J0.7014
G02 X460.9383 Y454.7776 I0.2766 J-0.9238
G02 X459.3382 Y454.2986 I-0.9383 J0.2224
G02 X459.7234 Y455.9238 Z-3.6781 I0.6618 J0.7014
G02 X460.5084 Y455.8195 Z-3.7500 I0.2766 J-0.9238
G03 X459.7234 Y455.9238 Z-3.8219 I-0.5084 J-0.8195
G03 X459.3382 Y454.2986 Z-4.0000 I0.2766 J-0.9238
G02 X459.7234 Y455.9238 I0.6618 J0.7014
G02 X460.9383 Y454.7776 I0.2766 J-0.9238
G02 X459.3382 Y454.2986 I-0.9383 J0.2224
G02 X459.7234 Y455.9238 Z-4.1781 I0.6618 J0.7014
G02 X460.5084 Y455.8195 Z-4.2500 I0.2766 J-0.9238
G03 X459.7234 Y455.9238 Z-4.3219 I-0.5084 J-0.8195
G03 X459.3382 Y454.2986 Z-4.5000 I0.2766 J-0.9238
G02 X459.7234 Y455.9238 I0.6618 J0.7014
G02 X460.9383 Y454.7776 I0.2766 J-0.9238
G02 X459.3382 Y454.2986 I-0.9383 J0.2224
G02 X459.7234 Y455.9238 Z-4.6781 I0.6618 J0.7014
G02 X460.5084 Y455.8195 Z-4.7500 I0.2766 J-0.9238
G03 X459.7234 Y455.9238 Z-4.8219 I-0.5084 J-0.8195
G03 X459.3382 Y454.2986 Z-5.0000 I0.2766 J-0.9238
G02 X459.7234 Y455.9238 I0.6618 J0.7014
G02 X460.9383 Y454.7776 I0.2766 J-0.9238
G02 X459.3382 Y454.2986 I-0.9383 J0.2224
G02 X459.7234 Y455.9238 Z-5.1781 I0.6618 J0.7014
G02 X460.5084 Y455.8195 Z-5.2500 I0.2766 J-0.9238
G03 X459.7234 Y455.9238 Z-5.3219 I-0.5084 J-0.8195
G03 X459.3382 Y454.2986 Z-5.5000 I0.2766 J-0.9238
G02 X459.7234 Y455.9238 I0.6618 J0.7014
G02 X460.9383 Y454.7776 I0.2766 J-0.9238
G02 X459.3382 Y454.2986 I-0.9383 J0.2224
G02 X459.7234 Y455.9238 Z-5.6781 I0.6618 J0.7014
G02 X460.5084 Y455.8195 Z-5.7500 I0.2766 J-0.9238
G03 X459.7234 Y455.9238 Z-5.8219 I-0.5084 J-0.8195
G03 X459.3382 Y454.2986 Z-6.0000 I0.2766 J-0.9238
G02 X459.7234 Y455.9238 I0.6618 J0.7014
G02 X460.9383 Y454.7776 I0.2766 J-0.9238
G02 X459.3382 Y454.2986 I-0.9383 J0.2224
G02 X459.7234 Y455.9238 Z-6.1781 I0.6618 J0.7014
G02 X460.5084 Y455.8195 Z-6.2500 I0.2766 J-0.9238
G03 X459.7234 Y455.9238 Z-6.3219 I-0.5084 J-0.8195
G03 X459.3382 Y454.2986 Z-6.5000 I0.2766 J-0.9238
G02 X459.7234 Y455.9238 I0.6618 J0.7014
G02 X460.9383 Y454.7776 I0.2766 J-0.9238
G02 X459.3382 Y454.2986 I-0.9383 J0.2224
G02 X459.7234 Y455.9238 Z-6.6781 I0.6618 J0.7014
G02 X460.5084 Y455.8195 Z-6.7500 I0.2766 J-0.9238
G03 X459.7234 Y455.9238 Z-6.8219 I-0.5084 J-0.8195
G03 X459.3382 Y454.2986 Z-7.0000 I0.2766 J-0.9238
G02 X459.7234 Y455.9238 I0.6618 J0.7014
G02 X460.9383 Y454.7776 I0.2766 J-0.9238
G02 X459.3382 Y454.2986 I-0.9383 J0.2224
G02 X459.7234 Y455.9238 Z-7.1781 I0.6618 J0.7014
G02 X460.5084 Y455.8195 Z-7.2500 I0.2766 J-0.9238
G03 X459.7234 Y455.9238 Z-7.3219 I-0.5084 J-0.8195
G03 X459.3382 Y454.2986 Z-7.5000 I0.2766 J-0.9238
G02 X459.7234 Y455.9238 I0.6618 J0.7014
G02 X460.9383 Y454.7776 I0.2766 J-0.9238
G02 X459.3382 Y454.2986 I-0.9383 J0.2224
G02 X459.7234 Y455.9238 Z-7.6781 I0.6618 J0.7014
G02 X460.5084 Y455.8195 Z-7.7500 I0.2766 J-0.9238
G03 X459.7234 Y455.9238 Z-7.8219 I-0.5084 J-0.8195
G03 X459.3382 Y454.2986 Z-8.0000 I0.2766 J-0.9238
G02 X459.7234 Y455.9238 I0.6618 J0.7014
G02 X460.9383 Y454.7776 I0.2766 J-0.9238
G02 X459.3382 Y454.2986 I-0.9383 J0.2224
G02 X459.7234 Y455.9238 Z-8.1781 I0.6618 J0.7014
G02 X460.5084 Y455.8195 Z-8.2500 I0.2766 J-0.9238
G03 X459.7234 Y455.9238 Z-8.3219 I-0.5084 J-0.8195
G03 X459.3382 Y454.2986 Z-8.5000 I0.2766 J-0.9238
G02 X459.7234 Y455.9238 I0.6618 J0.7014
G02 X460.9383 Y454.7776 I0.2766 J-0.9238
G02 X459.3382 Y454.2986 I-0.9383 J0.2224
G02 X459.7234 Y455.9238 Z-8.6781 I0.6618 J0.7014
G02 X460.5084 Y455.8195 Z-8.7500 I0.2766 J-0.9238
G03 X459.7234 Y455.9238 Z-8.8219 I-0.5084 J-0.8195
G03 X459.3382 Y454.2986 Z-9.0000 I0.2766 J-0.9238
G02 X459.7234 Y455.9238 I0.6618 J0.7014
G02 X460.9383 Y454.7776 I0.2766 J-0.9238
G02 X459.3382 Y454.2986 I-0.9383 J0.2224
G02 X459.7234 Y455.9238 Z-9.1781 I0.6618 J0.7014
G02 X460.5084 Y455.8195 Z-9.2500 I0.2766 J-0.9238
G03 X459.7234 Y455.9238 Z-9.3219 I-0.5084 J-0.8195
G03 X459.3382 Y454.2986 Z-9.5000 I0.2766 J-0.9238
G02 X459.7234 Y455.9238 I0.6618 J0.7014
G02 X460.9383 Y454.7776 I0.2766 J-0.9238
G02 X459.3382 Y454.2986 I-0.9383 J0.2224
G02 X459.7234 Y455.9238 Z-9.6781 I0.6618 J0.7014
G02 X460.5084 Y455.8195 Z-9.7500 I0.2766 J-0.9238
G03 X459.7234 Y455.9238 Z-9.8219 I-0.5084 J-0.8195
G03 X459.3382 Y454.2986 Z-10.0000 I0.2766 J-0.9238
G02 X459.7234 Y455.9238 I0.6618 J0.7014
G02 X460.9383 Y454.7776 I0.2766 J-0.9238
G02 X459.3382 Y454.2986 I-0.9383 J0.2224
G00 Z5.0000


(Nr. 12 Ausschnitt: Ausschnitt 7)
G00 X457.6278 Y452.5435 Z5.0000
G00 Z0.5000
G01 Z0.0000 F1000
G02 X456.5864 Y455.0939 Z-0.2500 I2.3722 J2.4565
G03 X457.6278 Y452.5435 Z-0.5000 I3.4136 J-0.0939
G02 X459.0587 Y458.2827 I2.3722 J2.4565
G02 X463.3135 Y454.1739 I0.9413 J-3.2827
G02 X457.6278 Y452.5435 I-3.3135 J0.8261
G02 X456.5864 Y455.0939 Z-0.7500 I2.3722 J2.4565
G03 X457.6278 Y452.5435 Z-1.0000 I3.4136 J-0.0939
G02 X459.0587 Y458.2827 I2.3722 J2.4565
G02 X463.3135 Y454.1739 I0.9413 J-3.2827
G02 X457.6278 Y452.5435 I-3.3135 J0.8261
G02 X456.5864 Y455.0939 Z-1.2500 I2.3722 J2.4565
G03 X457.6278 Y452.5435 Z-1.5000 I3.4136 J-0.0939
G02 X459.0587 Y458.2827 I2.3722 J2.4565
G02 X463.3135 Y454.1739 I0.9413 J-3.2827
G02 X457.6278 Y452.5435 I-3.3135 J0.8261
G02 X456.5864 Y455.0939 Z-1.7500 I2.3722 J2.4565
G03 X457.6278 Y452.5435 Z-2.0000 I3.4136 J-0.0939
G02 X459.0587 Y458.2827 I2.3722 J2.4565
G02 X463.3135 Y454.1739 I0.9413 J-3.2827
G02 X457.6278 Y452.5435 I-3.3135 J0.8261
G02 X456.5864 Y455.0939 Z-2.2500 I2.3722 J2.4565
G03 X457.6278 Y452.5435 Z-2.5000 I3.4136 J-0.0939
G02 X459.0587 Y458.2827 I2.3722 J2.4565
G02 X463.3135 Y454.1739 I0.9413 J-3.2827
G02 X457.6278 Y452.5435 I-3.3135 J0.8261
G02 X456.5864 Y455.0939 Z-2.7500 I2.3722 J2.4565
G03 X457.6278 Y452.5435 Z-3.0000 I3.4136 J-0.0939
G02 X459.0587 Y458.2827 I2.3722 J2.4565
G02 X463.3135 Y454.1739 I0.9413 J-3.2827
G02 X457.6278 Y452.5435 I-3.3135 J0.8261
G02 X456.5864 Y455.0939 Z-3.2500 I2.3722 J2.4565
G03 X457.6278 Y452.5435 Z-3.5000 I3.4136 J-0.0939
G02 X459.0587 Y458.2827 I2.3722 J2.4565
G02 X463.3135 Y454.1739 I0.9413 J-3.2827
G02 X457.6278 Y452.5435 I-3.3135 J0.8261
G02 X456.5864 Y455.0939 Z-3.7500 I2.3722 J2.4565
G03 X457.6278 Y452.5435 Z-4.0000 I3.4136 J-0.0939
G02 X459.0587 Y458.2827 I2.3722 J2.4565
G02 X463.3135 Y454.1739 I0.9413 J-3.2827
G02 X457.6278 Y452.5435 I-3.3135 J0.8261
G02 X456.5864 Y455.0939 Z-4.2500 I2.3722 J2.4565
G03 X457.6278 Y452.5435 Z-4.5000 I3.4136 J-0.0939
G02 X459.0587 Y458.2827 I2.3722 J2.4565
G02 X463.3135 Y454.1739 I0.9413 J-3.2827
G02 X457.6278 Y452.5435 I-3.3135 J0.8261
G02 X456.5864 Y455.0939 Z-4.7500 I2.3722 J2.4565
G03 X457.6278 Y452.5435 Z-5.0000 I3.4136 J-0.0939
G02 X459.0587 Y458.2827 I2.3722 J2.4565
G02 X463.3135 Y454.1739 I0.9413 J-3.2827
G02 X457.6278 Y452.5435 I-3.3135 J0.8261
G02 X456.5864 Y455.0939 Z-5.2500 I2.3722 J2.4565
G03 X457.6278 Y452.5435 Z-5.5000 I3.4136 J-0.0939
G02 X459.0587 Y458.2827 I2.3722 J2.4565
G02 X463.3135 Y454.1739 I0.9413 J-3.2827
G02 X457.6278 Y452.5435 I-3.3135 J0.8261
G02 X456.5864 Y455.0939 Z-5.7500 I2.3722 J2.4565
G03 X457.6278 Y452.5435 Z-6.0000 I3.4136 J-0.0939
G02 X459.0587 Y458.2827 I2.3722 J2.4565
G02 X463.3135 Y454.1739 I0.9413 J-3.2827
G02 X457.6278 Y452.5435 I-3.3135 J0.8261
G00 Z5.0000


(Nr. 13 Ausschnitt: Ausschnitt 26)
G00 X259.5672 Y454.1383 Z5.0000
G00 Z0.5000
G01 Z0.0000 F1000
G02 X259.4701 Y455.8057 Z-0.1781 I0.4328 J0.8618
G02 X260.2520 Y455.9308 Z-0.2500 I0.5299 J-0.8057
G03 X259.4701 Y455.8057 Z-0.3219 I-0.2520 J-0.9308
G03 X259.5672 Y454.1383 Z-0.5000 I0.5299 J-0.8057
G02 X259.4701 Y455.8057 I0.4328 J0.8618
G02 X260.9627 Y455.0561 I0.5299 J-0.8057
G02 X259.5672 Y454.1383 I-0.9627 J-0.0561
G02 X259.4701 Y455.8057 Z-0.6781 I0.4328 J0.8618
G02 X260.2520 Y455.9308 Z-0.7500 I0.5299 J-0.8057
G03 X259.4701 Y455.8057 Z-0.8219 I-0.2520 J-0.9308
G03 X259.5672 Y454.1383 Z-1.0000 I0.5299 J-0.8057
G02 X259.4701 Y455.8057 I0.4328 J0.8618
G02 X260.9627 Y455.0561 I0.5299 J-0.8057
G02 X259.5672 Y454.1383 I-0.9627 J-0.0561
G02 X259.4701 Y455.8057 Z-1.1781 I0.4328 J0.8618
G02 X260.2520 Y455.9308 Z-1.2500 I0.5299 J-0.8057
G03 X259.4701 Y455.8057 Z-1.3219 I-0.2520 J-0.9308
G03 X259.5672 Y454.1383 Z-1.5000 I0.5299 J-0.8057
G02 X259.4701 Y455.8057 I0.4328 J0.8618
G02 X260.9627 Y455.0561 I0.5299 J-0.8057
G02 X259.5672 Y454.1383 I-0.9627 J-0.0561
G02 X259.4701 Y455.8057 Z-1.6781 I0.4328 J0.8618
G02 X260.2520 Y455.9308 Z-1.7500 I0.5299 J-0.8057
G03 X259.4701 Y455.8057 Z-1.8219 I-0.2520 J-0.9308
G03 X259.5672 Y454.1383 Z-2.0000 I0.5299 J-0.8057
G02 X259.4701 Y455.8057 I0.4328 J0.8618
G02 X260.9627 Y455.0561 I0.5299 J-0.8057
G02 X259.5672 Y454.1383 I-0.9627 J-0.0561
G02 X259.4701 Y455.8057 Z-2.1781 I0.4328 J0.8618
G02 X260.2520 Y455.9308 Z-2.2500 I0.5299 J-0.8057
G03 X259.4701 Y455.8057 Z-2.3219 I-0.2520 J-0.9308
G03 X259.5672 Y454.1383 Z-2.5000 I0.5299 J-0.8057
G02 X259.4701 Y455.8057 I0.4328 J0.8618
G02 X260.9627 Y455.0561 I0.5299 J-0.8057
G02 X259.5672 Y454.1383 I-0.9627 J-0.0561
G02 X259.4701 Y455.8057 Z-2.6781 I0.4328 J0.8618
G02 X260.2520 Y455.9308 Z-2.7500 I0.5299 J-0.8057
G03 X259.4701 Y455.8057 Z-2.8219 I-0.2520 J-0.9308
G03 X259.5672 Y454.1383 Z-3.0000 I0.5299 J-0.8057
G02 X259.4701 Y455.8057 I0.4328 J0.8618
G02 X260.9627 Y455.0561 I0.5299 J-0.8057
G02 X259.5672 Y454.1383 I-0.9627 J-0.0561
G02 X259.4701 Y455.8057 Z-3.1781 I0.4328 J0.8618
G02 X260.2520 Y455.9308 Z-3.2500 I0.5299 J-0.8057
G03 X259.4701 Y455.8057 Z-3.3219 I-0.2520 J-0.9308
G03 X259.5672 Y454.1383 Z-3.5000 I0.5299 J-0.8057
G02 X259.4701 Y455.8057 I0.4328 J0.8618
G02 X260.9627 Y455.0561 I0.5299 J-0.8057
G02 X259.5672 Y454.1383 I-0.9627 J-0.0561
G02 X259.4701 Y455.8057 Z-3.6781 I0.4328 J0.8618
G02 X260.2520 Y455.9308 Z-3.7500 I0.5299 J-0.8057
G03 X259.4701 Y455.8057 Z-3.8219 I-0.2520 J-0.9308
G03 X259.5672 Y454.1383 Z-4.0000 I0.5299 J-0.8057
G02 X259.4701 Y455.8057 I0.4328 J0.8618
G02 X260.9627 Y455.0561 I0.5299 J-0.8057
G02 X259.5672 Y454.1383 I-0.9627 J-0.0561
G02 X259.4701 Y455.8057 Z-4.1781 I0.4328 J0.8618
G02 X260.2520 Y455.9308 Z-4.2500 I0.5299 J-0.8057
G03 X259.4701 Y455.8057 Z-4.3219 I-0.2520 J-0.9308
G03 X259.5672 Y454.1383 Z-4.5000 I0.5299 J-0.8057
G02 X259.4701 Y455.8057 I0.4328 J0.8618
G02 X260.9627 Y455.0561 I0.5299 J-0.8057
G02 X259.5672 Y454.1383 I-0.9627 J-0.0561
G02 X259.4701 Y455.8057 Z-4.6781 I0.4328 J0.8618
G02 X260.2520 Y455.9308 Z-4.7500 I0.5299 J-0.8057
G03 X259.4701 Y455.8057 Z-4.8219 I-0.2520 J-0.9308
G03 X259.5672 Y454.1383 Z-5.0000 I0.5299 J-0.8057
G02 X259.4701 Y455.8057 I0.4328 J0.8618
G02 X260.9627 Y455.0561 I0.5299 J-0.8057
G02 X259.5672 Y454.1383 I-0.9627 J-0.0561
G02 X259.4701 Y455.8057 Z-5.1781 I0.4328 J0.8618
G02 X260.2520 Y455.9308 Z-5.2500 I0.5299 J-0.8057
G03 X259.4701 Y455.8057 Z-5.3219 I-0.2520 J-0.9308
G03 X259.5672 Y454.1383 Z-5.5000 I0.5299 J-0.8057
G02 X259.4701 Y455.8057 I0.4328 J0.8618
G02 X260.9627 Y455.0561 I0.5299 J-0.8057
G02 X259.5672 Y454.1383 I-0.9627 J-0.0561
G02 X259.4701 Y455.8057 Z-5.6781 I0.4328 J0.8618
G02 X260.2520 Y455.9308 Z-5.7500 I0.5299 J-0.8057
G03 X259.4701 Y455.8057 Z-5.8219 I-0.2520 J-0.9308
G03 X259.5672 Y454.1383 Z-6.0000 I0.5299 J-0.8057
G02 X259.4701 Y455.8057 I0.4328 J0.8618
G02 X260.9627 Y455.0561 I0.5299 J-0.8057
G02 X259.5672 Y454.1383 I-0.9627 J-0.0561
G02 X259.4701 Y455.8057 Z-6.1781 I0.4328 J0.8618
G02 X260.2520 Y455.9308 Z-6.2500 I0.5299 J-0.8057
G03 X259.4701 Y455.8057 Z-6.3219 I-0.2520 J-0.9308
G03 X259.5672 Y454.1383 Z-6.5000 I0.5299 J-0.8057
G02 X259.4701 Y455.8057 I0.4328 J0.8618
G02 X260.9627 Y455.0561 I0.5299 J-0.8057
G02 X259.5672 Y454.1383 I-0.9627 J-0.0561
G02 X259.4701 Y455.8057 Z-6.6781 I0.4328 J0.8618
G02 X260.2520 Y455.9308 Z-6.7500 I0.5299 J-0.8057
G03 X259.4701 Y455.8057 Z-6.8219 I-0.2520 J-0.9308
G03 X259.5672 Y454.1383 Z-7.0000 I0.5299 J-0.8057
G02 X259.4701 Y455.8057 I0.4328 J0.8618
G02 X260.9627 Y455.0561 I0.5299 J-0.8057
G02 X259.5672 Y454.1383 I-0.9627 J-0.0561
G02 X259.4701 Y455.8057 Z-7.1781 I0.4328 J0.8618
G02 X260.2520 Y455.9308 Z-7.2500 I0.5299 J-0.8057
G03 X259.4701 Y455.8057 Z-7.3219 I-0.2520 J-0.9308
G03 X259.5672 Y454.1383 Z-7.5000 I0.5299 J-0.8057
G02 X259.4701 Y455.8057 I0.4328 J0.8618
G02 X260.9627 Y455.0561 I0.5299 J-0.8057
G02 X259.5672 Y454.1383 I-0.9627 J-0.0561
G02 X259.4701 Y455.8057 Z-7.6781 I0.4328 J0.8618
G02 X260.2520 Y455.9308 Z-7.7500 I0.5299 J-0.8057
G03 X259.4701 Y455.8057 Z-7.8219 I-0.2520 J-0.9308
G03 X259.5672 Y454.1383 Z-8.0000 I0.5299 J-0.8057
G02 X259.4701 Y455.8057 I0.4328 J0.8618
G02 X260.9627 Y455.0561 I0.5299 J-0.8057
G02 X259.5672 Y454.1383 I-0.9627 J-0.0561
G02 X259.4701 Y455.8057 Z-8.1781 I0.4328 J0.8618
G02 X260.2520 Y455.9308 Z-8.2500 I0.5299 J-0.8057
G03 X259.4701 Y455.8057 Z-8.3219 I-0.2520 J-0.9308
G03 X259.5672 Y454.1383 Z-8.5000 I0.5299 J-0.8057
G02 X259.4701 Y455.8057 I0.4328 J0.8618
G02 X260.9627 Y455.0561 I0.5299 J-0.8057
G02 X259.5672 Y454.1383 I-0.9627 J-0.0561
G02 X259.4701 Y455.8057 Z-8.6781 I0.4328 J0.8618
G02 X260.2520 Y455.9308 Z-8.7500 I0.5299 J-0.8057
G03 X259.4701 Y455.8057 Z-8.8219 I-0.2520 J-0.9308
G03 X259.5672 Y454.1383 Z-9.0000 I0.5299 J-0.8057
G02 X259.4701 Y455.8057 I0.4328 J0.8618
G02 X260.9627 Y455.0561 I0.5299 J-0.8057
G02 X259.5672 Y454.1383 I-0.9627 J-0.0561
G02 X259.4701 Y455.8057 Z-9.1781 I0.4328 J0.8618
G02 X260.2520 Y455.9308 Z-9.2500 I0.5299 J-0.8057
G03 X259.4701 Y455.8057 Z-9.3219 I-0.2520 J-0.9308
G03 X259.5672 Y454.1383 Z-9.5000 I0.5299 J-0.8057
G02 X259.4701 Y455.8057 I0.4328 J0.8618
G02 X260.9627 Y455.0561 I0.5299 J-0.8057
G02 X259.5672 Y454.1383 I-0.9627 J-0.0561
G02 X259.4701 Y455.8057 Z-9.6781 I0.4328 J0.8618
G02 X260.2520 Y455.9308 Z-9.7500 I0.5299 J-0.8057
G03 X259.4701 Y455.8057 Z-9.8219 I-0.2520 J-0.9308
G03 X259.5672 Y454.1383 Z-10.0000 I0.5299 J-0.8057
G02 X259.4701 Y455.8057 I0.4328 J0.8618
G02 X260.9627 Y455.0561 I0.5299 J-0.8057
G02 X259.5672 Y454.1383 I-0.9627 J-0.0561
G00 Z5.0000


(Nr. 14 Ausschnitt: Ausschnitt 6)
G00 X258.3444 Y452.0132 Z5.0000
G00 Z0.5000
G01 Z0.0000 F1000
G02 X256.6784 Y454.2072 Z-0.2500 I1.6556 J2.9868
G03 X258.3444 Y452.0132 Z-0.5000 I3.3216 J0.7928
G02 X258.2412 Y457.9272 I1.6556 J2.9868
G02 X263.4144 Y455.0596 I1.7588 J-2.9272
G02 X258.3444 Y452.0132 I-3.4144 J-0.0596
G02 X256.6784 Y454.2072 Z-0.7500 I1.6556 J2.9868
G03 X258.3444 Y452.0132 Z-1.0000 I3.3216 J0.7928
G02 X258.2412 Y457.9272 I1.6556 J2.9868
G02 X263.4144 Y455.0596 I1.7588 J-2.9272
G02 X258.3444 Y452.0132 I-3.4144 J-0.0596
G02 X256.6784 Y454.2072 Z-1.2500 I1.6556 J2.9868
G03 X258.3444 Y452.0132 Z-1.5000 I3.3216 J0.7928
G02 X258.2412 Y457.9272 I1.6556 J2.9868
G02 X263.4144 Y455.0596 I1.7588 J-2.9272
G02 X258.3444 Y452.0132 I-3.4144 J-0.0596
G02 X256.6784 Y454.2072 Z-1.7500 I1.6556 J2.9868
G03 X258.3444 Y452.0132 Z-2.0000 I3.3216 J0.7928
G02 X258.2412 Y457.9272 I1.6556 J2.9868
G02 X263.4144 Y455.0596 I1.7588 J-2.9272
G02 X258.3444 Y452.0132 I-3.4144 J-0.0596
G02 X256.6784 Y454.2072 Z-2.2500 I1.6556 J2.9868
G03 X258.3444 Y452.0132 Z-2.5000 I3.3216 J0.7928
G02 X258.2412 Y457.9272 I1.6556 J2.9868
G02 X263.4144 Y455.0596 I1.7588 J-2.9272
G02 X258.3444 Y452.0132 I-3.4144 J-0.0596
G02 X256.6784 Y454.2072 Z-2.7500 I1.6556 J2.9868
G03 X258.3444 Y452.0132 Z-3.0000 I3.3216 J0.7928
G02 X258.2412 Y457.9272 I1.6556 J2.9868
G02 X263.4144 Y455.0596 I1.7588 J-2.9272
G02 X258.3444 Y452.0132 I-3.4144 J-0.0596
G02 X256.6784 Y454.2072 Z-3.2500 I1.6556 J2.9868
G03 X258.3444 Y452.0132 Z-3.5000 I3.3216 J0.7928
G02 X258.2412 Y457.9272 I1.6556 J2.9868
G02 X263.4144 Y455.0596 I1.7588 J-2.9272
G02 X258.3444 Y452.0132 I-3.4144 J-0.0596
G02 X256.6784 Y454.2072 Z-3.7500 I1.6556 J2.9868
G03 X258.3444 Y452.0132 Z-4.0000 I3.3216 J0.7928
G02 X258.2412 Y457.9272 I1.6556 J2.9868
G02 X263.4144 Y455.0596 I1.7588 J-2.9272
G02 X258.3444 Y452.0132 I-3.4144 J-0.0596
G02 X256.6784 Y454.2072 Z-4.2500 I1.6556 J2.9868
G03 X258.3444 Y452.0132 Z-4.5000 I3.3216 J0.7928
G02 X258.2412 Y457.9272 I1.6556 J2.9868
G02 X263.4144 Y455.0596 I1.7588 J-2.9272
G02 X258.3444 Y452.0132 I-3.4144 J-0.0596
G02 X256.6784 Y454.2072 Z-4.7500 I1.6556 J2.9868
G03 X258.3444 Y452.0132 Z-5.0000 I3.3216 J0.7928
G02 X258.2412 Y457.9272 I1.6556 J2.9868
G02 X263.4144 Y455.0596 I1.7588 J-2.9272
G02 X258.3444 Y452.0132 I-3.4144 J-0.0596
G02 X256.6784 Y454.2072 Z-5.2500 I1.6556 J2.9868
G03 X258.3444 Y452.0132 Z-5.5000 I3.3216 J0.7928
G02 X258.2412 Y457.9272 I1.6556 J2.9868
G02 X263.4144 Y455.0596 I1.7588 J-2.9272
G02 X258.3444 Y452.0132 I-3.4144 J-0.0596
G02 X256.6784 Y454.2072 Z-5.7500 I1.6556 J2.9868
G03 X258.3444 Y452.0132 Z-6.0000 I3.3216 J0.7928
G02 X258.2412 Y457.9272 I1.6556 J2.9868
G02 X263.4144 Y455.0596 I1.7588 J-2.9272
G02 X258.3444 Y452.0132 I-3.4144 J-0.0596
G00 Z5.0000


(Nr. 15 Ausschnitt: Ausschnitt 25)
G00 X48.9439 Y454.0373 Z5.0000
G00 Z0.5000
G01 Z0.0000 F1000
G02 X48.1943 Y455.5299 Z-0.1781 I0.0561 J0.9627
G02 X48.8627 Y455.9545 Z-0.2500 I0.8057 J-0.5299
G03 X48.1943 Y455.5299 Z-0.3219 I0.1373 J-0.9545
G03 X48.9439 Y454.0373 Z-0.5000 I0.8057 J-0.5299
G02 X48.1943 Y455.5299 I0.0561 J0.9627
G02 X49.8618 Y455.4328 I0.8057 J-0.5299
G02 X48.9439 Y454.0373 I-0.8618 J-0.4328
G02 X48.1943 Y455.5299 Z-0.6781 I0.0561 J0.9627
G02 X48.8627 Y455.9545 Z-0.7500 I0.8057 J-0.5299
G03 X48.1943 Y455.5299 Z-0.8219 I0.1373 J-0.9545
G03 X48.9439 Y454.0373 Z-1.0000 I0.8057 J-0.5299
G02 X48.1943 Y455.5299 I0.0561 J0.9627
G02 X49.8618 Y455.4328 I0.8057 J-0.5299
G02 X48.9439 Y454.0373 I-0.8618 J-0.4328
G02 X48.1943 Y455.5299 Z-1.1781 I0.0561 J0.9627
G02 X48.8627 Y455.9545 Z-1.2500 I0.8057 J-0.5299
G03 X48.1943 Y455.5299 Z-1.3219 I0.1373 J-0.9545
G03 X48.9439 Y454.0373 Z-1.5000 I0.8057 J-0.5299
G02 X48.1943 Y455.5299 I0.0561 J0.9627
G02 X49.8618 Y455.4328 I0.8057 J-0.5299
G02 X48.9439 Y454.0373 I-0.8618 J-0.4328
G02 X48.1943 Y455.5299 Z-1.6781 I0.0561 J0.9627
G02 X48.8627 Y455.9545 Z-1.7500 I0.8057 J-0.5299
G03 X48.1943 Y455.5299 Z-1.8219 I0.1373 J-0.9545
G03 X48.9439 Y454.0373 Z-2.0000 I0.8057 J-0.5299
G02 X48.1943 Y455.5299 I0.0561 J0.9627
G02 X49.8618 Y455.4328 I0.8057 J-0.5299
G02 X48.9439 Y454.0373 I-0.8618 J-0.4328
G02 X48.1943 Y455.5299 Z-2.1781 I0.0561 J0.9627
G02 X48.8627 Y455.9545 Z-2.2500 I0.8057 J-0.5299
G03 X48.1943 Y455.5299 Z-2.3219 I0.1373 J-0.9545
G03 X48.9439 Y454.0373 Z-2.5000 I0.8057 J-0.5299
G02 X48.1943 Y455.5299 I0.0561 J0.9627
G02 X49.8618 Y455.4328 I0.8057 J-0.5299
G02 X48.9439 Y454.0373 I-0.8618 J-0.4328
G02 X48.1943 Y455.5299 Z-2.6781 I0.0561 J0.9627
G02 X48.8627 Y455.9545 Z-2.7500 I0.8057 J-0.5299
G03 X48.1943 Y455.5299 Z-2.8219 I0.1373 J-0.9545
G03 X48.9439 Y454.0373 Z-3.0000 I0.8057 J-0.5299
G02 X48.1943 Y455.5299 I0.0561 J0.9627
G02 X49.8618 Y455.4328 I0.8057 J-0.5299
G02 X48.9439 Y454.0373 I-0.8618 J-0.4328
G02 X48.1943 Y455.5299 Z-3.1781 I0.0561 J0.9627
G02 X48.8627 Y455.9545 Z-3.2500 I0.8057 J-0.5299
G03 X48.1943 Y455.5299 Z-3.3219 I0.1373 J-0.9545
G03 X48.9439 Y454.0373 Z-3.5000 I0.8057 J-0.5299
G02 X48.1943 Y455.5299 I0.0561 J0.9627
G02 X49.8618 Y455.4328 I0.8057 J-0.5299
G02 X48.9439 Y454.0373 I-0.8618 J-0.4328
G02 X48.1943 Y455.5299 Z-3.6781 I0.0561 J0.9627
G02 X48.8627 Y455.9545 Z-3.7500 I0.8057 J-0.5299
G03 X48.1943 Y455.5299 Z-3.8219 I0.1373 J-0.9545
G03 X48.9439 Y454.0373 Z-4.0000 I0.8057 J-0.5299
G02 X48.1943 Y455.5299 I0.0561 J0.9627
G02 X49.8618 Y455.4328 I0.8057 J-0.5299
G02 X48.9439 Y454.0373 I-0.8618 J-0.4328
G02 X48.1943 Y455.5299 Z-4.1781 I0.0561 J0.9627
G02 X48.8627 Y455.9545 Z-4.2500 I0.8057 J-0.5299
G03 X48.1943 Y455.5299 Z-4.3219 I0.1373 J-0.9545
G03 X48.9439 Y454.0373 Z-4.5000 I0.8057 J-0.5299
G02 X48.1943 Y455.5299 I0.0561 J0.9627
G02 X49.8618 Y455.4328 I0.8057 J-0.5299
G02 X48.9439 Y454.0373 I-0.8618 J-0.4328
G02 X48.1943 Y455.5299 Z-4.6781 I0.0561 J0.9627
G02 X48.8627 Y455.9545 Z-4.7500 I0.8057 J-0.5299
G03 X48.1943 Y455.5299 Z-4.8219 I0.1373 J-0.9545
G03 X48.9439 Y454.0373 Z-5.0000 I0.8057 J-0.5299
G02 X48.1943 Y455.5299 I0.0561 J0.9627
G02 X49.8618 Y455.4328 I0.8057 J-0.5299
G02 X48.9439 Y454.0373 I-0.8618 J-0.4328
G02 X48.1943 Y455.5299 Z-5.1781 I0.0561 J0.9627
G02 X48.8627 Y455.9545 Z-5.2500 I0.8057 J-0.5299
G03 X48.1943 Y455.5299 Z-5.3219 I0.1373 J-0.9545
G03 X48.9439 Y454.0373 Z-5.5000 I0.8057 J-0.5299
G02 X48.1943 Y455.5299 I0.0561 J0.9627
G02 X49.8618 Y455.4328 I0.8057 J-0.5299
G02 X48.9439 Y454.0373 I-0.8618 J-0.4328
G02 X48.1943 Y455.5299 Z-5.6781 I0.0561 J0.9627
G02 X48.8627 Y455.9545 Z-5.7500 I0.8057 J-0.5299
G03 X48.1943 Y455.5299 Z-5.8219 I0.1373 J-0.9545
G03 X48.9439 Y454.0373 Z-6.0000 I0.8057 J-0.5299
G02 X48.1943 Y455.5299 I0.0561 J0.9627
G02 X49.8618 Y455.4328 I0.8057 J-0.5299
G02 X48.9439 Y454.0373 I-0.8618 J-0.4328
G02 X48.1943 Y455.5299 Z-6.1781 I0.0561 J0.9627
G02 X48.8627 Y455.9545 Z-6.2500 I0.8057 J-0.5299
G03 X48.1943 Y455.5299 Z-6.3219 I0.1373 J-0.9545
G03 X48.9439 Y454.0373 Z-6.5000 I0.8057 J-0.5299
G02 X48.1943 Y455.5299 I0.0561 J0.9627
G02 X49.8618 Y455.4328 I0.8057 J-0.5299
G02 X48.9439 Y454.0373 I-0.8618 J-0.4328
G02 X48.1943 Y455.5299 Z-6.6781 I0.0561 J0.9627
G02 X48.8627 Y455.9545 Z-6.7500 I0.8057 J-0.5299
G03 X48.1943 Y455.5299 Z-6.8219 I0.1373 J-0.9545
G03 X48.9439 Y454.0373 Z-7.0000 I0.8057 J-0.5299
G02 X48.1943 Y455.5299 I0.0561 J0.9627
G02 X49.8618 Y455.4328 I0.8057 J-0.5299
G02 X48.9439 Y454.0373 I-0.8618 J-0.4328
G02 X48.1943 Y455.5299 Z-7.1781 I0.0561 J0.9627
G02 X48.8627 Y455.9545 Z-7.2500 I0.8057 J-0.5299
G03 X48.1943 Y455.5299 Z-7.3219 I0.1373 J-0.9545
G03 X48.9439 Y454.0373 Z-7.5000 I0.8057 J-0.5299
G02 X48.1943 Y455.5299 I0.0561 J0.9627
G02 X49.8618 Y455.4328 I0.8057 J-0.5299
G02 X48.9439 Y454.0373 I-0.8618 J-0.4328
G02 X48.1943 Y455.5299 Z-7.6781 I0.0561 J0.9627
G02 X48.8627 Y455.9545 Z-7.7500 I0.8057 J-0.5299
G03 X48.1943 Y455.5299 Z-7.8219 I0.1373 J-0.9545
G03 X48.9439 Y454.0373 Z-8.0000 I0.8057 J-0.5299
G02 X48.1943 Y455.5299 I0.0561 J0.9627
G02 X49.8618 Y455.4328 I0.8057 J-0.5299
G02 X48.9439 Y454.0373 I-0.8618 J-0.4328
G02 X48.1943 Y455.5299 Z-8.1781 I0.0561 J0.9627
G02 X48.8627 Y455.9545 Z-8.2500 I0.8057 J-0.5299
G03 X48.1943 Y455.5299 Z-8.3219 I0.1373 J-0.9545
G03 X48.9439 Y454.0373 Z-8.5000 I0.8057 J-0.5299
G02 X48.1943 Y455.5299 I0.0561 J0.9627
G02 X49.8618 Y455.4328 I0.8057 J-0.5299
G02 X48.9439 Y454.0373 I-0.8618 J-0.4328
G02 X48.1943 Y455.5299 Z-8.6781 I0.0561 J0.9627
G02 X48.8627 Y455.9545 Z-8.7500 I0.8057 J-0.5299
G03 X48.1943 Y455.5299 Z-8.8219 I0.1373 J-0.9545
G03 X48.9439 Y454.0373 Z-9.0000 I0.8057 J-0.5299
G02 X48.1943 Y455.5299 I0.0561 J0.9627
G02 X49.8618 Y455.4328 I0.8057 J-0.5299
G02 X48.9439 Y454.0373 I-0.8618 J-0.4328
G02 X48.1943 Y455.5299 Z-9.1781 I0.0561 J0.9627
G02 X48.8627 Y455.9545 Z-9.2500 I0.8057 J-0.5299
G03 X48.1943 Y455.5299 Z-9.3219 I0.1373 J-0.9545
G03 X48.9439 Y454.0373 Z-9.5000 I0.8057 J-0.5299
G02 X48.1943 Y455.5299 I0.0561 J0.9627
G02 X49.8618 Y455.4328 I0.8057 J-0.5299
G02 X48.9439 Y454.0373 I-0.8618 J-0.4328
G02 X48.1943 Y455.5299 Z-9.6781 I0.0561 J0.9627
G02 X48.8627 Y455.9545 Z-9.7500 I0.8057 J-0.5299
G03 X48.1943 Y455.5299 Z-9.8219 I0.1373 J-0.9545
G03 X48.9439 Y454.0373 Z-10.0000 I0.8057 J-0.5299
G02 X48.1943 Y455.5299 I0.0561 J0.9627
G02 X49.8618 Y455.4328 I0.8057 J-0.5299
G02 X48.9439 Y454.0373 I-0.8618 J-0.4328
G00 Z5.0000


(Nr. 16 Ausschnitt: Ausschnitt 5)
G00 X48.7024 Y451.5981 Z5.0000
G00 Z0.5000
G01 Z0.0000 F1000
G02 X46.2880 Y452.9247 Z-0.2500 I0.2976 J3.4019
G03 X48.7024 Y451.5981 Z-0.5000 I2.7120 J2.0753
G02 X46.2026 Y456.9587 I0.2976 J3.4019
G02 X52.0950 Y456.4432 I2.7974 J-1.9587
G02 X48.7024 Y451.5981 I-3.0950 J-1.4432
G02 X46.2880 Y452.9247 Z-0.7500 I0.2976 J3.4019
G03 X48.7024 Y451.5981 Z-1.0000 I2.7120 J2.0753
G02 X46.2026 Y456.9587 I0.2976 J3.4019
G02 X52.0950 Y456.4432 I2.7974 J-1.9587
G02 X48.7024 Y451.5981 I-3.0950 J-1.4432
G02 X46.2880 Y452.9247 Z-1.2500 I0.2976 J3.4019
G03 X48.7024 Y451.5981 Z-1.5000 I2.7120 J2.0753
G02 X46.2026 Y456.9587 I0.2976 J3.4019
G02 X52.0950 Y456.4432 I2.7974 J-1.9587
G02 X48.7024 Y451.5981 I-3.0950 J-1.4432
G02 X46.2880 Y452.9247 Z-1.7500 I0.2976 J3.4019
G03 X48.7024 Y451.5981 Z-2.0000 I2.7120 J2.0753
G02 X46.2026 Y456.9587 I0.2976 J3.4019
G02 X52.0950 Y456.4432 I2.7974 J-1.9587
G02 X48.7024 Y451.5981 I-3.0950 J-1.4432
G02 X46.2880 Y452.9247 Z-2.2500 I0.2976 J3.4019
G03 X48.7024 Y451.5981 Z-2.5000 I2.7120 J2.0753
G02 X46.2026 Y456.9587 I0.2976 J3.4019
G02 X52.0950 Y456.4432 I2.7974 J-1.9587
G02 X48.7024 Y451.5981 I-3.0950 J-1.4432
G02 X46.2880 Y452.9247 Z-2.7500 I0.2976 J3.4019
G03 X48.7024 Y451.5981 Z-3.0000 I2.7120 J2.0753
G02 X46.2026 Y456.9587 I0.2976 J3.4019
G02 X52.0950 Y456.4432 I2.7974 J-1.9587
G02 X48.7024 Y451.5981 I-3.0950 J-1.4432
G02 X46.2880 Y452.9247 Z-3.2500 I0.2976 J3.4019
G03 X48.7024 Y451.5981 Z-3.5000 I2.7120 J2.0753
G02 X46.2026 Y456.9587 I0.2976 J3.4019
G02 X52.0950 Y456.4432 I2.7974 J-1.9587
G02 X48.7024 Y451.5981 I-3.0950 J-1.4432
G02 X46.2880 Y452.9247 Z-3.7500 I0.2976 J3.4019
G03 X48.7024 Y451.5981 Z-4.0000 I2.7120 J2.0753
G02 X46.2026 Y456.9587 I0.2976 J3.4019
G02 X52.0950 Y456.4432 I2.7974 J-1.9587
G02 X48.7024 Y451.5981 I-3.0950 J-1.4432
G02 X46.2880 Y452.9247 Z-4.2500 I0.2976 J3.4019
G03 X48.7024 Y451.5981 Z-4.5000 I2.7120 J2.0753
G02 X46.2026 Y456.9587 I0.2976 J3.4019
G02 X52.0950 Y456.4432 I2.7974 J-1.9587
G02 X48.7024 Y451.5981 I-3.0950 J-1.4432
G02 X46.2880 Y452.9247 Z-4.7500 I0.2976 J3.4019
G03 X48.7024 Y451.5981 Z-5.0000 I2.7120 J2.0753
G02 X46.2026 Y456.9587 I0.2976 J3.4019
G02 X52.0950 Y456.4432 I2.7974 J-1.9587
G02 X48.7024 Y451.5981 I-3.0950 J-1.4432
G02 X46.2880 Y452.9247 Z-5.2500 I0.2976 J3.4019
G03 X48.7024 Y451.5981 Z-5.5000 I2.7120 J2.0753
G02 X46.2026 Y456.9587 I0.2976 J3.4019
G02 X52.0950 Y456.4432 I2.7974 J-1.9587
G02 X48.7024 Y451.5981 I-3.0950 J-1.4432
G02 X46.2880 Y452.9247 Z-5.7500 I0.2976 J3.4019
G03 X48.7024 Y451.5981 Z-6.0000 I2.7120 J2.0753
G02 X46.2026 Y456.9587 I0.2976 J3.4019
G02 X52.0950 Y456.4432 I2.7974 J-1.9587
G02 X48.7024 Y451.5981 I-3.0950 J-1.4432
G00 Z5.0000


(Nr. 17 Ausschnitt: Ausschnitt 12)
G00 X48.8808 Y829.5872 Z5.0000
G00 Z0.5000
G01 Z0.0000 F1000
G02 X46.4003 Y830.7856 Z-0.2500 I0.1192 J3.4129
G03 X48.8808 Y829.5872 Z-0.5000 I2.5997 J2.2144
G02 X46.1040 Y834.8097 I0.1192 J3.4129
G02 X52.0152 Y834.6032 I2.8960 J-1.8096
G02 X48.8808 Y829.5872 I-3.0152 J-1.6032
G02 X46.4003 Y830.7856 Z-0.7500 I0.1192 J3.4129
G03 X48.8808 Y829.5872 Z-1.0000 I2.5997 J2.2144
G02 X46.1040 Y834.8097 I0.1192 J3.4129
G02 X52.0152 Y834.6032 I2.8960 J-1.8096
G02 X48.8808 Y829.5872 I-3.0152 J-1.6032
G02 X46.4003 Y830.7856 Z-1.2500 I0.1192 J3.4129
G03 X48.8808 Y829.5872 Z-1.5000 I2.5997 J2.2144
G02 X46.1040 Y834.8097 I0.1192 J3.4129
G02 X52.0152 Y834.6032 I2.8960 J-1.8096
G02 X48.8808 Y829.5872 I-3.0152 J-1.6032
G02 X46.4003 Y830.7856 Z-1.7500 I0.1192 J3.4129
G03 X48.8808 Y829.5872 Z-2.0000 I2.5997 J2.2144
G02 X46.1040 Y834.8097 I0.1192 J3.4129
G02 X52.0152 Y834.6032 I2.8960 J-1.8096
G02 X48.8808 Y829.5872 I-3.0152 J-1.6032
G02 X46.4003 Y830.7856 Z-2.2500 I0.1192 J3.4129
G03 X48.8808 Y829.5872 Z-2.5000 I2.5997 J2.2144
G02 X46.1040 Y834.8097 I0.1192 J3.4129
G02 X52.0152 Y834.6032 I2.8960 J-1.8096
G02 X48.8808 Y829.5872 I-3.0152 J-1.6032
G02 X46.4003 Y830.7856 Z-2.7500 I0.1192 J3.4129
G03 X48.8808 Y829.5872 Z-3.0000 I2.5997 J2.2144
G02 X46.1040 Y834.8097 I0.1192 J3.4129
G02 X52.0152 Y834.6032 I2.8960 J-1.8096
G02 X48.8808 Y829.5872 I-3.0152 J-1.6032
G02 X46.4003 Y830.7856 Z-3.2500 I0.1192 J3.4129
G03 X48.8808 Y829.5872 Z-3.5000 I2.5997 J2.2144
G02 X46.1040 Y834.8097 I0.1192 J3.4129
G02 X52.0152 Y834.6032 I2.8960 J-1.8096
G02 X48.8808 Y829.5872 I-3.0152 J-1.6032
G02 X46.4003 Y830.7856 Z-3.7500 I0.1192 J3.4129
G03 X48.8808 Y829.5872 Z-4.0000 I2.5997 J2.2144
G02 X46.1040 Y834.8097 I0.1192 J3.4129
G02 X52.0152 Y834.6032 I2.8960 J-1.8096
G02 X48.8808 Y829.5872 I-3.0152 J-1.6032
G02 X46.4003 Y830.7856 Z-4.2500 I0.1192 J3.4129
G03 X48.8808 Y829.5872 Z-4.5000 I2.5997 J2.2144
G02 X46.1040 Y834.8097 I0.1192 J3.4129
G02 X52.0152 Y834.6032 I2.8960 J-1.8096
G02 X48.8808 Y829.5872 I-3.0152 J-1.6032
G02 X46.4003 Y830.7856 Z-4.7500 I0.1192 J3.4129
G03 X48.8808 Y829.5872 Z-5.0000 I2.5997 J2.2144
G02 X46.1040 Y834.8097 I0.1192 J3.4129
G02 X52.0152 Y834.6032 I2.8960 J-1.8096
G02 X48.8808 Y829.5872 I-3.0152 J-1.6032
G02 X46.4003 Y830.7856 Z-5.2500 I0.1192 J3.4129
G03 X48.8808 Y829.5872 Z-5.5000 I2.5997 J2.2144
G02 X46.1040 Y834.8097 I0.1192 J3.4129
G02 X52.0152 Y834.6032 I2.8960 J-1.8096
G02 X48.8808 Y829.5872 I-3.0152 J-1.6032
G02 X46.4003 Y830.7856 Z-5.7500 I0.1192 J3.4129
G03 X48.8808 Y829.5872 Z-6.0000 I2.5997 J2.2144
G02 X46.1040 Y834.8097 I0.1192 J3.4129
G02 X52.0152 Y834.6032 I2.8960 J-1.8096
G02 X48.8808 Y829.5872 I-3.0152 J-1.6032
G00 Z5.0000


(Nr. 18 Ausschnitt: Ausschnitt 24)
G00 X49.0000 Y832.0357 Z5.0000
G00 Z0.5000
G01 Z0.0000 F1000
G02 X48.1649 Y833.4822 Z-0.1781 I0.0000 J0.9643
G02 X48.8074 Y833.9449 Z-0.2500 I0.8351 J-0.4822
G03 X48.1649 Y833.4822 Z-0.3219 I0.1926 J-0.9449
G03 X49.0000 Y832.0357 Z-0.5000 I0.8351 J-0.4822
G02 X48.1649 Y833.4822 I0.0000 J0.9643
G02 X49.8351 I0.8351 J-0.4822
G02 X49.0000 Y832.0357 I-0.8351 J-0.4822
G02 X48.1649 Y833.4822 Z-0.6781 I0.0000 J0.9643
G02 X48.8074 Y833.9449 Z-0.7500 I0.8351 J-0.4822
G03 X48.1649 Y833.4822 Z-0.8219 I0.1926 J-0.9449
G03 X49.0000 Y832.0357 Z-1.0000 I0.8351 J-0.4822
G02 X48.1649 Y833.4822 I0.0000 J0.9643
G02 X49.8351 I0.8351 J-0.4822
G02 X49.0000 Y832.0357 I-0.8351 J-0.4822
G02 X48.1649 Y833.4822 Z-1.1781 I0.0000 J0.9643
G02 X48.8074 Y833.9449 Z-1.2500 I0.8351 J-0.4822
G03 X48.1649 Y833.4822 Z-1.3219 I0.1926 J-0.9449
G03 X49.0000 Y832.0357 Z-1.5000 I0.8351 J-0.4822
G02 X48.1649 Y833.4822 I0.0000 J0.9643
G02 X49.8351 I0.8351 J-0.4822
G02 X49.0000 Y832.0357 I-0.8351 J-0.4822
G02 X48.1649 Y833.4822 Z-1.6781 I0.0000 J0.9643
G02 X48.8074 Y833.9449 Z-1.7500 I0.8351 J-0.4822
G03 X48.1649 Y833.4822 Z-1.8219 I0.1926 J-0.9449
G03 X49.0000 Y832.0357 Z-2.0000 I0.8351 J-0.4822
G02 X48.1649 Y833.4822 I0.0000 J0.9643
G02 X49.8351 I0.8351 J-0.4822
G02 X49.0000 Y832.0357 I-0.8351 J-0.4822
G02 X48.1649 Y833.4822 Z-2.1781 I0.0000 J0.9643
G02 X48.8074 Y833.9449 Z-2.2500 I0.8351 J-0.4822
G03 X48.1649 Y833.4822 Z-2.3219 I0.1926 J-0.9449
G03 X49.0000 Y832.0357 Z-2.5000 I0.8351 J-0.4822
G02 X48.1649 Y833.4822 I0.0000 J0.9643
G02 X49.8351 I0.8351 J-0.4822
G02 X49.0000 Y832.0357 I-0.8351 J-0.4822
G02 X48.1649 Y833.4822 Z-2.6781 I0.0000 J0.9643
G02 X48.8074 Y833.9449 Z-2.7500 I0.8351 J-0.4822
G03 X48.1649 Y833.4822 Z-2.8219 I0.1926 J-0.9449
G03 X49.0000 Y832.0357 Z-3.0000 I0.8351 J-0.4822
G02 X48.1649 Y833.4822 I0.0000 J0.9643
G02 X49.8351 I0.8351 J-0.4822
G02 X49.0000 Y832.0357 I-0.8351 J-0.4822
G02 X48.1649 Y833.4822 Z-3.1781 I0.0000 J0.9643
G02 X48.8074 Y833.9449 Z-3.2500 I0.8351 J-0.4822
G03 X48.1649 Y833.4822 Z-3.3219 I0.1926 J-0.9449
G03 X49.0000 Y832.0357 Z-3.5000 I0.8351 J-0.4822
G02 X48.1649 Y833.4822 I0.0000 J0.9643
G02 X49.8351 I0.8351 J-0.4822
G02 X49.0000 Y832.0357 I-0.8351 J-0.4822
G02 X48.1649 Y833.4822 Z-3.6781 I0.0000 J0.9643
G02 X48.8074 Y833.9449 Z-3.7500 I0.8351 J-0.4822
G03 X48.1649 Y833.4822 Z-3.8219 I0.1926 J-0.9449
G03 X49.0000 Y832.0357 Z-4.0000 I0.8351 J-0.4822
G02 X48.1649 Y833.4822 I0.0000 J0.9643
G02 X49.8351 I0.8351 J-0.4822
G02 X49.0000 Y832.0357 I-0.8351 J-0.4822
G02 X48.1649 Y833.4822 Z-4.1781 I0.0000 J0.9643
G02 X48.8074 Y833.9449 Z-4.2500 I0.8351 J-0.4822
G03 X48.1649 Y833.4822 Z-4.3219 I0.1926 J-0.9449
G03 X49.0000 Y832.0357 Z-4.5000 I0.8351 J-0.4822
G02 X48.1649 Y833.4822 I0.0000 J0.9643
G02 X49.8351 I0.8351 J-0.4822
G02 X49.0000 Y832.0357 I-0.8351 J-0.4822
G02 X48.1649 Y833.4822 Z-4.6781 I0.0000 J0.9643
G02 X48.8074 Y833.9449 Z-4.7500 I0.8351 J-0.4822
G03 X48.1649 Y833.4822 Z-4.8219 I0.1926 J-0.9449
G03 X49.0000 Y832.0357 Z-5.0000 I0.8351 J-0.4822
G02 X48.1649 Y833.4822 I0.0000 J0.9643
G02 X49.8351 I0.8351 J-0.4822
G02 X49.0000 Y832.0357 I-0.8351 J-0.4822
G02 X48.1649 Y833.4822 Z-5.1781 I0.0000 J0.9643
G02 X48.8074 Y833.9449 Z-5.2500 I0.8351 J-0.4822
G03 X48.1649 Y833.4822 Z-5.3219 I0.1926 J-0.9449
G03 X49.0000 Y832.0357 Z-5.5000 I0.8351 J-0.4822
G02 X48.1649 Y833.4822 I0.0000 J0.9643
G02 X49.8351 I0.8351 J-0.4822
G02 X49.0000 Y832.0357 I-0.8351 J-0.4822
G02 X48.1649 Y833.4822 Z-5.6781 I0.0000 J0.9643
G02 X48.8074 Y833.9449 Z-5.7500 I0.8351 J-0.4822
G03 X48.1649 Y833.4822 Z-5.8219 I0.1926 J-0.9449
G03 X49.0000 Y832.0357 Z-6.0000 I0.8351 J-0.4822
G02 X48.1649 Y833.4822 I0.0000 J0.9643
G02 X49.8351 I0.8351 J-0.4822
G02 X49.0000 Y832.0357 I-0.8351 J-0.4822
G02 X48.1649 Y833.4822 Z-6.1781 I0.0000 J0.9643
G02 X48.8074 Y833.9449 Z-6.2500 I0.8351 J-0.4822
G03 X48.1649 Y833.4822 Z-6.3219 I0.1926 J-0.9449
G03 X49.0000 Y832.0357 Z-6.5000 I0.8351 J-0.4822
G02 X48.1649 Y833.4822 I0.0000 J0.9643
G02 X49.8351 I0.8351 J-0.4822
G02 X49.0000 Y832.0357 I-0.8351 J-0.4822
G02 X48.1649 Y833.4822 Z-6.6781 I0.0000 J0.9643
G02 X48.8074 Y833.9449 Z-6.7500 I0.8351 J-0.4822
G03 X48.1649 Y833.4822 Z-6.8219 I0.1926 J-0.9449
G03 X49.0000 Y832.0357 Z-7.0000 I0.8351 J-0.4822
G02 X48.1649 Y833.4822 I0.0000 J0.9643
G02 X49.8351 I0.8351 J-0.4822
G02 X49.0000 Y832.0357 I-0.8351 J-0.4822
G02 X48.1649 Y833.4822 Z-7.1781 I0.0000 J0.9643
G02 X48.8074 Y833.9449 Z-7.2500 I0.8351 J-0.4822
G03 X48.1649 Y833.4822 Z-7.3219 I0.1926 J-0.9449
G03 X49.0000 Y832.0357 Z-7.5000 I0.8351 J-0.4822
G02 X48.1649 Y833.4822 I0.0000 J0.9643
G02 X49.8351 I0.8351 J-0.4822
G02 X49.0000 Y832.0357 I-0.8351 J-0.4822
G02 X48.1649 Y833.4822 Z-7.6781 I0.0000 J0.9643
G02 X48.8074 Y833.9449 Z-7.7500 I0.8351 J-0.4822
G03 X48.1649 Y833.4822 Z-7.8219 I0.1926 J-0.9449
G03 X49.0000 Y832.0357 Z-8.0000 I0.8351 J-0.4822
G02 X48.1649 Y833.4822 I0.0000 J0.9643
G02 X49.8351 I0.8351 J-0.4822
G02 X49.0000 Y832.0357 I-0.8351 J-0.4822
G02 X48.1649 Y833.4822 Z-8.1781 I0.0000 J0.9643
G02 X48.8074 Y833.9449 Z-8.2500 I0.8351 J-0.4822
G03 X48.1649 Y833.4822 Z-8.3219 I0.1926 J-0.9449
G03 X49.0000 Y832.0357 Z-8.5000 I0.8351 J-0.4822
G02 X48.1649 Y833.4822 I0.0000 J0.9643
G02 X49.8351 I0.8351 J-0.4822
G02 X49.0000 Y832.0357 I-0.8351 J-0.4822
G02 X48.1649 Y833.4822 Z-8.6781 I0.0000 J0.9643
G02 X48.8074 Y833.9449 Z-8.7500 I0.8351 J-0.4822
G03 X48.1649 Y833.4822 Z-8.8219 I0.1926 J-0.9449
G03 X49.0000 Y832.0357 Z-9.0000 I0.8351 J-0.4822
G02 X48.1649 Y833.4822 I0.0000 J0.9643
G02 X49.8351 I0.8351 J-0.4822
G02 X49.0000 Y832.0357 I-0.8351 J-0.4822
G02 X48.1649 Y833.4822 Z-9.1781 I0.0000 J0.9643
G02 X48.8074 Y833.9449 Z-9.2500 I0.8351 J-0.4822
G03 X48.1649 Y833.4822 Z-9.3219 I0.1926 J-0.9449
G03 X49.0000 Y832.0357 Z-9.5000 I0.8351 J-0.4822
G02 X48.1649 Y833.4822 I0.0000 J0.9643
G02 X49.8351 I0.8351 J-0.4822
G02 X49.0000 Y832.0357 I-0.8351 J-0.4822
G02 X48.1649 Y833.4822 Z-9.6781 I0.0000 J0.9643
G02 X48.8074 Y833.9449 Z-9.7500 I0.8351 J-0.4822
G03 X48.1649 Y833.4822 Z-9.8219 I0.1926 J-0.9449
G03 X49.0000 Y832.0357 Z-10.0000 I0.8351 J-0.4822
G02 X48.1649 Y833.4822 I0.0000 J0.9643
G02 X49.8351 I0.8351 J-0.4822
G02 X49.0000 Y832.0357 I-0.8351 J-0.4822
G00 Z5.0000


(Nr. 19 Ausschnitt: Ausschnitt 11)
G00 X259.0587 Y829.7174 Z5.0000
G00 Z0.5000
G01 Z0.0000 F1000
G02 X256.9418 Y831.4803 Z-0.2500 I0.9413 J3.2827
G03 X259.0587 Y829.7174 Z-0.5000 I3.0582 J1.5197
G02 X257.6278 Y835.4565 I0.9413 J3.2827
G02 X263.3135 Y833.8262 I2.3722 J-2.4565
G02 X259.0587 Y829.7174 I-3.3135 J-0.8261
G02 X256.9418 Y831.4803 Z-0.7500 I0.9413 J3.2827
G03 X259.0587 Y829.7174 Z-1.0000 I3.0582 J1.5197
G02 X257.6278 Y835.4565 I0.9413 J3.2827
G02 X263.3135 Y833.8262 I2.3722 J-2.4565
G02 X259.0587 Y829.7174 I-3.3135 J-0.8261
G02 X256.9418 Y831.4803 Z-1.2500 I0.9413 J3.2827
G03 X259.0587 Y829.7174 Z-1.5000 I3.0582 J1.5197
G02 X257.6278 Y835.4565 I0.9413 J3.2827
G02 X263.3135 Y833.8262 I2.3722 J-2.4565
G02 X259.0587 Y829.7174 I-3.3135 J-0.8261
G02 X256.9418 Y831.4803 Z-1.7500 I0.9413 J3.2827
G03 X259.0587 Y829.7174 Z-2.0000 I3.0582 J1.5197
G02 X257.6278 Y835.4565 I0.9413 J3.2827
G02 X263.3135 Y833.8262 I2.3722 J-2.4565
G02 X259.0587 Y829.7174 I-3.3135 J-0.8261
G02 X256.9418 Y831.4803 Z-2.2500 I0.9413 J3.2827
G03 X259.0587 Y829.7174 Z-2.5000 I3.0582 J1.5197
G02 X257.6278 Y835.4565 I0.9413 J3.2827
G02 X263.3135 Y833.8262 I2.3722 J-2.4565
G02 X259.0587 Y829.7174 I-3.3135 J-0.8261
G02 X256.9418 Y831.4803 Z-2.7500 I0.9413 J3.2827
G03 X259.0587 Y829.7174 Z-3.0000 I3.0582 J1.5197
G02 X257.6278 Y835.4565 I0.9413 J3.2827
G02 X263.3135 Y833.8262 I2.3722 J-2.4565
G02 X259.0587 Y829.7174 I-3.3135 J-0.8261
G02 X256.9418 Y831.4803 Z-3.2500 I0.9413 J3.2827
G03 X259.0587 Y829.7174 Z-3.5000 I3.0582 J1.5197
G02 X257.6278 Y835.4565 I0.9413 J3.2827
G02 X263.3135 Y833.8262 I2.3722 J-2.4565
G02 X259.0587 Y829.7174 I-3.3135 J-0.8261
G02 X256.9418 Y831.4803 Z-3.7500 I0.9413 J3.2827
G03 X259.0587 Y829.7174 Z-4.0000 I3.0582 J1.5197
G02 X257.6278 Y835.4565 I0.9413 J3.2827
G02 X263.3135 Y833.8262 I2.3722 J-2.4565
G02 X259.0587 Y829.7174 I-3.3135 J-0.8261
G02 X256.9418 Y831.4803 Z-4.2500 I0.9413 J3.2827
G03 X259.0587 Y829.7174 Z-4.5000 I3.0582 J1.5197
G02 X257.6278 Y835.4565 I0.9413 J3.2827
G02 X263.3135 Y833.8262 I2.3722 J-2.4565
G02 X259.0587 Y829.7174 I-3.3135 J-0.8261
G02 X256.9418 Y831.4803 Z-4.7500 I0.9413 J3.2827
G03 X259.0587 Y829.7174 Z-5.0000 I3.0582 J1.5197
G02 X257.6278 Y835.4565 I0.9413 J3.2827
G02 X263.3135 Y833.8262 I2.3722 J-2.4565
G02 X259.0587 Y829.7174 I-3.3135 J-0.8261
G02 X256.9418 Y831.4803 Z-5.2500 I0.9413 J3.2827
G03 X259.0587 Y829.7174 Z-5.5000 I3.0582 J1.5197
G02 X257.6278 Y835.4565 I0.9413 J3.2827
G02 X263.3135 Y833.8262 I2.3722 J-2.4565
G02 X259.0587 Y829.7174 I-3.3135 J-0.8261
G02 X256.9418 Y831.4803 Z-5.7500 I0.9413 J3.2827
G03 X259.0587 Y829.7174 Z-6.0000 I3.0582 J1.5197
G02 X257.6278 Y835.4565 I0.9413 J3.2827
G02 X263.3135 Y833.8262 I2.3722 J-2.4565
G02 X259.0587 Y829.7174 I-3.3135 J-0.8261
G00 Z5.0000


(Nr. 20 Ausschnitt: Ausschnitt 23)
G00 X259.7776 Y832.0617 Z5.0000
G00 Z0.5000
G01 Z0.0000 F1000
G02 X259.2986 Y833.6618 Z-0.1781 I0.2224 J0.9383
G02 X260.0305 Y833.9638 Z-0.2500 I0.7014 J-0.6618
G03 X259.2986 Y833.6618 Z-0.3219 I-0.0305 J-0.9638
G03 X259.7776 Y832.0617 Z-0.5000 I0.7014 J-0.6618
G02 X259.2986 Y833.6618 I0.2224 J0.9383
G02 X260.9238 Y833.2766 I0.7014 J-0.6618
G02 X259.7776 Y832.0617 I-0.9238 J-0.2766
G02 X259.2986 Y833.6618 Z-0.6781 I0.2224 J0.9383
G02 X260.0305 Y833.9638 Z-0.7500 I0.7014 J-0.6618
G03 X259.2986 Y833.6618 Z-0.8219 I-0.0305 J-0.9638
G03 X259.7776 Y832.0617 Z-1.0000 I0.7014 J-0.6618
G02 X259.2986 Y833.6618 I0.2224 J0.9383
G02 X260.9238 Y833.2766 I0.7014 J-0.6618
G02 X259.7776 Y832.0617 I-0.9238 J-0.2766
G02 X259.2986 Y833.6618 Z-1.1781 I0.2224 J0.9383
G02 X260.0305 Y833.9638 Z-1.2500 I0.7014 J-0.6618
G03 X259.2986 Y833.6618 Z-1.3219 I-0.0305 J-0.9638
G03 X259.7776 Y832.0617 Z-1.5000 I0.7014 J-0.6618
G02 X259.2986 Y833.6618 I0.2224 J0.9383
G02 X260.9238 Y833.2766 I0.7014 J-0.6618
G02 X259.7776 Y832.0617 I-0.9238 J-0.2766
G02 X259.2986 Y833.6618 Z-1.6781 I0.2224 J0.9383
G02 X260.0305 Y833.9638 Z-1.7500 I0.7014 J-0.6618
G03 X259.2986 Y833.6618 Z-1.8219 I-0.0305 J-0.9638
G03 X259.7776 Y832.0617 Z-2.0000 I0.7014 J-0.6618
G02 X259.2986 Y833.6618 I0.2224 J0.9383
G02 X260.9238 Y833.2766 I0.7014 J-0.6618
G02 X259.7776 Y832.0617 I-0.9238 J-0.2766
G02 X259.2986 Y833.6618 Z-2.1781 I0.2224 J0.9383
G02 X260.0305 Y833.9638 Z-2.2500 I0.7014 J-0.6618
G03 X259.2986 Y833.6618 Z-2.3219 I-0.0305 J-0.9638
G03 X259.7776 Y832.0617 Z-2.5000 I0.7014 J-0.6618
G02 X259.2986 Y833.6618 I0.2224 J0.9383
G02 X260.9238 Y833.2766 I0.7014 J-0.6618
G02 X259.7776 Y832.0617 I-0.9238 J-0.2766
G02 X259.2986 Y833.6618 Z-2.6781 I0.2224 J0.9383
G02 X260.0305 Y833.9638 Z-2.7500 I0.7014 J-0.6618
G03 X259.2986 Y833.6618 Z-2.8219 I-0.0305 J-0.9638
G03 X259.7776 Y832.0617 Z-3.0000 I0.7014 J-0.6618
G02 X259.2986 Y833.6618 I0.2224 J0.9383
G02 X260.9238 Y833.2766 I0.7014 J-0.6618
G02 X259.7776 Y832.0617 I-0.9238 J-0.2766
G02 X259.2986 Y833.6618 Z-3.1781 I0.2224 J0.9383
G02 X260.0305 Y833.9638 Z-3.2500 I0.7014 J-0.6618
G03 X259.2986 Y833.6618 Z-3.3219 I-0.0305 J-0.9638
G03 X259.7776 Y832.0617 Z-3.5000 I0.7014 J-0.6618
G02 X259.2986 Y833.6618 I0.2224 J0.9383
G02 X260.9238 Y833.2766 I0.7014 J-0.6618
G02 X259.7776 Y832.0617 I-0.9238 J-0.2766
G02 X259.2986 Y833.6618 Z-3.6781 I0.2224 J0.9383
G02 X260.0305 Y833.9638 Z-3.7500 I0.7014 J-0.6618
G03 X259.2986 Y833.6618 Z-3.8219 I-0.0305 J-0.9638
G03 X259.7776 Y832.0617 Z-4.0000 I0.7014 J-0.6618
G02 X259.2986 Y833.6618 I0.2224 J0.9383
G02 X260.9238 Y833.2766 I0.7014 J-0.6618
G02 X259.7776 Y832.0617 I-0.9238 J-0.2766
G02 X259.2986 Y833.6618 Z-4.1781 I0.2224 J0.9383
G02 X260.0305 Y833.9638 Z-4.2500 I0.7014 J-0.6618
G03 X259.2986 Y833.6618 Z-4.3219 I-0.0305 J-0.9638
G03 X259.7776 Y832.0617 Z-4.5000 I0.7014 J-0.6618
G02 X259.2986 Y833.6618 I0.2224 J0.9383
G02 X260.9238 Y833.2766 I0.7014 J-0.6618
G02 X259.7776 Y832.0617 I-0.9238 J-0.2766
G02 X259.2986 Y833.6618 Z-4.6781 I0.2224 J0.9383
G02 X260.0305 Y833.9638 Z-4.7500 I0.7014 J-0.6618
G03 X259.2986 Y833.6618 Z-4.8219 I-0.0305 J-0.9638
G03 X259.7776 Y832.0617 Z-5.0000 I0.7014 J-0.6618
G02 X259.2986 Y833.6618 I0.2224 J0.9383
G02 X260.9238 Y833.2766 I0.7014 J-0.6618
G02 X259.7776 Y832.0617 I-0.9238 J-0.2766
G02 X259.2986 Y833.6618 Z-5.1781 I0.2224 J0.9383
G02 X260.0305 Y833.9638 Z-5.2500 I0.7014 J-0.6618
G03 X259.2986 Y833.6618 Z-5.3219 I-0.0305 J-0.9638
G03 X259.7776 Y832.0617 Z-5.5000 I0.7014 J-0.6618
G02 X259.2986 Y833.6618 I0.2224 J0.9383
G02 X260.9238 Y833.2766 I0.7014 J-0.6618
G02 X259.7776 Y832.0617 I-0.9238 J-0.2766
G02 X259.2986 Y833.6618 Z-5.6781 I0.2224 J0.9383
G02 X260.0305 Y833.9638 Z-5.7500 I0.7014 J-0.6618
G03 X259.2986 Y833.6618 Z-5.8219 I-0.0305 J-0.9638
G03 X259.7776 Y832.0617 Z-6.0000 I0.7014 J-0.6618
G02 X259.2986 Y833.6618 I0.2224 J0.9383
G02 X260.9238 Y833.2766 I0.7014 J-0.6618
G02 X259.7776 Y832.0617 I-0.9238 J-0.2766
G02 X259.2986 Y833.6618 Z-6.1781 I0.2224 J0.9383
G02 X260.0305 Y833.9638 Z-6.2500 I0.7014 J-0.6618
G03 X259.2986 Y833.6618 Z-6.3219 I-0.0305 J-0.9638
G03 X259.7776 Y832.0617 Z-6.5000 I0.7014 J-0.6618
G02 X259.2986 Y833.6618 I0.2224 J0.9383
G02 X260.9238 Y833.2766 I0.7014 J-0.6618
G02 X259.7776 Y832.0617 I-0.9238 J-0.2766
G02 X259.2986 Y833.6618 Z-6.6781 I0.2224 J0.9383
G02 X260.0305 Y833.9638 Z-6.7500 I0.7014 J-0.6618
G03 X259.2986 Y833.6618 Z-6.8219 I-0.0305 J-0.9638
G03 X259.7776 Y832.0617 Z-7.0000 I0.7014 J-0.6618
G02 X259.2986 Y833.6618 I0.2224 J0.9383
G02 X260.9238 Y833.2766 I0.7014 J-0.6618
G02 X259.7776 Y832.0617 I-0.9238 J-0.2766
G02 X259.2986 Y833.6618 Z-7.1781 I0.2224 J0.9383
G02 X260.0305 Y833.9638 Z-7.2500 I0.7014 J-0.6618
G03 X259.2986 Y833.6618 Z-7.3219 I-0.0305 J-0.9638
G03 X259.7776 Y832.0617 Z-7.5000 I0.7014 J-0.6618
G02 X259.2986 Y833.6618 I0.2224 J0.9383
G02 X260.9238 Y833.2766 I0.7014 J-0.6618
G02 X259.7776 Y832.0617 I-0.9238 J-0.2766
G02 X259.2986 Y833.6618 Z-7.6781 I0.2224 J0.9383
G02 X260.0305 Y833.9638 Z-7.7500 I0.7014 J-0.6618
G03 X259.2986 Y833.6618 Z-7.8219 I-0.0305 J-0.9638
G03 X259.7776 Y832.0617 Z-8.0000 I0.7014 J-0.6618
G02 X259.2986 Y833.6618 I0.2224 J0.9383
G02 X260.9238 Y833.2766 I0.7014 J-0.6618
G02 X259.7776 Y832.0617 I-0.9238 J-0.2766
G02 X259.2986 Y833.6618 Z-8.1781 I0.2224 J0.9383
G02 X260.0305 Y833.9638 Z-8.2500 I0.7014 J-0.6618
G03 X259.2986 Y833.6618 Z-8.3219 I-0.0305 J-0.9638
G03 X259.7776 Y832.0617 Z-8.5000 I0.7014 J-0.6618
G02 X259.2986 Y833.6618 I0.2224 J0.9383
G02 X260.9238 Y833.2766 I0.7014 J-0.6618
G02 X259.7776 Y832.0617 I-0.9238 J-0.2766
G02 X259.2986 Y833.6618 Z-8.6781 I0.2224 J0.9383
G02 X260.0305 Y833.9638 Z-8.7500 I0.7014 J-0.6618
G03 X259.2986 Y833.6618 Z-8.8219 I-0.0305 J-0.9638
G03 X259.7776 Y832.0617 Z-9.0000 I0.7014 J-0.6618
G02 X259.2986 Y833.6618 I0.2224 J0.9383
G02 X260.9238 Y833.2766 I0.7014 J-0.6618
G02 X259.7776 Y832.0617 I-0.9238 J-0.2766
G02 X259.2986 Y833.6618 Z-9.1781 I0.2224 J0.9383
G02 X260.0305 Y833.9638 Z-9.2500 I0.7014 J-0.6618
G03 X259.2986 Y833.6618 Z-9.3219 I-0.0305 J-0.9638
G03 X259.7776 Y832.0617 Z-9.5000 I0.7014 J-0.6618
G02 X259.2986 Y833.6618 I0.2224 J0.9383
G02 X260.9238 Y833.2766 I0.7014 J-0.6618
G02 X259.7776 Y832.0617 I-0.9238 J-0.2766
G02 X259.2986 Y833.6618 Z-9.6781 I0.2224 J0.9383
G02 X260.0305 Y833.9638 Z-9.7500 I0.7014 J-0.6618
G03 X259.2986 Y833.6618 Z-9.8219 I-0.0305 J-0.9638
G03 X259.7776 Y832.0617 Z-10.0000 I0.7014 J-0.6618
G02 X259.2986 Y833.6618 I0.2224 J0.9383
G02 X260.9238 Y833.2766 I0.7014 J-0.6618
G02 X259.7776 Y832.0617 I-0.9238 J-0.2766
G00 Z5.0000


(Nr. 21 Ausschnitt: Ausschnitt 10)
G00 X458.3968 Y829.9848 Z5.0000
G00 Z0.5000
G01 Z0.0000 F1000
G02 X456.6927 Y832.1494 Z-0.2500 I1.6032 J3.0152
G03 X458.3968 Y829.9848 Z-0.5000 I3.3073 J0.8506
G02 X458.1904 Y835.8960 I1.6032 J3.0152
G02 X463.4129 Y833.1192 I1.8096 J-2.8960
G02 X458.3968 Y829.9848 I-3.4129 J-0.1192
G02 X456.6927 Y832.1494 Z-0.7500 I1.6032 J3.0152
G03 X458.3968 Y829.9848 Z-1.0000 I3.3073 J0.8506
G02 X458.1904 Y835.8960 I1.6032 J3.0152
G02 X463.4129 Y833.1192 I1.8096 J-2.8960
G02 X458.3968 Y829.9848 I-3.4129 J-0.1192
G02 X456.6927 Y832.1494 Z-1.2500 I1.6032 J3.0152
G03 X458.3968 Y829.9848 Z-1.5000 I3.3073 J0.8506
G02 X458.1904 Y835.8960 I1.6032 J3.0152
G02 X463.4129 Y833.1192 I1.8096 J-2.8960
G02 X458.3968 Y829.9848 I-3.4129 J-0.1192
G02 X456.6927 Y832.1494 Z-1.7500 I1.6032 J3.0152
G03 X458.3968 Y829.9848 Z-2.0000 I3.3073 J0.8506
G02 X458.1904 Y835.8960 I1.6032 J3.0152
G02 X463.4129 Y833.1192 I1.8096 J-2.8960
G02 X458.3968 Y829.9848 I-3.4129 J-0.1192
G02 X456.6927 Y832.1494 Z-2.2500 I1.6032 J3.0152
G03 X458.3968 Y829.9848 Z-2.5000 I3.3073 J0.8506
G02 X458.1904 Y835.8960 I1.6032 J3.0152
G02 X463.4129 Y833.1192 I1.8096 J-2.8960
G02 X458.3968 Y829.9848 I-3.4129 J-0.1192
G02 X456.6927 Y832.1494 Z-2.7500 I1.6032 J3.0152
G03 X458.3968 Y829.9848 Z-3.0000 I3.3073 J0.8506
G02 X458.1904 Y835.8960 I1.6032 J3.0152
G02 X463.4129 Y833.1192 I1.8096 J-2.8960
G02 X458.3968 Y829.9848 I-3.4129 J-0.1192
G02 X456.6927 Y832.1494 Z-3.2500 I1.6032 J3.0152
G03 X458.3968 Y829.9848 Z-3.5000 I3.3073 J0.8506
G02 X458.1904 Y835.8960 I1.6032 J3.0152
G02 X463.4129 Y833.1192 I1.8096 J-2.8960
G02 X458.3968 Y829.9848 I-3.4129 J-0.1192
G02 X456.6927 Y832.1494 Z-3.7500 I1.6032 J3.0152
G03 X458.3968 Y829.9848 Z-4.0000 I3.3073 J0.8506
G02 X458.1904 Y835.8960 I1.6032 J3.0152
G02 X463.4129 Y833.1192 I1.8096 J-2.8960
G02 X458.3968 Y829.9848 I-3.4129 J-0.1192
G02 X456.6927 Y832.1494 Z-4.2500 I1.6032 J3.0152
G03 X458.3968 Y829.9848 Z-4.5000 I3.3073 J0.8506
G02 X458.1904 Y835.8960 I1.6032 J3.0152
G02 X463.4129 Y833.1192 I1.8096 J-2.8960
G02 X458.3968 Y829.9848 I-3.4129 J-0.1192
G02 X456.6927 Y832.1494 Z-4.7500 I1.6032 J3.0152
G03 X458.3968 Y829.9848 Z-5.0000 I3.3073 J0.8506
G02 X458.1904 Y835.8960 I1.6032 J3.0152
G02 X463.4129 Y833.1192 I1.8096 J-2.8960
G02 X458.3968 Y829.9848 I-3.4129 J-0.1192
G02 X456.6927 Y832.1494 Z-5.2500 I1.6032 J3.0152
G03 X458.3968 Y829.9848 Z-5.5000 I3.3073 J0.8506
G02 X458.1904 Y835.8960 I1.6032 J3.0152
G02 X463.4129 Y833.1192 I1.8096 J-2.8960
G02 X458.3968 Y829.9848 I-3.4129 J-0.1192
G02 X456.6927 Y832.1494 Z-5.7500 I1.6032 J3.0152
G03 X458.3968 Y829.9848 Z-6.0000 I3.3073 J0.8506
G02 X458.1904 Y835.8960 I1.6032 J3.0152
G02 X463.4129 Y833.1192 I1.8096 J-2.8960
G02 X458.3968 Y829.9848 I-3.4129 J-0.1192
G00 Z5.0000


(Nr. 22 Ausschnitt: Ausschnitt 22)
G00 X459.5672 Y832.1382 Z5.0000
G00 Z0.5000
G01 Z0.0000 F1000
G02 X459.4701 Y833.8057 Z-0.1781 I0.4328 J0.8618
G02 X460.2520 Y833.9308 Z-0.2500 I0.5299 J-0.8057
G03 X459.4701 Y833.8057 Z-0.3219 I-0.2520 J-0.9308
G03 X459.5672 Y832.1382 Z-0.5000 I0.5299 J-0.8057
G02 X459.4701 Y833.8057 I0.4328 J0.8618
G02 X460.9627 Y833.0561 I0.5299 J-0.8057
G02 X459.5672 Y832.1382 I-0.9627 J-0.0561
G02 X459.4701 Y833.8057 Z-0.6781 I0.4328 J0.8618
G02 X460.2520 Y833.9308 Z-0.7500 I0.5299 J-0.8057
G03 X459.4701 Y833.8057 Z-0.8219 I-0.2520 J-0.9308
G03 X459.5672 Y832.1382 Z-1.0000 I0.5299 J-0.8057
G02 X459.4701 Y833.8057 I0.4328 J0.8618
G02 X460.9627 Y833.0561 I0.5299 J-0.8057
G02 X459.5672 Y832.1382 I-0.9627 J-0.0561
G02 X459.4701 Y833.8057 Z-1.1781 I0.4328 J0.8618
G02 X460.2520 Y833.9308 Z-1.2500 I0.5299 J-0.8057
G03 X459.4701 Y833.8057 Z-1.3219 I-0.2520 J-0.9308
G03 X459.5672 Y832.1382 Z-1.5000 I0.5299 J-0.8057
G02 X459.4701 Y833.8057 I0.4328 J0.8618
G02 X460.9627 Y833.0561 I0.5299 J-0.8057
G02 X459.5672 Y832.1382 I-0.9627 J-0.0561
G02 X459.4701 Y833.8057 Z-1.6781 I0.4328 J0.8618
G02 X460.2520 Y833.9308 Z-1.7500 I0.5299 J-0.8057
G03 X459.4701 Y833.8057 Z-1.8219 I-0.2520 J-0.9308
G03 X459.5672 Y832.1382 Z-2.0000 I0.5299 J-0.8057
G02 X459.4701 Y833.8057 I0.4328 J0.8618
G02 X460.9627 Y833.0561 I0.5299 J-0.8057
G02 X459.5672 Y832.1382 I-0.9627 J-0.0561
G02 X459.4701 Y833.8057 Z-2.1781 I0.4328 J0.8618
G02 X460.2520 Y833.9308 Z-2.2500 I0.5299 J-0.8057
G03 X459.4701 Y833.8057 Z-2.3219 I-0.2520 J-0.9308
G03 X459.5672 Y832.1382 Z-2.5000 I0.5299 J-0.8057
G02 X459.4701 Y833.8057 I0.4328 J0.8618
G02 X460.9627 Y833.0561 I0.5299 J-0.8057
G02 X459.5672 Y832.1382 I-0.9627 J-0.0561
G02 X459.4701 Y833.8057 Z-2.6781 I0.4328 J0.8618
G02 X460.2520 Y833.9308 Z-2.7500 I0.5299 J-0.8057
G03 X459.4701 Y833.8057 Z-2.8219 I-0.2520 J-0.9308
G03 X459.5672 Y832.1382 Z-3.0000 I0.5299 J-0.8057
G02 X459.4701 Y833.8057 I0.4328 J0.8618
G02 X460.9627 Y833.0561 I0.5299 J-0.8057
G02 X459.5672 Y832.1382 I-0.9627 J-0.0561
G02 X459.4701 Y833.8057 Z-3.1781 I0.4328 J0.8618
G02 X460.2520 Y833.9308 Z-3.2500 I0.5299 J-0.8057
G03 X459.4701 Y833.8057 Z-3.3219 I-0.2520 J-0.9308
G03 X459.5672 Y832.1382 Z-3.5000 I0.5299 J-0.8057
G02 X459.4701 Y833.8057 I0.4328 J0.8618
G02 X460.9627 Y833.0561 I0.5299 J-0.8057
G02 X459.5672 Y832.1382 I-0.9627 J-0.0561
G02 X459.4701 Y833.8057 Z-3.6781 I0.4328 J0.8618
G02 X460.2520 Y833.9308 Z-3.7500 I0.5299 J-0.8057
G03 X459.4701 Y833.8057 Z-3.8219 I-0.2520 J-0.9308
G03 X459.5672 Y832.1382 Z-4.0000 I0.5299 J-0.8057
G02 X459.4701 Y833.8057 I0.4328 J0.8618
G02 X460.9627 Y833.0561 I0.5299 J-0.8057
G02 X459.5672 Y832.1382 I-0.9627 J-0.0561
G02 X459.4701 Y833.8057 Z-4.1781 I0.4328 J0.8618
G02 X460.2520 Y833.9308 Z-4.2500 I0.5299 J-0.8057
G03 X459.4701 Y833.8057 Z-4.3219 I-0.2520 J-0.9308
G03 X459.5672 Y832.1382 Z-4.5000 I0.5299 J-0.8057
G02 X459.4701 Y833.8057 I0.4328 J0.8618
G02 X460.9627 Y833.0561 I0.5299 J-0.8057
G02 X459.5672 Y832.1382 I-0.9627 J-0.0561
G02 X459.4701 Y833.8057 Z-4.6781 I0.4328 J0.8618
G02 X460.2520 Y833.9308 Z-4.7500 I0.5299 J-0.8057
G03 X459.4701 Y833.8057 Z-4.8219 I-0.2520 J-0.9308
G03 X459.5672 Y832.1382 Z-5.0000 I0.5299 J-0.8057
G02 X459.4701 Y833.8057 I0.4328 J0.8618
G02 X460.9627 Y833.0561 I0.5299 J-0.8057
G02 X459.5672 Y832.1382 I-0.9627 J-0.0561
G02 X459.4701 Y833.8057 Z-5.1781 I0.4328 J0.8618
G02 X460.2520 Y833.9308 Z-5.2500 I0.5299 J-0.8057
G03 X459.4701 Y833.8057 Z-5.3219 I-0.2520 J-0.9308
G03 X459.5672 Y832.1382 Z-5.5000 I0.5299 J-0.8057
G02 X459.4701 Y833.8057 I0.4328 J0.8618
G02 X460.9627 Y833.0561 I0.5299 J-0.8057
G02 X459.5672 Y832.1382 I-0.9627 J-0.0561
G02 X459.4701 Y833.8057 Z-5.6781 I0.4328 J0.8618
G02 X460.2520 Y833.9308 Z-5.7500 I0.5299 J-0.8057
G03 X459.4701 Y833.8057 Z-5.8219 I-0.2520 J-0.9308
G03 X459.5672 Y832.1382 Z-6.0000 I0.5299 J-0.8057
G02 X459.4701 Y833.8057 I0.4328 J0.8618
G02 X460.9627 Y833.0561 I0.5299 J-0.8057
G02 X459.5672 Y832.1382 I-0.9627 J-0.0561
G02 X459.4701 Y833.8057 Z-6.1781 I0.4328 J0.8618
G02 X460.2520 Y833.9308 Z-6.2500 I0.5299 J-0.8057
G03 X459.4701 Y833.8057 Z-6.3219 I-0.2520 J-0.9308
G03 X459.5672 Y832.1382 Z-6.5000 I0.5299 J-0.8057
G02 X459.4701 Y833.8057 I0.4328 J0.8618
G02 X460.9627 Y833.0561 I0.5299 J-0.8057
G02 X459.5672 Y832.1382 I-0.9627 J-0.0561
G02 X459.4701 Y833.8057 Z-6.6781 I0.4328 J0.8618
G02 X460.2520 Y833.9308 Z-6.7500 I0.5299 J-0.8057
G03 X459.4701 Y833.8057 Z-6.8219 I-0.2520 J-0.9308
G03 X459.5672 Y832.1382 Z-7.0000 I0.5299 J-0.8057
G02 X459.4701 Y833.8057 I0.4328 J0.8618
G02 X460.9627 Y833.0561 I0.5299 J-0.8057
G02 X459.5672 Y832.1382 I-0.9627 J-0.0561
G02 X459.4701 Y833.8057 Z-7.1781 I0.4328 J0.8618
G02 X460.2520 Y833.9308 Z-7.2500 I0.5299 J-0.8057
G03 X459.4701 Y833.8057 Z-7.3219 I-0.2520 J-0.9308
G03 X459.5672 Y832.1382 Z-7.5000 I0.5299 J-0.8057
G02 X459.4701 Y833.8057 I0.4328 J0.8618
G02 X460.9627 Y833.0561 I0.5299 J-0.8057
G02 X459.5672 Y832.1382 I-0.9627 J-0.0561
G02 X459.4701 Y833.8057 Z-7.6781 I0.4328 J0.8618
G02 X460.2520 Y833.9308 Z-7.7500 I0.5299 J-0.8057
G03 X459.4701 Y833.8057 Z-7.8219 I-0.2520 J-0.9308
G03 X459.5672 Y832.1382 Z-8.0000 I0.5299 J-0.8057
G02 X459.4701 Y833.8057 I0.4328 J0.8618
G02 X460.9627 Y833.0561 I0.5299 J-0.8057
G02 X459.5672 Y832.1382 I-0.9627 J-0.0561
G02 X459.4701 Y833.8057 Z-8.1781 I0.4328 J0.8618
G02 X460.2520 Y833.9308 Z-8.2500 I0.5299 J-0.8057
G03 X459.4701 Y833.8057 Z-8.3219 I-0.2520 J-0.9308
G03 X459.5672 Y832.1382 Z-8.5000 I0.5299 J-0.8057
G02 X459.4701 Y833.8057 I0.4328 J0.8618
G02 X460.9627 Y833.0561 I0.5299 J-0.8057
G02 X459.5672 Y832.1382 I-0.9627 J-0.0561
G02 X459.4701 Y833.8057 Z-8.6781 I0.4328 J0.8618
G02 X460.2520 Y833.9308 Z-8.7500 I0.5299 J-0.8057
G03 X459.4701 Y833.8057 Z-8.8219 I-0.2520 J-0.9308
G03 X459.5672 Y832.1382 Z-9.0000 I0.5299 J-0.8057
G02 X459.4701 Y833.8057 I0.4328 J0.8618
