(Projekt Tisch-Verschraubungen)
(Erstellt mit Estlcam Version 11 Build 11,245)
(Laufzeit ca. 00:00:36 Stunden)

(Benötigte Werkzeuge:)
(Alu 2 Schneider)

M03 S27000
G00 Z5.0000


(Nr. 1 Ausschnitt: Ausschnitt 1)
G00 X7.2412 Y6.0728
G00 Z0.5000
G01 Z0.0000 F1000 S27000
G02 X5.6527 Y8.3236 Z-0.2500 I1.7588 J2.9272
G03 X7.2412 Y6.0728 Z-0.5000 I3.3473 J0.6764
G02 X7.3444 Y11.9868 I1.7588 J2.9272
G02 X12.4144 Y8.9404 I1.6556 J-2.9868
G02 X7.2412 Y6.0728 I-3.4144 J0.0596
G02 X5.6527 Y8.3236 Z-0.7500 I1.7588 J2.9272
G03 X7.2412 Y6.0728 Z-1.0000 I3.3473 J0.6764
G02 X7.3444 Y11.9868 I1.7588 J2.9272
G02 X12.4144 Y8.9404 I1.6556 J-2.9868
G02 X7.2412 Y6.0728 I-3.4144 J0.0596
G02 X5.6527 Y8.3236 Z-1.2500 I1.7588 J2.9272
G03 X7.2412 Y6.0728 Z-1.5000 I3.3473 J0.6764
G02 X7.3444 Y11.9868 I1.7588 J2.9272
G02 X12.4144 Y8.9404 I1.6556 J-2.9868
G02 X7.2412 Y6.0728 I-3.4144 J0.0596
G02 X5.6527 Y8.3236 Z-1.7500 I1.7588 J2.9272
G03 X7.2412 Y6.0728 Z-2.0000 I3.3473 J0.6764
G02 X7.3444 Y11.9868 I1.7588 J2.9272
G02 X12.4144 Y8.9404 I1.6556 J-2.9868
G02 X7.2412 Y6.0728 I-3.4144 J0.0596
G02 X5.6527 Y8.3236 Z-2.2500 I1.7588 J2.9272
G03 X7.2412 Y6.0728 Z-2.5000 I3.3473 J0.6764
G02 X7.3444 Y11.9868 I1.7588 J2.9272
G02 X12.4144 Y8.9404 I1.6556 J-2.9868
G02 X7.2412 Y6.0728 I-3.4144 J0.0596
G02 X5.6527 Y8.3236 Z-2.7500 I1.7588 J2.9272
G03 X7.2412 Y6.0728 Z-3.0000 I3.3473 J0.6764
G02 X7.3444 Y11.9868 I1.7588 J2.9272
G02 X12.4144 Y8.9404 I1.6556 J-2.9868
G02 X7.2412 Y6.0728 I-3.4144 J0.0596
G02 X5.6527 Y8.3236 Z-3.2500 I1.7588 J2.9272
G03 X7.2412 Y6.0728 Z-3.5000 I3.3473 J0.6764
G02 X7.3444 Y11.9868 I1.7588 J2.9272
G02 X12.4144 Y8.9404 I1.6556 J-2.9868
G02 X7.2412 Y6.0728 I-3.4144 J0.0596
G02 X5.6527 Y8.3236 Z-3.7500 I1.7588 J2.9272
G03 X7.2412 Y6.0728 Z-4.0000 I3.3473 J0.6764
G02 X7.3444 Y11.9868 I1.7588 J2.9272
G02 X12.4144 Y8.9404 I1.6556 J-2.9868
G02 X7.2412 Y6.0728 I-3.4144 J0.0596
G02 X5.6527 Y8.3236 Z-4.2500 I1.7588 J2.9272
G03 X7.2412 Y6.0728 Z-4.5000 I3.3473 J0.6764
G02 X7.3444 Y11.9868 I1.7588 J2.9272
G02 X12.4144 Y8.9404 I1.6556 J-2.9868
G02 X7.2412 Y6.0728 I-3.4144 J0.0596
G02 X5.6527 Y8.3236 Z-4.7500 I1.7588 J2.9272
G03 X7.2412 Y6.0728 Z-5.0000 I3.3473 J0.6764
G02 X7.3444 Y11.9868 I1.7588 J2.9272
G02 X12.4144 Y8.9404 I1.6556 J-2.9868
G02 X7.2412 Y6.0728 I-3.4144 J0.0596
G02 X5.6527 Y8.3236 Z-5.2500 I1.7588 J2.9272
G03 X7.2412 Y6.0728 Z-5.5000 I3.3473 J0.6764
G02 X7.3444 Y11.9868 I1.7588 J2.9272
G02 X12.4144 Y8.9404 I1.6556 J-2.9868
G02 X7.2412 Y6.0728 I-3.4144 J0.0596
G02 X5.6527 Y8.3236 Z-5.7500 I1.7588 J2.9272
G03 X7.2412 Y6.0728 Z-6.0000 I3.3473 J0.6764
G02 X7.3444 Y11.9868 I1.7588 J2.9272
G02 X12.4144 Y8.9404 I1.6556 J-2.9868
G02 X7.2412 Y6.0728 I-3.4144 J0.0596
G00 Z5.0000


(Nr. 2 Ausschnitt: Ausschnitt 32)
G00 X8.5178 Y8.1649 Z5.0000
G00 Z0.5000
G01 Z0.0000 F1000
G02 Y9.8352 Z-0.1781 I0.4822 J0.8351
G02 X9.3057 Y9.9146 Z-0.2500 I0.4822 J-0.8351
G03 X8.5178 Y9.8352 Z-0.3219 I-0.3057 J-0.9146
G03 Y8.1649 Z-0.5000 I0.4822 J-0.8351
G02 Y9.8352 I0.4822 J0.8351
G02 X9.9643 Y9.0000 I0.4822 J-0.8351
G02 X8.5178 Y8.1649 I-0.9643 J0.0000
G02 Y9.8352 Z-0.6781 I0.4822 J0.8351
G02 X9.3057 Y9.9146 Z-0.7500 I0.4822 J-0.8351
G03 X8.5178 Y9.8352 Z-0.8219 I-0.3057 J-0.9146
G03 Y8.1649 Z-1.0000 I0.4822 J-0.8351
G02 Y9.8352 I0.4822 J0.8351
G02 X9.9643 Y9.0000 I0.4822 J-0.8351
G02 X8.5178 Y8.1649 I-0.9643 J0.0000
G02 Y9.8352 Z-1.1781 I0.4822 J0.8351
G02 X9.3057 Y9.9146 Z-1.2500 I0.4822 J-0.8351
G03 X8.5178 Y9.8352 Z-1.3219 I-0.3057 J-0.9146
G03 Y8.1649 Z-1.5000 I0.4822 J-0.8351
G02 Y9.8352 I0.4822 J0.8351
G02 X9.9643 Y9.0000 I0.4822 J-0.8351
G02 X8.5178 Y8.1649 I-0.9643 J0.0000
G02 Y9.8352 Z-1.6781 I0.4822 J0.8351
G02 X9.3057 Y9.9146 Z-1.7500 I0.4822 J-0.8351
G03 X8.5178 Y9.8352 Z-1.8219 I-0.3057 J-0.9146
G03 Y8.1649 Z-2.0000 I0.4822 J-0.8351
G02 Y9.8352 I0.4822 J0.8351
G02 X9.9643 Y9.0000 I0.4822 J-0.8351
G02 X8.5178 Y8.1649 I-0.9643 J0.0000
G02 Y9.8352 Z-2.1781 I0.4822 J0.8351
G02 X9.3057 Y9.9146 Z-2.2500 I0.4822 J-0.8351
G03 X8.5178 Y9.8352 Z-2.3219 I-0.3057 J-0.9146
G03 Y8.1649 Z-2.5000 I0.4822 J-0.8351
G02 Y9.8352 I0.4822 J0.8351
G02 X9.9643 Y9.0000 I0.4822 J-0.8351
G02 X8.5178 Y8.1649 I-0.9643 J0.0000
G02 Y9.8352 Z-2.6781 I0.4822 J0.8351
G02 X9.3057 Y9.9146 Z-2.7500 I0.4822 J-0.8351
G03 X8.5178 Y9.8352 Z-2.8219 I-0.3057 J-0.9146
G03 Y8.1649 Z-3.0000 I0.4822 J-0.8351
G02 Y9.8352 I0.4822 J0.8351
G02 X9.9643 Y9.0000 I0.4822 J-0.8351
G02 X8.5178 Y8.1649 I-0.9643 J0.0000
G02 Y9.8352 Z-3.1781 I0.4822 J0.8351
G02 X9.3057 Y9.9146 Z-3.2500 I0.4822 J-0.8351
G03 X8.5178 Y9.8352 Z-3.3219 I-0.3057 J-0.9146
G03 Y8.1649 Z-3.5000 I0.4822 J-0.8351
G02 Y9.8352 I0.4822 J0.8351
G02 X9.9643 Y9.0000 I0.4822 J-0.8351
G02 X8.5178 Y8.1649 I-0.9643 J0.0000
G02 Y9.8352 Z-3.6781 I0.4822 J0.8351
G02 X9.3057 Y9.9146 Z-3.7500 I0.4822 J-0.8351
G03 X8.5178 Y9.8352 Z-3.8219 I-0.3057 J-0.9146
G03 Y8.1649 Z-4.0000 I0.4822 J-0.8351
G02 Y9.8352 I0.4822 J0.8351
G02 X9.9643 Y9.0000 I0.4822 J-0.8351
G02 X8.5178 Y8.1649 I-0.9643 J0.0000
G02 Y9.8352 Z-4.1781 I0.4822 J0.8351
G02 X9.3057 Y9.9146 Z-4.2500 I0.4822 J-0.8351
G03 X8.5178 Y9.8352 Z-4.3219 I-0.3057 J-0.9146
G03 Y8.1649 Z-4.5000 I0.4822 J-0.8351
G02 Y9.8352 I0.4822 J0.8351
G02 X9.9643 Y9.0000 I0.4822 J-0.8351
G02 X8.5178 Y8.1649 I-0.9643 J0.0000
G02 Y9.8352 Z-4.6781 I0.4822 J0.8351
G02 X9.3057 Y9.9146 Z-4.7500 I0.4822 J-0.8351
G03 X8.5178 Y9.8352 Z-4.8219 I-0.3057 J-0.9146
G03 Y8.1649 Z-5.0000 I0.4822 J-0.8351
G02 Y9.8352 I0.4822 J0.8351
G02 X9.9643 Y9.0000 I0.4822 J-0.8351
G02 X8.5178 Y8.1649 I-0.9643 J0.0000
G02 Y9.8352 Z-5.1781 I0.4822 J0.8351
G02 X9.3057 Y9.9146 Z-5.2500 I0.4822 J-0.8351
G03 X8.5178 Y9.8352 Z-5.3219 I-0.3057 J-0.9146
G03 Y8.1649 Z-5.5000 I0.4822 J-0.8351
G02 Y9.8352 I0.4822 J0.8351
G02 X9.9643 Y9.0000 I0.4822 J-0.8351
G02 X8.5178 Y8.1649 I-0.9643 J0.0000
G02 Y9.8352 Z-5.6781 I0.4822 J0.8351
G02 X9.3057 Y9.9146 Z-5.7500 I0.4822 J-0.8351
G03 X8.5178 Y9.8352 Z-5.8219 I-0.3057 J-0.9146
G03 Y8.1649 Z-6.0000 I0.4822 J-0.8351
G02 Y9.8352 I0.4822 J0.8351
G02 X9.9643 Y9.0000 I0.4822 J-0.8351
G02 X8.5178 Y8.1649 I-0.9643 J0.0000
G02 Y9.8352 Z-6.1781 I0.4822 J0.8351
G02 X9.3057 Y9.9146 Z-6.2500 I0.4822 J-0.8351
G03 X8.5178 Y9.8352 Z-6.3219 I-0.3057 J-0.9146
G03 Y8.1649 Z-6.5000 I0.4822 J-0.8351
G02 Y9.8352 I0.4822 J0.8351
G02 X9.9643 Y9.0000 I0.4822 J-0.8351
G02 X8.5178 Y8.1649 I-0.9643 J0.0000
G02 Y9.8352 Z-6.6781 I0.4822 J0.8351
G02 X9.3057 Y9.9146 Z-6.7500 I0.4822 J-0.8351
G03 X8.5178 Y9.8352 Z-6.8219 I-0.3057 J-0.9146
G03 Y8.1649 Z-7.0000 I0.4822 J-0.8351
G02 Y9.8352 I0.4822 J0.8351
G02 X9.9643 Y9.0000 I0.4822 J-0.8351
G02 X8.5178 Y8.1649 I-0.9643 J0.0000
G02 Y9.8352 Z-7.1781 I0.4822 J0.8351
G02 X9.3057 Y9.9146 Z-7.2500 I0.4822 J-0.8351
G03 X8.5178 Y9.8352 Z-7.3219 I-0.3057 J-0.9146
G03 Y8.1649 Z-7.5000 I0.4822 J-0.8351
G02 Y9.8352 I0.4822 J0.8351
G02 X9.9643 Y9.0000 I0.4822 J-0.8351
G02 X8.5178 Y8.1649 I-0.9643 J0.0000
G02 Y9.8352 Z-7.6781 I0.4822 J0.8351
G02 X9.3057 Y9.9146 Z-7.7500 I0.4822 J-0.8351
G03 X8.5178 Y9.8352 Z-7.8219 I-0.3057 J-0.9146
G03 Y8.1649 Z-8.0000 I0.4822 J-0.8351
G02 Y9.8352 I0.4822 J0.8351
G02 X9.9643 Y9.0000 I0.4822 J-0.8351
G02 X8.5178 Y8.1649 I-0.9643 J0.0000
G02 Y9.8352 Z-8.1781 I0.4822 J0.8351
G02 X9.3057 Y9.9146 Z-8.2500 I0.4822 J-0.8351
G03 X8.5178 Y9.8352 Z-8.3219 I-0.3057 J-0.9146
G03 Y8.1649 Z-8.5000 I0.4822 J-0.8351
G02 Y9.8352 I0.4822 J0.8351
G02 X9.9643 Y9.0000 I0.4822 J-0.8351
G02 X8.5178 Y8.1649 I-0.9643 J0.0000
G02 Y9.8352 Z-8.6781 I0.4822 J0.8351
G02 X9.3057 Y9.9146 Z-8.7500 I0.4822 J-0.8351
G03 X8.5178 Y9.8352 Z-8.8219 I-0.3057 J-0.9146
G03 Y8.1649 Z-9.0000 I0.4822 J-0.8351
G02 Y9.8352 I0.4822 J0.8351
G02 X9.9643 Y9.0000 I0.4822 J-0.8351
G02 X8.5178 Y8.1649 I-0.9643 J0.0000
G02 Y9.8352 Z-9.1781 I0.4822 J0.8351
G02 X9.3057 Y9.9146 Z-9.2500 I0.4822 J-0.8351
G03 X8.5178 Y9.8352 Z-9.3219 I-0.3057 J-0.9146
G03 Y8.1649 Z-9.5000 I0.4822 J-0.8351
G02 Y9.8352 I0.4822 J0.8351
G02 X9.9643 Y9.0000 I0.4822 J-0.8351
G02 X8.5178 Y8.1649 I-0.9643 J0.0000
G02 Y9.8352 Z-9.6781 I0.4822 J0.8351
G02 X9.3057 Y9.9146 Z-9.7500 I0.4822 J-0.8351
G03 X8.5178 Y9.8352 Z-9.8219 I-0.3057 J-0.9146
G03 Y8.1649 Z-10.0000 I0.4822 J-0.8351
G02 Y9.8352 I0.4822 J0.8351
G02 X9.9643 Y9.0000 I0.4822 J-0.8351
G02 X8.5178 Y8.1649 I-0.9643 J0.0000
G00 Z5.0000
G00 X0.0000 Y0.0000

M05
